( imgcode generated code )
( developed by M. "Vidmo" Widomski )
(  github.com/vidmo91 )
(  hackaday.io/vidmo91 )
 

F1000
G64
 
M5 S0
M5 S0
M5 S0
M5 S0
M5 S0
M5 S0
M5 S0
M5 S0
M5 S0
M5 S0
M5 S0
M5 S0
M5 S0
M5 S0
M5 S0
M5 S0
M5 S0
M5 S0
M5 S0
M5 S0
M5 S0
M5 S0
M5 S0
M5 S0
M5 S0
M5 S0
M5 S0
M5 S0
M5 S0
M5 S0
M5 S0
M5 S0
M5 S0
M5 S0
M5 S0
M5 S0
M5 S0
M5 S0
M5 S0
M5 S0
M5 S0
M5 S0
M5 S0
M5 S0
M5 S0
M5 S0
M5 S0
M5 S0
M5 S0
M5 S0
M5 S0
M5 S0
M5 S0
M5 S0
M5 S0
M5 S0
M5 S0
M5 S0
M5 S0
M5 S0
M5 S0
M5 S0
M5 S0
M5 S0
M5 S0
M5 S0
M5 S0
M5 S0
M5 S0
M5 S0
M5 S0
M5 S0
M5 S0
M5 S0
M5 S0
M5 S0
M5 S0
M5 S0
M5 S0
M5 S0
M5 S0
M5 S0
M5 S0
M5 S0
M5 S0
G0 X48.8 Y8.5
M3 S19
G1 X48.8 Y8.5
M3 S19
G1 X48.7 Y8.5
M3 S37
G1 X48.6 Y8.5
M3 S56
G1 X48.5 Y8.5
M3 S75
G1 X48.4 Y8.5
M3 S93
G1 X48.3 Y8.5
M3 S112
G1 X48.2 Y8.5
M3 S131
G1 X48.1 Y8.5
M3 S149
G1 X48.0 Y8.5
M3 S168
G1 X47.9 Y8.5
M3 S187
G1 X44.1 Y8.5
M3 S168
G1 X44.0 Y8.5
M3 S149
G1 X43.9 Y8.5
M3 S131
G1 X43.8 Y8.5
M3 S112
G1 X43.7 Y8.5
M3 S93
G1 X43.6 Y8.5
M3 S75
G1 X43.5 Y8.5
M3 S56
G1 X43.4 Y8.5
M3 S37
G1 X43.3 Y8.5
M3 S19
G1 X43.2 Y8.5
M3 S0
G0 X39.4 Y8.5
M3 S17
G1 X39.4 Y8.5
M3 S17
G1 X39.3 Y8.5
M3 S36
G1 X39.2 Y8.5
M3 S54
G1 X39.1 Y8.5
M3 S73
G1 X39.0 Y8.5
M3 S92
G1 X38.9 Y8.5
M3 S110
G1 X38.8 Y8.5
M3 S129
G1 X38.7 Y8.5
M3 S148
G1 X38.6 Y8.5
M3 S166
G1 X38.5 Y8.5
M3 S185
G1 X38.4 Y8.5
M3 S187
G1 X34.6 Y8.5
M3 S168
G1 X34.5 Y8.5
M3 S149
G1 X34.4 Y8.5
M3 S131
G1 X34.3 Y8.5
M3 S112
G1 X34.2 Y8.5
M3 S93
G1 X34.1 Y8.5
M3 S75
G1 X34.0 Y8.5
M3 S56
G1 X33.9 Y8.5
M3 S37
G1 X33.8 Y8.5
M3 S19
G1 X33.7 Y8.5
M3 S0
G0 X30.1 Y8.5
M3 S8
G1 X30.1 Y8.5
M3 S8
G1 X30.0 Y8.5
M3 S27
G1 X29.9 Y8.5
M3 S46
G1 X29.8 Y8.5
M3 S64
G1 X29.7 Y8.5
M3 S83
G1 X29.6 Y8.5
M3 S102
G1 X29.5 Y8.5
M3 S120
G1 X29.4 Y8.5
M3 S139
G1 X29.3 Y8.5
M3 S158
G1 X29.2 Y8.5
M3 S176
G1 X29.1 Y8.5
M3 S187
G1 X25.4 Y8.5
M3 S186
G1 X25.3 Y8.5
M3 S167
G1 X25.2 Y8.5
M3 S149
G1 X25.1 Y8.5
M3 S130
G1 X25.0 Y8.5
M3 S111
G1 X24.9 Y8.5
M3 S93
G1 X24.8 Y8.5
M3 S74
G1 X24.7 Y8.5
M3 S55
G1 X24.6 Y8.5
M3 S37
G1 X24.5 Y8.5
M3 S18
G1 X24.4 Y8.5
M3 S0
G0 X20.6 Y8.5
M3 S4
G1 X20.6 Y8.5
M3 S4
G1 X20.5 Y8.5
M3 S23
G1 X20.4 Y8.5
M3 S41
G1 X20.3 Y8.5
M3 S60
G1 X20.2 Y8.5
M3 S79
G1 X20.1 Y8.5
M3 S97
G1 X20.0 Y8.5
M3 S116
G1 X19.9 Y8.5
M3 S135
G1 X19.8 Y8.5
M3 S154
G1 X19.7 Y8.5
M3 S172
G1 X19.6 Y8.5
M3 S187
G1 X9.8 Y8.5
M3 S186
G1 X9.7 Y8.5
M3 S184
G1 X9.6 Y8.5
M3 S182
G1 X9.5 Y8.5
M3 S181
G1 X9.4 Y8.5
M3 S179
G1 X9.3 Y8.5
M3 S177
G1 X9.2 Y8.5
M3 S175
G1 X9.1 Y8.5
M3 S173
G1 X9.0 Y8.5
M3 S172
G1 X8.9 Y8.5
M3 S170
G1 X8.8 Y8.5
M3 S169
G1 X2.0 Y8.5
M3 S152
G1 X1.9 Y8.5
M3 S135
G1 X1.8 Y8.5
M3 S118
G1 X1.7 Y8.5
M3 S101
G1 X1.6 Y8.5
M3 S84
G1 X1.5 Y8.5
M3 S67
G1 X1.4 Y8.5
M3 S51
G1 X1.3 Y8.5
M3 S34
G1 X1.2 Y8.5
M3 S17
G1 X1.1 Y8.5
M3 S0
M5 S0
G0 X1.1 Y8.6
M3 S19
G1 X1.1 Y8.6
M3 S19
G1 X1.2 Y8.6
M3 S45
G1 X1.3 Y8.6
M3 S70
G1 X1.4 Y8.6
M3 S96
G1 X1.5 Y8.6
M3 S121
G1 X1.6 Y8.6
M3 S147
G1 X1.7 Y8.6
M3 S172
G1 X1.8 Y8.6
M3 S198
G1 X1.9 Y8.6
M3 S223
G1 X2.0 Y8.6
M3 S249
G1 X2.1 Y8.6
M3 S255
G1 X19.6 Y8.6
M3 S229
G1 X19.7 Y8.6
M3 S204
G1 X19.8 Y8.6
M3 S178
G1 X19.9 Y8.6
M3 S153
G1 X20.0 Y8.6
M3 S127
G1 X20.1 Y8.6
M3 S102
G1 X20.2 Y8.6
M3 S76
G1 X20.3 Y8.6
M3 S51
G1 X20.4 Y8.6
M3 S25
G1 X20.5 Y8.6
M3 S0
G0 X24.3 Y8.6
M3 S3
G1 X24.3 Y8.6
M3 S3
G1 X24.4 Y8.6
M3 S28
G1 X24.5 Y8.6
M3 S54
G1 X24.6 Y8.6
M3 S79
G1 X24.7 Y8.6
M3 S105
G1 X24.8 Y8.6
M3 S130
G1 X24.9 Y8.6
M3 S156
G1 X25.0 Y8.6
M3 S181
G1 X25.1 Y8.6
M3 S207
G1 X25.2 Y8.6
M3 S232
G1 X25.3 Y8.6
M3 S255
G1 X29.1 Y8.6
M3 S230
G1 X29.2 Y8.6
M3 S204
G1 X29.3 Y8.6
M3 S178
G1 X29.4 Y8.6
M3 S153
G1 X29.5 Y8.6
M3 S128
G1 X29.6 Y8.6
M3 S102
G1 X29.7 Y8.6
M3 S76
G1 X29.8 Y8.6
M3 S51
G1 X29.9 Y8.6
M3 S26
G1 X30.0 Y8.6
M3 S0
G0 X33.6 Y8.6
M3 S5
G1 X33.6 Y8.6
M3 S5
G1 X33.7 Y8.6
M3 S30
G1 X33.8 Y8.6
M3 S56
G1 X33.9 Y8.6
M3 S81
G1 X34.0 Y8.6
M3 S107
G1 X34.1 Y8.6
M3 S132
G1 X34.2 Y8.6
M3 S158
G1 X34.3 Y8.6
M3 S183
G1 X34.4 Y8.6
M3 S209
G1 X34.5 Y8.6
M3 S234
G1 X34.6 Y8.6
M3 S255
G1 X38.4 Y8.6
M3 S230
G1 X38.5 Y8.6
M3 S204
G1 X38.6 Y8.6
M3 S179
G1 X38.7 Y8.6
M3 S153
G1 X38.8 Y8.6
M3 S128
G1 X38.9 Y8.6
M3 S102
G1 X39.0 Y8.6
M3 S77
G1 X39.1 Y8.6
M3 S51
G1 X39.2 Y8.6
M3 S26
G1 X39.3 Y8.6
M3 S0
G0 X43.1 Y8.6
M3 S10
G1 X43.1 Y8.6
M3 S10
G1 X43.2 Y8.6
M3 S36
G1 X43.3 Y8.6
M3 S61
G1 X43.4 Y8.6
M3 S87
G1 X43.5 Y8.6
M3 S112
G1 X43.6 Y8.6
M3 S138
G1 X43.7 Y8.6
M3 S163
G1 X43.8 Y8.6
M3 S189
G1 X43.9 Y8.6
M3 S214
G1 X44.0 Y8.6
M3 S240
G1 X44.1 Y8.6
M3 S255
G1 X47.8 Y8.6
M3 S248
G1 X47.9 Y8.6
M3 S223
G1 X48.0 Y8.6
M3 S197
G1 X48.1 Y8.6
M3 S172
G1 X48.2 Y8.6
M3 S146
G1 X48.3 Y8.6
M3 S121
G1 X48.4 Y8.6
M3 S95
G1 X48.5 Y8.6
M3 S70
G1 X48.6 Y8.6
M3 S44
G1 X48.7 Y8.6
M3 S19
G1 X48.8 Y8.6
M3 S0
M5 S0
G0 X48.8 Y8.7
M3 S4
G1 X48.8 Y8.7
M3 S4
G1 X48.7 Y8.7
M3 S30
G1 X48.6 Y8.7
M3 S55
G1 X48.5 Y8.7
M3 S81
G1 X48.4 Y8.7
M3 S106
G1 X48.3 Y8.7
M3 S132
G1 X48.2 Y8.7
M3 S157
G1 X48.1 Y8.7
M3 S183
G1 X48.0 Y8.7
M3 S208
G1 X47.9 Y8.7
M3 S234
G1 X47.8 Y8.7
M3 S255
G1 X44.1 Y8.7
M3 S252
G1 X44.0 Y8.7
M3 S227
G1 X43.9 Y8.7
M3 S201
G1 X43.8 Y8.7
M3 S176
G1 X43.7 Y8.7
M3 S150
G1 X43.6 Y8.7
M3 S125
G1 X43.5 Y8.7
M3 S99
G1 X43.4 Y8.7
M3 S74
G1 X43.3 Y8.7
M3 S48
G1 X43.2 Y8.7
M3 S23
G1 X43.1 Y8.7
M3 S0
G0 X39.3 Y8.7
M3 S26
G1 X39.3 Y8.7
M3 S26
G1 X39.2 Y8.7
M3 S51
G1 X39.1 Y8.7
M3 S76
G1 X39.0 Y8.7
M3 S102
G1 X38.9 Y8.7
M3 S128
G1 X38.8 Y8.7
M3 S153
G1 X38.7 Y8.7
M3 S178
G1 X38.6 Y8.7
M3 S204
G1 X38.5 Y8.7
M3 S230
G1 X38.4 Y8.7
M3 S255
G1 X34.6 Y8.7
M3 S248
G1 X34.5 Y8.7
M3 S223
G1 X34.4 Y8.7
M3 S197
G1 X34.3 Y8.7
M3 S172
G1 X34.2 Y8.7
M3 S146
G1 X34.1 Y8.7
M3 S121
G1 X34.0 Y8.7
M3 S95
G1 X33.9 Y8.7
M3 S70
G1 X33.8 Y8.7
M3 S44
G1 X33.7 Y8.7
M3 S19
G1 X33.6 Y8.7
M3 S0
G0 X30.0 Y8.7
M3 S21
G1 X30.0 Y8.7
M3 S21
G1 X29.9 Y8.7
M3 S46
G1 X29.8 Y8.7
M3 S72
G1 X29.7 Y8.7
M3 S97
G1 X29.6 Y8.7
M3 S123
G1 X29.5 Y8.7
M3 S148
G1 X29.4 Y8.7
M3 S174
G1 X29.3 Y8.7
M3 S199
G1 X29.2 Y8.7
M3 S225
G1 X29.1 Y8.7
M3 S250
G1 X29.0 Y8.7
M3 S255
G1 X25.3 Y8.7
M3 S246
G1 X25.2 Y8.7
M3 S221
G1 X25.1 Y8.7
M3 S195
G1 X25.0 Y8.7
M3 S170
G1 X24.9 Y8.7
M3 S144
G1 X24.8 Y8.7
M3 S119
G1 X24.7 Y8.7
M3 S93
G1 X24.6 Y8.7
M3 S68
G1 X24.5 Y8.7
M3 S42
G1 X24.4 Y8.7
M3 S17
G1 X24.3 Y8.7
M3 S0
G0 X20.5 Y8.7
M3 S16
G1 X20.5 Y8.7
M3 S16
G1 X20.4 Y8.7
M3 S42
G1 X20.3 Y8.7
M3 S67
G1 X20.2 Y8.7
M3 S93
G1 X20.1 Y8.7
M3 S118
G1 X20.0 Y8.7
M3 S144
G1 X19.9 Y8.7
M3 S169
G1 X19.8 Y8.7
M3 S195
G1 X19.7 Y8.7
M3 S220
G1 X19.6 Y8.7
M3 S246
G1 X19.5 Y8.7
M3 S255
G1 X2.1 Y8.7
M3 S235
G1 X2.0 Y8.7
M3 S209
G1 X1.9 Y8.7
M3 S184
G1 X1.8 Y8.7
M3 S158
G1 X1.7 Y8.7
M3 S133
G1 X1.6 Y8.7
M3 S107
G1 X1.5 Y8.7
M3 S82
G1 X1.4 Y8.7
M3 S56
G1 X1.3 Y8.7
M3 S31
G1 X1.2 Y8.7
M3 S5
G1 X1.1 Y8.7
M3 S0
M5 S0
G0 X1.2 Y8.8
M3 S24
G1 X1.2 Y8.8
M3 S24
G1 X1.3 Y8.8
M3 S50
G1 X1.4 Y8.8
M3 S75
G1 X1.5 Y8.8
M3 S101
G1 X1.6 Y8.8
M3 S126
G1 X1.7 Y8.8
M3 S152
G1 X1.8 Y8.8
M3 S177
G1 X1.9 Y8.8
M3 S203
G1 X2.0 Y8.8
M3 S228
G1 X2.1 Y8.8
M3 S254
G1 X2.2 Y8.8
M3 S255
G1 X19.4 Y8.8
M3 S243
G1 X19.5 Y8.8
M3 S217
G1 X19.6 Y8.8
M3 S192
G1 X19.7 Y8.8
M3 S166
G1 X19.8 Y8.8
M3 S141
G1 X19.9 Y8.8
M3 S115
G1 X20.0 Y8.8
M3 S90
G1 X20.1 Y8.8
M3 S64
G1 X20.2 Y8.8
M3 S39
G1 X20.3 Y8.8
M3 S13
G1 X20.4 Y8.8
M3 S0
G0 X24.2 Y8.8
M3 S20
G1 X24.2 Y8.8
M3 S20
G1 X24.3 Y8.8
M3 S45
G1 X24.4 Y8.8
M3 S71
G1 X24.5 Y8.8
M3 S96
G1 X24.6 Y8.8
M3 S122
G1 X24.7 Y8.8
M3 S147
G1 X24.8 Y8.8
M3 S173
G1 X24.9 Y8.8
M3 S198
G1 X25.0 Y8.8
M3 S224
G1 X25.1 Y8.8
M3 S249
G1 X25.2 Y8.8
M3 S255
G1 X28.9 Y8.8
M3 S247
G1 X29.0 Y8.8
M3 S221
G1 X29.1 Y8.8
M3 S196
G1 X29.2 Y8.8
M3 S170
G1 X29.3 Y8.8
M3 S145
G1 X29.4 Y8.8
M3 S119
G1 X29.5 Y8.8
M3 S94
G1 X29.6 Y8.8
M3 S68
G1 X29.7 Y8.8
M3 S43
G1 X29.8 Y8.8
M3 S17
G1 X29.9 Y8.8
M3 S0
G0 X33.5 Y8.8
M3 S1
G1 X33.5 Y8.8
M3 S1
G1 X33.6 Y8.8
M3 S26
G1 X33.7 Y8.8
M3 S52
G1 X33.8 Y8.8
M3 S77
G1 X33.9 Y8.8
M3 S103
G1 X34.0 Y8.8
M3 S128
G1 X34.1 Y8.8
M3 S154
G1 X34.2 Y8.8
M3 S179
G1 X34.3 Y8.8
M3 S205
G1 X34.4 Y8.8
M3 S230
G1 X34.5 Y8.8
M3 S255
G1 X38.3 Y8.8
M3 S233
G1 X38.4 Y8.8
M3 S208
G1 X38.5 Y8.8
M3 S182
G1 X38.6 Y8.8
M3 S157
G1 X38.7 Y8.8
M3 S131
G1 X38.8 Y8.8
M3 S106
G1 X38.9 Y8.8
M3 S80
G1 X39.0 Y8.8
M3 S55
G1 X39.1 Y8.8
M3 S29
G1 X39.2 Y8.8
M3 S4
G1 X39.3 Y8.8
M3 S0
G0 X43.0 Y8.8
M3 S3
G1 X43.0 Y8.8
M3 S3
G1 X43.1 Y8.8
M3 S29
G1 X43.2 Y8.8
M3 S54
G1 X43.3 Y8.8
M3 S80
G1 X43.4 Y8.8
M3 S105
G1 X43.5 Y8.8
M3 S131
G1 X43.6 Y8.8
M3 S156
G1 X43.7 Y8.8
M3 S182
G1 X43.8 Y8.8
M3 S207
G1 X43.9 Y8.8
M3 S233
G1 X44.0 Y8.8
M3 S255
G1 X47.7 Y8.8
M3 S231
G1 X47.8 Y8.8
M3 S206
G1 X47.9 Y8.8
M3 S180
G1 X48.0 Y8.8
M3 S155
G1 X48.1 Y8.8
M3 S129
G1 X48.2 Y8.8
M3 S104
G1 X48.3 Y8.8
M3 S78
G1 X48.4 Y8.8
M3 S53
G1 X48.5 Y8.8
M3 S27
G1 X48.6 Y8.8
M3 S2
G1 X48.7 Y8.8
M3 S0
M5 S0
G0 X48.6 Y8.9
M3 S22
G1 X48.6 Y8.9
M3 S22
G1 X48.5 Y8.9
M3 S48
G1 X48.4 Y8.9
M3 S73
G1 X48.3 Y8.9
M3 S99
G1 X48.2 Y8.9
M3 S124
G1 X48.1 Y8.9
M3 S150
G1 X48.0 Y8.9
M3 S175
G1 X47.9 Y8.9
M3 S201
G1 X47.8 Y8.9
M3 S226
G1 X47.7 Y8.9
M3 S252
G1 X47.6 Y8.9
M3 S255
G1 X43.9 Y8.9
M3 S236
G1 X43.8 Y8.9
M3 S210
G1 X43.7 Y8.9
M3 S185
G1 X43.6 Y8.9
M3 S159
G1 X43.5 Y8.9
M3 S134
G1 X43.4 Y8.9
M3 S108
G1 X43.3 Y8.9
M3 S83
G1 X43.2 Y8.9
M3 S57
G1 X43.1 Y8.9
M3 S32
G1 X43.0 Y8.9
M3 S6
G1 X42.9 Y8.9
M3 S0
G0 X39.2 Y8.9
M3 S2
G1 X39.2 Y8.9
M3 S2
G1 X39.1 Y8.9
M3 S27
G1 X39.0 Y8.9
M3 S53
G1 X38.9 Y8.9
M3 S78
G1 X38.8 Y8.9
M3 S104
G1 X38.7 Y8.9
M3 S129
G1 X38.6 Y8.9
M3 S155
G1 X38.5 Y8.9
M3 S180
G1 X38.4 Y8.9
M3 S206
G1 X38.3 Y8.9
M3 S231
G1 X38.2 Y8.9
M3 S255
G1 X34.5 Y8.9
M3 S253
G1 X34.4 Y8.9
M3 S229
G1 X34.3 Y8.9
M3 S204
G1 X34.2 Y8.9
M3 S178
G1 X34.1 Y8.9
M3 S153
G1 X34.0 Y8.9
M3 S127
G1 X33.9 Y8.9
M3 S102
G1 X33.8 Y8.9
M3 S76
G1 X33.7 Y8.9
M3 S51
G1 X33.6 Y8.9
M3 S25
G1 X33.5 Y8.9
M3 S2
G1 X33.4 Y8.9
M3 S0
G0 X29.8 Y8.9
M3 S26
G1 X29.8 Y8.9
M3 S26
G1 X29.7 Y8.9
M3 S51
G1 X29.6 Y8.9
M3 S76
G1 X29.5 Y8.9
M3 S102
G1 X29.4 Y8.9
M3 S128
G1 X29.3 Y8.9
M3 S153
G1 X29.2 Y8.9
M3 S178
G1 X29.1 Y8.9
M3 S204
G1 X29.0 Y8.9
M3 S230
G1 X28.9 Y8.9
M3 S255
G1 X25.1 Y8.9
M3 S230
G1 X25.0 Y8.9
M3 S205
G1 X24.9 Y8.9
M3 S179
G1 X24.8 Y8.9
M3 S154
G1 X24.7 Y8.9
M3 S128
G1 X24.6 Y8.9
M3 S103
G1 X24.5 Y8.9
M3 S77
G1 X24.4 Y8.9
M3 S52
G1 X24.3 Y8.9
M3 S26
G1 X24.2 Y8.9
M3 S1
G1 X24.1 Y8.9
M3 S0
G0 X20.3 Y8.9
M3 S26
G1 X20.3 Y8.9
M3 S26
G1 X20.2 Y8.9
M3 S51
G1 X20.1 Y8.9
M3 S76
G1 X20.0 Y8.9
M3 S102
G1 X19.9 Y8.9
M3 S128
G1 X19.8 Y8.9
M3 S153
G1 X19.7 Y8.9
M3 S178
G1 X19.6 Y8.9
M3 S204
G1 X19.5 Y8.9
M3 S230
G1 X19.4 Y8.9
M3 S255
G1 X2.3 Y8.9
M3 S252
G1 X2.2 Y8.9
M3 S227
G1 X2.1 Y8.9
M3 S202
G1 X2.0 Y8.9
M3 S176
G1 X1.9 Y8.9
M3 S151
G1 X1.8 Y8.9
M3 S125
G1 X1.7 Y8.9
M3 S100
G1 X1.6 Y8.9
M3 S74
G1 X1.5 Y8.9
M3 S49
G1 X1.4 Y8.9
M3 S23
G1 X1.3 Y8.9
M3 S1
G1 X1.2 Y8.9
M3 S0
M5 S0
G0 X1.3 Y9.0
M3 S9
G1 X1.3 Y9.0
M3 S9
G1 X1.4 Y9.0
M3 S35
G1 X1.5 Y9.0
M3 S60
G1 X1.6 Y9.0
M3 S86
G1 X1.7 Y9.0
M3 S111
G1 X1.8 Y9.0
M3 S137
G1 X1.9 Y9.0
M3 S162
G1 X2.0 Y9.0
M3 S188
G1 X2.1 Y9.0
M3 S213
G1 X2.2 Y9.0
M3 S239
G1 X2.3 Y9.0
M3 S255
G1 X19.3 Y9.0
M3 S251
G1 X19.4 Y9.0
M3 S225
G1 X19.5 Y9.0
M3 S200
G1 X19.6 Y9.0
M3 S174
G1 X19.7 Y9.0
M3 S149
G1 X19.8 Y9.0
M3 S123
G1 X19.9 Y9.0
M3 S98
G1 X20.0 Y9.0
M3 S72
G1 X20.1 Y9.0
M3 S47
G1 X20.2 Y9.0
M3 S21
G1 X20.3 Y9.0
M3 S0
G0 X24.1 Y9.0
M3 S13
G1 X24.1 Y9.0
M3 S13
G1 X24.2 Y9.0
M3 S38
G1 X24.3 Y9.0
M3 S64
G1 X24.4 Y9.0
M3 S89
G1 X24.5 Y9.0
M3 S115
G1 X24.6 Y9.0
M3 S140
G1 X24.7 Y9.0
M3 S166
G1 X24.8 Y9.0
M3 S191
G1 X24.9 Y9.0
M3 S217
G1 X25.0 Y9.0
M3 S242
G1 X25.1 Y9.0
M3 S255
G1 X28.8 Y9.0
M3 S253
G1 X28.9 Y9.0
M3 S228
G1 X29.0 Y9.0
M3 S202
G1 X29.1 Y9.0
M3 S177
G1 X29.2 Y9.0
M3 S151
G1 X29.3 Y9.0
M3 S126
G1 X29.4 Y9.0
M3 S100
G1 X29.5 Y9.0
M3 S75
G1 X29.6 Y9.0
M3 S49
G1 X29.7 Y9.0
M3 S24
G1 X29.8 Y9.0
M3 S0
G0 X33.4 Y9.0
M3 S15
G1 X33.4 Y9.0
M3 S15
G1 X33.5 Y9.0
M3 S40
G1 X33.6 Y9.0
M3 S66
G1 X33.7 Y9.0
M3 S91
G1 X33.8 Y9.0
M3 S117
G1 X33.9 Y9.0
M3 S142
G1 X34.0 Y9.0
M3 S168
G1 X34.1 Y9.0
M3 S193
G1 X34.2 Y9.0
M3 S219
G1 X34.3 Y9.0
M3 S244
G1 X34.4 Y9.0
M3 S255
G1 X38.2 Y9.0
M3 S230
G1 X38.3 Y9.0
M3 S204
G1 X38.4 Y9.0
M3 S178
G1 X38.5 Y9.0
M3 S153
G1 X38.6 Y9.0
M3 S128
G1 X38.7 Y9.0
M3 S102
G1 X38.8 Y9.0
M3 S76
G1 X38.9 Y9.0
M3 S51
G1 X39.0 Y9.0
M3 S26
G1 X39.1 Y9.0
M3 S0
G0 X42.9 Y9.0
M3 S20
G1 X42.9 Y9.0
M3 S20
G1 X43.0 Y9.0
M3 S46
G1 X43.1 Y9.0
M3 S71
G1 X43.2 Y9.0
M3 S97
G1 X43.3 Y9.0
M3 S122
G1 X43.4 Y9.0
M3 S148
G1 X43.5 Y9.0
M3 S173
G1 X43.6 Y9.0
M3 S199
G1 X43.7 Y9.0
M3 S224
G1 X43.8 Y9.0
M3 S250
G1 X43.9 Y9.0
M3 S255
G1 X47.6 Y9.0
M3 S237
G1 X47.7 Y9.0
M3 S212
G1 X47.8 Y9.0
M3 S186
G1 X47.9 Y9.0
M3 S161
G1 X48.0 Y9.0
M3 S135
G1 X48.1 Y9.0
M3 S110
G1 X48.2 Y9.0
M3 S84
G1 X48.3 Y9.0
M3 S59
G1 X48.4 Y9.0
M3 S33
G1 X48.5 Y9.0
M3 S8
G1 X48.6 Y9.0
M3 S0
M5 S0
G0 X48.5 Y9.1
M3 S25
G1 X48.5 Y9.1
M3 S25
G1 X48.4 Y9.1
M3 S51
G1 X48.3 Y9.1
M3 S76
G1 X48.2 Y9.1
M3 S102
G1 X48.1 Y9.1
M3 S127
G1 X48.0 Y9.1
M3 S153
G1 X47.9 Y9.1
M3 S178
G1 X47.8 Y9.1
M3 S204
G1 X47.7 Y9.1
M3 S229
G1 X47.6 Y9.1
M3 S255
G1 X43.8 Y9.1
M3 S231
G1 X43.7 Y9.1
M3 S205
G1 X43.6 Y9.1
M3 S180
G1 X43.5 Y9.1
M3 S154
G1 X43.4 Y9.1
M3 S129
G1 X43.3 Y9.1
M3 S103
G1 X43.2 Y9.1
M3 S78
G1 X43.1 Y9.1
M3 S52
G1 X43.0 Y9.1
M3 S27
G1 X42.9 Y9.1
M3 S1
G1 X42.8 Y9.1
M3 S0
G0 X39.1 Y9.1
M3 S7
G1 X39.1 Y9.1
M3 S7
G1 X39.0 Y9.1
M3 S33
G1 X38.9 Y9.1
M3 S58
G1 X38.8 Y9.1
M3 S84
G1 X38.7 Y9.1
M3 S109
G1 X38.6 Y9.1
M3 S135
G1 X38.5 Y9.1
M3 S160
G1 X38.4 Y9.1
M3 S186
G1 X38.3 Y9.1
M3 S211
G1 X38.2 Y9.1
M3 S237
G1 X38.1 Y9.1
M3 S255
G1 X34.3 Y9.1
M3 S230
G1 X34.2 Y9.1
M3 S204
G1 X34.1 Y9.1
M3 S178
G1 X34.0 Y9.1
M3 S153
G1 X33.9 Y9.1
M3 S128
G1 X33.8 Y9.1
M3 S102
G1 X33.7 Y9.1
M3 S76
G1 X33.6 Y9.1
M3 S51
G1 X33.5 Y9.1
M3 S26
G1 X33.4 Y9.1
M3 S0
G0 X29.7 Y9.1
M3 S22
G1 X29.7 Y9.1
M3 S22
G1 X29.6 Y9.1
M3 S47
G1 X29.5 Y9.1
M3 S73
G1 X29.4 Y9.1
M3 S98
G1 X29.3 Y9.1
M3 S124
G1 X29.2 Y9.1
M3 S149
G1 X29.1 Y9.1
M3 S175
G1 X29.0 Y9.1
M3 S200
G1 X28.9 Y9.1
M3 S226
G1 X28.8 Y9.1
M3 S251
G1 X28.7 Y9.1
M3 S255
G1 X25.0 Y9.1
M3 S230
G1 X24.9 Y9.1
M3 S204
G1 X24.8 Y9.1
M3 S178
G1 X24.7 Y9.1
M3 S153
G1 X24.6 Y9.1
M3 S128
G1 X24.5 Y9.1
M3 S102
G1 X24.4 Y9.1
M3 S76
G1 X24.3 Y9.1
M3 S51
G1 X24.2 Y9.1
M3 S26
G1 X24.1 Y9.1
M3 S0
G0 X20.2 Y9.1
M3 S19
G1 X20.2 Y9.1
M3 S19
G1 X20.1 Y9.1
M3 S45
G1 X20.0 Y9.1
M3 S70
G1 X19.9 Y9.1
M3 S96
G1 X19.8 Y9.1
M3 S121
G1 X19.7 Y9.1
M3 S147
G1 X19.6 Y9.1
M3 S172
G1 X19.5 Y9.1
M3 S198
G1 X19.4 Y9.1
M3 S223
G1 X19.3 Y9.1
M3 S249
G1 X19.2 Y9.1
M3 S255
G1 X2.3 Y9.1
M3 S229
G1 X2.2 Y9.1
M3 S204
G1 X2.1 Y9.1
M3 S178
G1 X2.0 Y9.1
M3 S153
G1 X1.9 Y9.1
M3 S127
G1 X1.8 Y9.1
M3 S102
G1 X1.7 Y9.1
M3 S76
G1 X1.6 Y9.1
M3 S51
G1 X1.5 Y9.1
M3 S25
G1 X1.4 Y9.1
M3 S0
M5 S0
G0 X1.4 Y9.2
M3 S17
G1 X1.4 Y9.2
M3 S17
G1 X1.5 Y9.2
M3 S42
G1 X1.6 Y9.2
M3 S68
G1 X1.7 Y9.2
M3 S93
G1 X1.8 Y9.2
M3 S119
G1 X1.9 Y9.2
M3 S144
G1 X2.0 Y9.2
M3 S170
G1 X2.1 Y9.2
M3 S195
G1 X2.2 Y9.2
M3 S221
G1 X2.3 Y9.2
M3 S246
G1 X2.4 Y9.2
M3 S255
G1 X19.2 Y9.2
M3 S235
G1 X19.3 Y9.2
M3 S209
G1 X19.4 Y9.2
M3 S184
G1 X19.5 Y9.2
M3 S158
G1 X19.6 Y9.2
M3 S133
G1 X19.7 Y9.2
M3 S107
G1 X19.8 Y9.2
M3 S82
G1 X19.9 Y9.2
M3 S56
G1 X20.0 Y9.2
M3 S31
G1 X20.1 Y9.2
M3 S5
G1 X20.2 Y9.2
M3 S0
G0 X24.0 Y9.2
M3 S5
G1 X24.0 Y9.2
M3 S5
G1 X24.1 Y9.2
M3 S30
G1 X24.2 Y9.2
M3 S56
G1 X24.3 Y9.2
M3 S81
G1 X24.4 Y9.2
M3 S107
G1 X24.5 Y9.2
M3 S132
G1 X24.6 Y9.2
M3 S158
G1 X24.7 Y9.2
M3 S183
G1 X24.8 Y9.2
M3 S209
G1 X24.9 Y9.2
M3 S234
G1 X25.0 Y9.2
M3 S255
G1 X28.7 Y9.2
M3 S237
G1 X28.8 Y9.2
M3 S211
G1 X28.9 Y9.2
M3 S186
G1 X29.0 Y9.2
M3 S160
G1 X29.1 Y9.2
M3 S135
G1 X29.2 Y9.2
M3 S109
G1 X29.3 Y9.2
M3 S84
G1 X29.4 Y9.2
M3 S58
G1 X29.5 Y9.2
M3 S33
G1 X29.6 Y9.2
M3 S7
G1 X29.7 Y9.2
M3 S0
G0 X33.3 Y9.2
M3 S7
G1 X33.3 Y9.2
M3 S7
G1 X33.4 Y9.2
M3 S33
G1 X33.5 Y9.2
M3 S58
G1 X33.6 Y9.2
M3 S84
G1 X33.7 Y9.2
M3 S109
G1 X33.8 Y9.2
M3 S135
G1 X33.9 Y9.2
M3 S160
G1 X34.0 Y9.2
M3 S186
G1 X34.1 Y9.2
M3 S211
G1 X34.2 Y9.2
M3 S237
G1 X34.3 Y9.2
M3 S255
G1 X38.1 Y9.2
M3 S230
G1 X38.2 Y9.2
M3 S204
G1 X38.3 Y9.2
M3 S178
G1 X38.4 Y9.2
M3 S153
G1 X38.5 Y9.2
M3 S128
G1 X38.6 Y9.2
M3 S102
G1 X38.7 Y9.2
M3 S76
G1 X38.8 Y9.2
M3 S51
G1 X38.9 Y9.2
M3 S26
G1 X39.0 Y9.2
M3 S0
G0 X42.8 Y9.2
M3 S13
G1 X42.8 Y9.2
M3 S13
G1 X42.9 Y9.2
M3 S39
G1 X43.0 Y9.2
M3 S64
G1 X43.1 Y9.2
M3 S90
G1 X43.2 Y9.2
M3 S115
G1 X43.3 Y9.2
M3 S141
G1 X43.4 Y9.2
M3 S166
G1 X43.5 Y9.2
M3 S192
G1 X43.6 Y9.2
M3 S217
G1 X43.7 Y9.2
M3 S243
G1 X43.8 Y9.2
M3 S255
G1 X47.5 Y9.2
M3 S245
G1 X47.6 Y9.2
M3 S219
G1 X47.7 Y9.2
M3 S194
G1 X47.8 Y9.2
M3 S168
G1 X47.9 Y9.2
M3 S143
G1 X48.0 Y9.2
M3 S117
G1 X48.1 Y9.2
M3 S92
G1 X48.2 Y9.2
M3 S66
G1 X48.3 Y9.2
M3 S41
G1 X48.4 Y9.2
M3 S15
G1 X48.5 Y9.2
M3 S0
M5 S0
G0 X48.4 Y9.3
M3 S12
G1 X48.4 Y9.3
M3 S12
G1 X48.3 Y9.3
M3 S37
G1 X48.2 Y9.3
M3 S63
G1 X48.1 Y9.3
M3 S88
G1 X48.0 Y9.3
M3 S114
G1 X47.9 Y9.3
M3 S139
G1 X47.8 Y9.3
M3 S165
G1 X47.7 Y9.3
M3 S190
G1 X47.6 Y9.3
M3 S216
G1 X47.5 Y9.3
M3 S241
G1 X47.4 Y9.3
M3 S255
G1 X43.7 Y9.3
M3 S247
G1 X43.6 Y9.3
M3 S221
G1 X43.5 Y9.3
M3 S196
G1 X43.4 Y9.3
M3 S170
G1 X43.3 Y9.3
M3 S145
G1 X43.2 Y9.3
M3 S119
G1 X43.1 Y9.3
M3 S94
G1 X43.0 Y9.3
M3 S68
G1 X42.9 Y9.3
M3 S43
G1 X42.8 Y9.3
M3 S17
G1 X42.7 Y9.3
M3 S0
G0 X39.0 Y9.3
M3 S15
G1 X39.0 Y9.3
M3 S15
G1 X38.9 Y9.3
M3 S40
G1 X38.8 Y9.3
M3 S66
G1 X38.7 Y9.3
M3 S91
G1 X38.6 Y9.3
M3 S117
G1 X38.5 Y9.3
M3 S142
G1 X38.4 Y9.3
M3 S168
G1 X38.3 Y9.3
M3 S193
G1 X38.2 Y9.3
M3 S219
G1 X38.1 Y9.3
M3 S244
G1 X38.0 Y9.3
M3 S255
G1 X34.2 Y9.3
M3 S240
G1 X34.1 Y9.3
M3 S215
G1 X34.0 Y9.3
M3 S189
G1 X33.9 Y9.3
M3 S164
G1 X33.8 Y9.3
M3 S138
G1 X33.7 Y9.3
M3 S113
G1 X33.6 Y9.3
M3 S87
G1 X33.5 Y9.3
M3 S62
G1 X33.4 Y9.3
M3 S36
G1 X33.3 Y9.3
M3 S11
G1 X33.2 Y9.3
M3 S0
G0 X29.6 Y9.3
M3 S25
G1 X29.6 Y9.3
M3 S25
G1 X29.5 Y9.3
M3 S51
G1 X29.4 Y9.3
M3 S76
G1 X29.3 Y9.3
M3 S102
G1 X29.2 Y9.3
M3 S127
G1 X29.1 Y9.3
M3 S153
G1 X29.0 Y9.3
M3 S178
G1 X28.9 Y9.3
M3 S204
G1 X28.8 Y9.3
M3 S229
G1 X28.7 Y9.3
M3 S255
G1 X24.9 Y9.3
M3 S238
G1 X24.8 Y9.3
M3 S212
G1 X24.7 Y9.3
M3 S187
G1 X24.6 Y9.3
M3 S161
G1 X24.5 Y9.3
M3 S136
G1 X24.4 Y9.3
M3 S110
G1 X24.3 Y9.3
M3 S85
G1 X24.2 Y9.3
M3 S59
G1 X24.1 Y9.3
M3 S34
G1 X24.0 Y9.3
M3 S8
G1 X23.9 Y9.3
M3 S0
G0 X20.1 Y9.3
M3 S25
G1 X20.1 Y9.3
M3 S25
G1 X20.0 Y9.3
M3 S50
G1 X19.9 Y9.3
M3 S76
G1 X19.8 Y9.3
M3 S101
G1 X19.7 Y9.3
M3 S127
G1 X19.6 Y9.3
M3 S152
G1 X19.5 Y9.3
M3 S178
G1 X19.4 Y9.3
M3 S203
G1 X19.3 Y9.3
M3 S229
G1 X19.2 Y9.3
M3 S254
G1 X19.1 Y9.3
M3 S255
G1 X2.5 Y9.3
M3 S243
G1 X2.4 Y9.3
M3 S217
G1 X2.3 Y9.3
M3 S192
G1 X2.2 Y9.3
M3 S166
G1 X2.1 Y9.3
M3 S141
G1 X2.0 Y9.3
M3 S115
G1 X1.9 Y9.3
M3 S90
G1 X1.8 Y9.3
M3 S64
G1 X1.7 Y9.3
M3 S39
G1 X1.6 Y9.3
M3 S13
G1 X1.5 Y9.3
M3 S0
M5 S0
G0 X1.6 Y9.4
M3 S26
G1 X1.6 Y9.4
M3 S26
G1 X1.7 Y9.4
M3 S51
G1 X1.8 Y9.4
M3 S76
G1 X1.9 Y9.4
M3 S102
G1 X2.0 Y9.4
M3 S128
G1 X2.1 Y9.4
M3 S153
G1 X2.2 Y9.4
M3 S178
G1 X2.3 Y9.4
M3 S204
G1 X2.4 Y9.4
M3 S230
G1 X2.5 Y9.4
M3 S255
G1 X19.1 Y9.4
M3 S231
G1 X19.2 Y9.4
M3 S205
G1 X19.3 Y9.4
M3 S180
G1 X19.4 Y9.4
M3 S154
G1 X19.5 Y9.4
M3 S129
G1 X19.6 Y9.4
M3 S103
G1 X19.7 Y9.4
M3 S78
G1 X19.8 Y9.4
M3 S52
G1 X19.9 Y9.4
M3 S27
G1 X20.0 Y9.4
M3 S1
G1 X20.1 Y9.4
M3 S0
G0 X23.9 Y9.4
M3 S26
G1 X23.9 Y9.4
M3 S26
G1 X24.0 Y9.4
M3 S51
G1 X24.1 Y9.4
M3 S76
G1 X24.2 Y9.4
M3 S102
G1 X24.3 Y9.4
M3 S128
G1 X24.4 Y9.4
M3 S153
G1 X24.5 Y9.4
M3 S178
G1 X24.6 Y9.4
M3 S204
G1 X24.7 Y9.4
M3 S230
G1 X24.8 Y9.4
M3 S255
G1 X28.6 Y9.4
M3 S231
G1 X28.7 Y9.4
M3 S206
G1 X28.8 Y9.4
M3 S180
G1 X28.9 Y9.4
M3 S155
G1 X29.0 Y9.4
M3 S129
G1 X29.1 Y9.4
M3 S104
G1 X29.2 Y9.4
M3 S78
G1 X29.3 Y9.4
M3 S53
G1 X29.4 Y9.4
M3 S27
G1 X29.5 Y9.4
M3 S2
G1 X29.6 Y9.4
M3 S0
G0 X33.2 Y9.4
M3 S26
G1 X33.2 Y9.4
M3 S26
G1 X33.3 Y9.4
M3 S51
G1 X33.4 Y9.4
M3 S76
G1 X33.5 Y9.4
M3 S102
G1 X33.6 Y9.4
M3 S128
G1 X33.7 Y9.4
M3 S153
G1 X33.8 Y9.4
M3 S178
G1 X33.9 Y9.4
M3 S204
G1 X34.0 Y9.4
M3 S230
G1 X34.1 Y9.4
M3 S255
G1 X37.9 Y9.4
M3 S241
G1 X38.0 Y9.4
M3 S216
G1 X38.1 Y9.4
M3 S190
G1 X38.2 Y9.4
M3 S165
G1 X38.3 Y9.4
M3 S139
G1 X38.4 Y9.4
M3 S114
G1 X38.5 Y9.4
M3 S88
G1 X38.6 Y9.4
M3 S63
G1 X38.7 Y9.4
M3 S37
G1 X38.8 Y9.4
M3 S12
G1 X38.9 Y9.4
M3 S0
G0 X42.7 Y9.4
M3 S26
G1 X42.7 Y9.4
M3 S26
G1 X42.8 Y9.4
M3 S51
G1 X42.9 Y9.4
M3 S77
G1 X43.0 Y9.4
M3 S102
G1 X43.1 Y9.4
M3 S128
G1 X43.2 Y9.4
M3 S153
G1 X43.3 Y9.4
M3 S179
G1 X43.4 Y9.4
M3 S204
G1 X43.5 Y9.4
M3 S230
G1 X43.6 Y9.4
M3 S255
G1 X47.4 Y9.4
M3 S230
G1 X47.5 Y9.4
M3 S204
G1 X47.6 Y9.4
M3 S178
G1 X47.7 Y9.4
M3 S153
G1 X47.8 Y9.4
M3 S128
G1 X47.9 Y9.4
M3 S102
G1 X48.0 Y9.4
M3 S76
G1 X48.1 Y9.4
M3 S51
G1 X48.2 Y9.4
M3 S26
G1 X48.3 Y9.4
M3 S0
M5 S0
G0 X48.3 Y9.5
M3 S20
G1 X48.3 Y9.5
M3 S20
G1 X48.2 Y9.5
M3 S45
G1 X48.1 Y9.5
M3 S71
G1 X48.0 Y9.5
M3 S96
G1 X47.9 Y9.5
M3 S122
G1 X47.8 Y9.5
M3 S147
G1 X47.7 Y9.5
M3 S173
G1 X47.6 Y9.5
M3 S198
G1 X47.5 Y9.5
M3 S224
G1 X47.4 Y9.5
M3 S249
G1 X47.3 Y9.5
M3 S255
G1 X43.6 Y9.5
M3 S239
G1 X43.5 Y9.5
M3 S214
G1 X43.4 Y9.5
M3 S188
G1 X43.3 Y9.5
M3 S163
G1 X43.2 Y9.5
M3 S137
G1 X43.1 Y9.5
M3 S112
G1 X43.0 Y9.5
M3 S86
G1 X42.9 Y9.5
M3 S61
G1 X42.8 Y9.5
M3 S35
G1 X42.7 Y9.5
M3 S10
G1 X42.6 Y9.5
M3 S0
G0 X38.9 Y9.5
M3 S1
G1 X38.9 Y9.5
M3 S1
G1 X38.8 Y9.5
M3 S26
G1 X38.7 Y9.5
M3 S52
G1 X38.6 Y9.5
M3 S77
G1 X38.5 Y9.5
M3 S103
G1 X38.4 Y9.5
M3 S128
G1 X38.3 Y9.5
M3 S154
G1 X38.2 Y9.5
M3 S179
G1 X38.1 Y9.5
M3 S205
G1 X38.0 Y9.5
M3 S230
G1 X37.9 Y9.5
M3 S255
G1 X34.1 Y9.5
M3 S233
G1 X34.0 Y9.5
M3 S207
G1 X33.9 Y9.5
M3 S182
G1 X33.8 Y9.5
M3 S156
G1 X33.7 Y9.5
M3 S131
G1 X33.6 Y9.5
M3 S105
G1 X33.5 Y9.5
M3 S80
G1 X33.4 Y9.5
M3 S54
G1 X33.3 Y9.5
M3 S29
G1 X33.2 Y9.5
M3 S3
G1 X33.1 Y9.5
M3 S0
G0 X29.5 Y9.5
M3 S26
G1 X29.5 Y9.5
M3 S26
G1 X29.4 Y9.5
M3 S51
G1 X29.3 Y9.5
M3 S76
G1 X29.2 Y9.5
M3 S102
G1 X29.1 Y9.5
M3 S128
G1 X29.0 Y9.5
M3 S153
G1 X28.9 Y9.5
M3 S178
G1 X28.8 Y9.5
M3 S204
G1 X28.7 Y9.5
M3 S230
G1 X28.6 Y9.5
M3 S255
G1 X24.8 Y9.5
M3 S232
G1 X24.7 Y9.5
M3 S206
G1 X24.6 Y9.5
M3 S181
G1 X24.5 Y9.5
M3 S155
G1 X24.4 Y9.5
M3 S130
G1 X24.3 Y9.5
M3 S104
G1 X24.2 Y9.5
M3 S79
G1 X24.1 Y9.5
M3 S53
G1 X24.0 Y9.5
M3 S28
G1 X23.9 Y9.5
M3 S2
G1 X23.8 Y9.5
M3 S0
G0 X20.0 Y9.5
M3 S26
G1 X20.0 Y9.5
M3 S26
G1 X19.9 Y9.5
M3 S51
G1 X19.8 Y9.5
M3 S76
G1 X19.7 Y9.5
M3 S102
G1 X19.6 Y9.5
M3 S128
G1 X19.5 Y9.5
M3 S153
G1 X19.4 Y9.5
M3 S178
G1 X19.3 Y9.5
M3 S204
G1 X19.2 Y9.5
M3 S230
G1 X19.1 Y9.5
M3 S255
G1 X2.6 Y9.5
M3 S250
G1 X2.5 Y9.5
M3 S224
G1 X2.4 Y9.5
M3 S199
G1 X2.3 Y9.5
M3 S173
G1 X2.2 Y9.5
M3 S148
G1 X2.1 Y9.5
M3 S122
G1 X2.0 Y9.5
M3 S97
G1 X1.9 Y9.5
M3 S71
G1 X1.8 Y9.5
M3 S46
G1 X1.7 Y9.5
M3 S20
G1 X1.6 Y9.5
M3 S0
M5 S0
G0 X1.7 Y9.6
M3 S26
G1 X1.7 Y9.6
M3 S26
G1 X1.8 Y9.6
M3 S51
G1 X1.9 Y9.6
M3 S76
G1 X2.0 Y9.6
M3 S102
G1 X2.1 Y9.6
M3 S128
G1 X2.2 Y9.6
M3 S153
G1 X2.3 Y9.6
M3 S178
G1 X2.4 Y9.6
M3 S204
G1 X2.5 Y9.6
M3 S230
G1 X2.6 Y9.6
M3 S255
G1 X19.0 Y9.6
M3 S237
G1 X19.1 Y9.6
M3 S212
G1 X19.2 Y9.6
M3 S186
G1 X19.3 Y9.6
M3 S161
G1 X19.4 Y9.6
M3 S135
G1 X19.5 Y9.6
M3 S110
G1 X19.6 Y9.6
M3 S84
G1 X19.7 Y9.6
M3 S59
G1 X19.8 Y9.6
M3 S33
G1 X19.9 Y9.6
M3 S8
G1 X20.0 Y9.6
M3 S0
G0 X23.7 Y9.6
M3 S4
G1 X23.7 Y9.6
M3 S4
G1 X23.8 Y9.6
M3 S29
G1 X23.9 Y9.6
M3 S55
G1 X24.0 Y9.6
M3 S80
G1 X24.1 Y9.6
M3 S106
G1 X24.2 Y9.6
M3 S131
G1 X24.3 Y9.6
M3 S157
G1 X24.4 Y9.6
M3 S182
G1 X24.5 Y9.6
M3 S208
G1 X24.6 Y9.6
M3 S233
G1 X24.7 Y9.6
M3 S255
G1 X28.5 Y9.6
M3 S237
G1 X28.6 Y9.6
M3 S212
G1 X28.7 Y9.6
M3 S186
G1 X28.8 Y9.6
M3 S161
G1 X28.9 Y9.6
M3 S135
G1 X29.0 Y9.6
M3 S110
G1 X29.1 Y9.6
M3 S84
G1 X29.2 Y9.6
M3 S59
G1 X29.3 Y9.6
M3 S33
G1 X29.4 Y9.6
M3 S8
G1 X29.5 Y9.6
M3 S0
G0 X33.1 Y9.6
M3 S26
G1 X33.1 Y9.6
M3 S26
G1 X33.2 Y9.6
M3 S51
G1 X33.3 Y9.6
M3 S76
G1 X33.4 Y9.6
M3 S102
G1 X33.5 Y9.6
M3 S128
G1 X33.6 Y9.6
M3 S153
G1 X33.7 Y9.6
M3 S178
G1 X33.8 Y9.6
M3 S204
G1 X33.9 Y9.6
M3 S230
G1 X34.0 Y9.6
M3 S255
G1 X37.8 Y9.6
M3 S248
G1 X37.9 Y9.6
M3 S223
G1 X38.0 Y9.6
M3 S197
G1 X38.1 Y9.6
M3 S172
G1 X38.2 Y9.6
M3 S146
G1 X38.3 Y9.6
M3 S121
G1 X38.4 Y9.6
M3 S95
G1 X38.5 Y9.6
M3 S70
G1 X38.6 Y9.6
M3 S44
G1 X38.7 Y9.6
M3 S19
G1 X38.8 Y9.6
M3 S0
G0 X42.6 Y9.6
M3 S26
G1 X42.6 Y9.6
M3 S26
G1 X42.7 Y9.6
M3 S51
G1 X42.8 Y9.6
M3 S76
G1 X42.9 Y9.6
M3 S102
G1 X43.0 Y9.6
M3 S128
G1 X43.1 Y9.6
M3 S153
G1 X43.2 Y9.6
M3 S178
G1 X43.3 Y9.6
M3 S204
G1 X43.4 Y9.6
M3 S230
G1 X43.5 Y9.6
M3 S255
G1 X47.2 Y9.6
M3 S245
G1 X47.3 Y9.6
M3 S220
G1 X47.4 Y9.6
M3 S194
G1 X47.5 Y9.6
M3 S169
G1 X47.6 Y9.6
M3 S143
G1 X47.7 Y9.6
M3 S118
G1 X47.8 Y9.6
M3 S92
G1 X47.9 Y9.6
M3 S67
G1 X48.0 Y9.6
M3 S41
G1 X48.1 Y9.6
M3 S16
G1 X48.2 Y9.6
M3 S0
M5 S0
G0 X48.2 Y9.7
M3 S3
G1 X48.2 Y9.7
M3 S3
G1 X48.1 Y9.7
M3 S28
G1 X48.0 Y9.7
M3 S54
G1 X47.9 Y9.7
M3 S79
G1 X47.8 Y9.7
M3 S105
G1 X47.7 Y9.7
M3 S130
G1 X47.6 Y9.7
M3 S156
G1 X47.5 Y9.7
M3 S181
G1 X47.4 Y9.7
M3 S207
G1 X47.3 Y9.7
M3 S232
G1 X47.2 Y9.7
M3 S255
G1 X43.5 Y9.7
M3 S232
G1 X43.4 Y9.7
M3 S207
G1 X43.3 Y9.7
M3 S181
G1 X43.2 Y9.7
M3 S156
G1 X43.1 Y9.7
M3 S130
G1 X43.0 Y9.7
M3 S105
G1 X42.9 Y9.7
M3 S79
G1 X42.8 Y9.7
M3 S54
G1 X42.7 Y9.7
M3 S28
G1 X42.6 Y9.7
M3 S3
G1 X42.5 Y9.7
M3 S0
G0 X38.8 Y9.7
M3 S5
G1 X38.8 Y9.7
M3 S5
G1 X38.7 Y9.7
M3 S30
G1 X38.6 Y9.7
M3 S56
G1 X38.5 Y9.7
M3 S81
G1 X38.4 Y9.7
M3 S107
G1 X38.3 Y9.7
M3 S132
G1 X38.2 Y9.7
M3 S158
G1 X38.1 Y9.7
M3 S183
G1 X38.0 Y9.7
M3 S209
G1 X37.9 Y9.7
M3 S234
G1 X37.8 Y9.7
M3 S255
G1 X34.0 Y9.7
M3 S230
G1 X33.9 Y9.7
M3 S204
G1 X33.8 Y9.7
M3 S179
G1 X33.7 Y9.7
M3 S153
G1 X33.6 Y9.7
M3 S128
G1 X33.5 Y9.7
M3 S102
G1 X33.4 Y9.7
M3 S77
G1 X33.3 Y9.7
M3 S51
G1 X33.2 Y9.7
M3 S26
G1 X33.1 Y9.7
M3 S0
G0 X29.4 Y9.7
M3 S19
G1 X29.4 Y9.7
M3 S19
G1 X29.3 Y9.7
M3 S44
G1 X29.2 Y9.7
M3 S70
G1 X29.1 Y9.7
M3 S95
G1 X29.0 Y9.7
M3 S121
G1 X28.9 Y9.7
M3 S146
G1 X28.8 Y9.7
M3 S172
G1 X28.7 Y9.7
M3 S197
G1 X28.6 Y9.7
M3 S223
G1 X28.5 Y9.7
M3 S248
G1 X28.4 Y9.7
M3 S255
G1 X24.7 Y9.7
M3 S248
G1 X24.6 Y9.7
M3 S222
G1 X24.5 Y9.7
M3 S197
G1 X24.4 Y9.7
M3 S171
G1 X24.3 Y9.7
M3 S146
G1 X24.2 Y9.7
M3 S120
G1 X24.1 Y9.7
M3 S95
G1 X24.0 Y9.7
M3 S69
G1 X23.9 Y9.7
M3 S44
G1 X23.8 Y9.7
M3 S18
G1 X23.7 Y9.7
M3 S0
G0 X19.9 Y9.7
M3 S19
G1 X19.9 Y9.7
M3 S19
G1 X19.8 Y9.7
M3 S45
G1 X19.7 Y9.7
M3 S70
G1 X19.6 Y9.7
M3 S96
G1 X19.5 Y9.7
M3 S121
G1 X19.4 Y9.7
M3 S147
G1 X19.3 Y9.7
M3 S172
G1 X19.2 Y9.7
M3 S198
G1 X19.1 Y9.7
M3 S223
G1 X19.0 Y9.7
M3 S249
G1 X18.9 Y9.7
M3 S255
G1 X2.7 Y9.7
M3 S254
G1 X2.6 Y9.7
M3 S229
G1 X2.5 Y9.7
M3 S203
G1 X2.4 Y9.7
M3 S178
G1 X2.3 Y9.7
M3 S152
G1 X2.2 Y9.7
M3 S127
G1 X2.1 Y9.7
M3 S101
G1 X2.0 Y9.7
M3 S76
G1 X1.9 Y9.7
M3 S50
G1 X1.8 Y9.7
M3 S25
G1 X1.7 Y9.7
M3 S0
M5 S0
G0 X1.7 Y9.8
M3 S1
G1 X1.7 Y9.8
M3 S1
G1 X1.8 Y9.8
M3 S24
G1 X1.9 Y9.8
M3 S50
G1 X2.0 Y9.8
M3 S75
G1 X2.1 Y9.8
M3 S101
G1 X2.2 Y9.8
M3 S126
G1 X2.3 Y9.8
M3 S152
G1 X2.4 Y9.8
M3 S177
G1 X2.5 Y9.8
M3 S203
G1 X2.6 Y9.8
M3 S228
G1 X2.7 Y9.8
M3 S253
G1 X2.8 Y9.8
M3 S255
G1 X18.9 Y9.8
M3 S230
G1 X19.0 Y9.8
M3 S204
G1 X19.1 Y9.8
M3 S178
G1 X19.2 Y9.8
M3 S153
G1 X19.3 Y9.8
M3 S128
G1 X19.4 Y9.8
M3 S102
G1 X19.5 Y9.8
M3 S76
G1 X19.6 Y9.8
M3 S51
G1 X19.7 Y9.8
M3 S26
G1 X19.8 Y9.8
M3 S0
G0 X23.7 Y9.8
M3 S26
G1 X23.7 Y9.8
M3 S26
G1 X23.8 Y9.8
M3 S51
G1 X23.9 Y9.8
M3 S77
G1 X24.0 Y9.8
M3 S102
G1 X24.1 Y9.8
M3 S128
G1 X24.2 Y9.8
M3 S153
G1 X24.3 Y9.8
M3 S179
G1 X24.4 Y9.8
M3 S204
G1 X24.5 Y9.8
M3 S230
G1 X24.6 Y9.8
M3 S255
G1 X28.4 Y9.8
M3 S230
G1 X28.5 Y9.8
M3 S204
G1 X28.6 Y9.8
M3 S178
G1 X28.7 Y9.8
M3 S153
G1 X28.8 Y9.8
M3 S128
G1 X28.9 Y9.8
M3 S102
G1 X29.0 Y9.8
M3 S76
G1 X29.1 Y9.8
M3 S51
G1 X29.2 Y9.8
M3 S26
G1 X29.3 Y9.8
M3 S0
G0 X32.9 Y9.8
M3 S1
G1 X32.9 Y9.8
M3 S1
G1 X33.0 Y9.8
M3 S24
G1 X33.1 Y9.8
M3 S50
G1 X33.2 Y9.8
M3 S75
G1 X33.3 Y9.8
M3 S101
G1 X33.4 Y9.8
M3 S126
G1 X33.5 Y9.8
M3 S152
G1 X33.6 Y9.8
M3 S177
G1 X33.7 Y9.8
M3 S203
G1 X33.8 Y9.8
M3 S228
G1 X33.9 Y9.8
M3 S252
G1 X34.0 Y9.8
M3 S255
G1 X37.7 Y9.8
M3 S232
G1 X37.8 Y9.8
M3 S206
G1 X37.9 Y9.8
M3 S181
G1 X38.0 Y9.8
M3 S155
G1 X38.1 Y9.8
M3 S130
G1 X38.2 Y9.8
M3 S104
G1 X38.3 Y9.8
M3 S79
G1 X38.4 Y9.8
M3 S53
G1 X38.5 Y9.8
M3 S28
G1 X38.6 Y9.8
M3 S2
G1 X38.7 Y9.8
M3 S0
G0 X42.4 Y9.8
M3 S6
G1 X42.4 Y9.8
M3 S6
G1 X42.5 Y9.8
M3 S31
G1 X42.6 Y9.8
M3 S57
G1 X42.7 Y9.8
M3 S82
G1 X42.8 Y9.8
M3 S108
G1 X42.9 Y9.8
M3 S133
G1 X43.0 Y9.8
M3 S159
G1 X43.1 Y9.8
M3 S184
G1 X43.2 Y9.8
M3 S210
G1 X43.3 Y9.8
M3 S235
G1 X43.4 Y9.8
M3 S255
G1 X47.1 Y9.8
M3 S252
G1 X47.2 Y9.8
M3 S227
G1 X47.3 Y9.8
M3 S201
G1 X47.4 Y9.8
M3 S176
G1 X47.5 Y9.8
M3 S150
G1 X47.6 Y9.8
M3 S125
G1 X47.7 Y9.8
M3 S99
G1 X47.8 Y9.8
M3 S74
G1 X47.9 Y9.8
M3 S48
G1 X48.0 Y9.8
M3 S23
G1 X48.1 Y9.8
M3 S0
M5 S0
G0 X48.0 Y9.9
M3 S26
G1 X48.0 Y9.9
M3 S26
G1 X47.9 Y9.9
M3 S51
G1 X47.8 Y9.9
M3 S77
G1 X47.7 Y9.9
M3 S102
G1 X47.6 Y9.9
M3 S128
G1 X47.5 Y9.9
M3 S153
G1 X47.4 Y9.9
M3 S179
G1 X47.3 Y9.9
M3 S204
G1 X47.2 Y9.9
M3 S230
G1 X47.1 Y9.9
M3 S255
G1 X43.3 Y9.9
M3 S230
G1 X43.2 Y9.9
M3 S204
G1 X43.1 Y9.9
M3 S178
G1 X43.0 Y9.9
M3 S153
G1 X42.9 Y9.9
M3 S128
G1 X42.8 Y9.9
M3 S102
G1 X42.7 Y9.9
M3 S76
G1 X42.6 Y9.9
M3 S51
G1 X42.5 Y9.9
M3 S26
G1 X42.4 Y9.9
M3 S0
G0 X38.6 Y9.9
M3 S22
G1 X38.6 Y9.9
M3 S22
G1 X38.5 Y9.9
M3 S48
G1 X38.4 Y9.9
M3 S73
G1 X38.3 Y9.9
M3 S99
G1 X38.2 Y9.9
M3 S124
G1 X38.1 Y9.9
M3 S150
G1 X38.0 Y9.9
M3 S175
G1 X37.9 Y9.9
M3 S201
G1 X37.8 Y9.9
M3 S226
G1 X37.7 Y9.9
M3 S252
G1 X37.6 Y9.9
M3 S255
G1 X33.9 Y9.9
M3 S254
G1 X33.8 Y9.9
M3 S228
G1 X33.7 Y9.9
M3 S203
G1 X33.6 Y9.9
M3 S177
G1 X33.5 Y9.9
M3 S152
G1 X33.4 Y9.9
M3 S126
G1 X33.3 Y9.9
M3 S101
G1 X33.2 Y9.9
M3 S75
G1 X33.1 Y9.9
M3 S50
G1 X33.0 Y9.9
M3 S24
G1 X32.9 Y9.9
M3 S0
G0 X29.3 Y9.9
M3 S12
G1 X29.3 Y9.9
M3 S12
G1 X29.2 Y9.9
M3 S37
G1 X29.1 Y9.9
M3 S63
G1 X29.0 Y9.9
M3 S88
G1 X28.9 Y9.9
M3 S114
G1 X28.8 Y9.9
M3 S139
G1 X28.7 Y9.9
M3 S165
G1 X28.6 Y9.9
M3 S190
G1 X28.5 Y9.9
M3 S216
G1 X28.4 Y9.9
M3 S241
G1 X28.3 Y9.9
M3 S255
G1 X24.6 Y9.9
M3 S253
G1 X24.5 Y9.9
M3 S228
G1 X24.4 Y9.9
M3 S202
G1 X24.3 Y9.9
M3 S177
G1 X24.2 Y9.9
M3 S151
G1 X24.1 Y9.9
M3 S126
G1 X24.0 Y9.9
M3 S100
G1 X23.9 Y9.9
M3 S75
G1 X23.8 Y9.9
M3 S49
G1 X23.7 Y9.9
M3 S24
G1 X23.6 Y9.9
M3 S0
G0 X19.8 Y9.9
M3 S13
G1 X19.8 Y9.9
M3 S13
G1 X19.7 Y9.9
M3 S39
G1 X19.6 Y9.9
M3 S64
G1 X19.5 Y9.9
M3 S90
G1 X19.4 Y9.9
M3 S115
G1 X19.3 Y9.9
M3 S141
G1 X19.2 Y9.9
M3 S166
G1 X19.1 Y9.9
M3 S192
G1 X19.0 Y9.9
M3 S217
G1 X18.9 Y9.9
M3 S243
G1 X18.8 Y9.9
M3 S255
G1 X2.8 Y9.9
M3 S230
G1 X2.7 Y9.9
M3 S204
G1 X2.6 Y9.9
M3 S179
G1 X2.5 Y9.9
M3 S153
G1 X2.4 Y9.9
M3 S128
G1 X2.3 Y9.9
M3 S102
G1 X2.2 Y9.9
M3 S77
G1 X2.1 Y9.9
M3 S51
G1 X2.0 Y9.9
M3 S26
G1 X1.9 Y9.9
M3 S0
M5 S0
G0 X1.9 Y10.0
M3 S26
G1 X1.9 Y10.0
M3 S26
G1 X2.0 Y10.0
M3 S51
G1 X2.1 Y10.0
M3 S76
G1 X2.2 Y10.0
M3 S102
G1 X2.3 Y10.0
M3 S128
G1 X2.4 Y10.0
M3 S153
G1 X2.5 Y10.0
M3 S178
G1 X2.6 Y10.0
M3 S204
G1 X2.7 Y10.0
M3 S230
G1 X2.8 Y10.0
M3 S255
G1 X18.7 Y10.0
M3 S253
G1 X18.8 Y10.0
M3 S229
G1 X18.9 Y10.0
M3 S203
G1 X19.0 Y10.0
M3 S178
G1 X19.1 Y10.0
M3 S152
G1 X19.2 Y10.0
M3 S127
G1 X19.3 Y10.0
M3 S101
G1 X19.4 Y10.0
M3 S76
G1 X19.5 Y10.0
M3 S50
G1 X19.6 Y10.0
M3 S25
G1 X19.7 Y10.0
M3 S1
G1 X19.8 Y10.0
M3 S0
G0 X23.6 Y10.0
M3 S26
G1 X23.6 Y10.0
M3 S26
G1 X23.7 Y10.0
M3 S51
G1 X23.8 Y10.0
M3 S76
G1 X23.9 Y10.0
M3 S102
G1 X24.0 Y10.0
M3 S128
G1 X24.1 Y10.0
M3 S153
G1 X24.2 Y10.0
M3 S178
G1 X24.3 Y10.0
M3 S204
G1 X24.4 Y10.0
M3 S230
G1 X24.5 Y10.0
M3 S255
G1 X28.2 Y10.0
M3 S252
G1 X28.3 Y10.0
M3 S227
G1 X28.4 Y10.0
M3 S201
G1 X28.5 Y10.0
M3 S176
G1 X28.6 Y10.0
M3 S150
G1 X28.7 Y10.0
M3 S125
G1 X28.8 Y10.0
M3 S99
G1 X28.9 Y10.0
M3 S74
G1 X29.0 Y10.0
M3 S48
G1 X29.1 Y10.0
M3 S23
G1 X29.2 Y10.0
M3 S1
G1 X29.3 Y10.0
M3 S0
G0 X32.9 Y10.0
M3 S26
G1 X32.9 Y10.0
M3 S26
G1 X33.0 Y10.0
M3 S51
G1 X33.1 Y10.0
M3 S76
G1 X33.2 Y10.0
M3 S102
G1 X33.3 Y10.0
M3 S128
G1 X33.4 Y10.0
M3 S153
G1 X33.5 Y10.0
M3 S178
G1 X33.6 Y10.0
M3 S204
G1 X33.7 Y10.0
M3 S230
G1 X33.8 Y10.0
M3 S255
G1 X37.6 Y10.0
M3 S238
G1 X37.7 Y10.0
M3 S212
G1 X37.8 Y10.0
M3 S187
G1 X37.9 Y10.0
M3 S161
G1 X38.0 Y10.0
M3 S136
G1 X38.1 Y10.0
M3 S110
G1 X38.2 Y10.0
M3 S85
G1 X38.3 Y10.0
M3 S59
G1 X38.4 Y10.0
M3 S34
G1 X38.5 Y10.0
M3 S8
G1 X38.6 Y10.0
M3 S0
G0 X42.3 Y10.0
M3 S1
G1 X42.3 Y10.0
M3 S1
G1 X42.4 Y10.0
M3 S26
G1 X42.5 Y10.0
M3 S52
G1 X42.6 Y10.0
M3 S77
G1 X42.7 Y10.0
M3 S103
G1 X42.8 Y10.0
M3 S128
G1 X42.9 Y10.0
M3 S154
G1 X43.0 Y10.0
M3 S179
G1 X43.1 Y10.0
M3 S205
G1 X43.2 Y10.0
M3 S230
G1 X43.3 Y10.0
M3 S255
G1 X47.1 Y10.0
M3 S229
G1 X47.2 Y10.0
M3 S204
G1 X47.3 Y10.0
M3 S178
G1 X47.4 Y10.0
M3 S153
G1 X47.5 Y10.0
M3 S127
G1 X47.6 Y10.0
M3 S102
G1 X47.7 Y10.0
M3 S76
G1 X47.8 Y10.0
M3 S51
G1 X47.9 Y10.0
M3 S25
G1 X48.0 Y10.0
M3 S0
M5 S0
G0 X48.0 Y10.1
M3 S3
G1 X48.0 Y10.1
M3 S3
G1 X47.9 Y10.1
M3 S28
G1 X47.8 Y10.1
M3 S53
G1 X47.7 Y10.1
M3 S79
G1 X47.6 Y10.1
M3 S104
G1 X47.5 Y10.1
M3 S130
G1 X47.4 Y10.1
M3 S155
G1 X47.3 Y10.1
M3 S181
G1 X47.2 Y10.1
M3 S206
G1 X47.1 Y10.1
M3 S232
G1 X47.0 Y10.1
M3 S254
G1 X46.9 Y10.1
M3 S255
G1 X43.3 Y10.1
M3 S254
G1 X43.2 Y10.1
M3 S231
G1 X43.1 Y10.1
M3 S206
G1 X43.0 Y10.1
M3 S180
G1 X42.9 Y10.1
M3 S155
G1 X42.8 Y10.1
M3 S129
G1 X42.7 Y10.1
M3 S104
G1 X42.6 Y10.1
M3 S78
G1 X42.5 Y10.1
M3 S53
G1 X42.4 Y10.1
M3 S27
G1 X42.3 Y10.1
M3 S3
G1 X42.2 Y10.1
M3 S0
G0 X38.5 Y10.1
M3 S25
G1 X38.5 Y10.1
M3 S25
G1 X38.4 Y10.1
M3 S51
G1 X38.3 Y10.1
M3 S76
G1 X38.2 Y10.1
M3 S102
G1 X38.1 Y10.1
M3 S127
G1 X38.0 Y10.1
M3 S153
G1 X37.9 Y10.1
M3 S178
G1 X37.8 Y10.1
M3 S204
G1 X37.7 Y10.1
M3 S229
G1 X37.6 Y10.1
M3 S255
G1 X33.8 Y10.1
M3 S249
G1 X33.7 Y10.1
M3 S224
G1 X33.6 Y10.1
M3 S198
G1 X33.5 Y10.1
M3 S173
G1 X33.4 Y10.1
M3 S147
G1 X33.3 Y10.1
M3 S122
G1 X33.2 Y10.1
M3 S96
G1 X33.1 Y10.1
M3 S71
G1 X33.0 Y10.1
M3 S45
G1 X32.9 Y10.1
M3 S20
G1 X32.8 Y10.1
M3 S0
G0 X29.1 Y10.1
M3 S26
G1 X29.1 Y10.1
M3 S26
G1 X29.0 Y10.1
M3 S51
G1 X28.9 Y10.1
M3 S76
G1 X28.8 Y10.1
M3 S102
G1 X28.7 Y10.1
M3 S128
G1 X28.6 Y10.1
M3 S153
G1 X28.5 Y10.1
M3 S178
G1 X28.4 Y10.1
M3 S204
G1 X28.3 Y10.1
M3 S230
G1 X28.2 Y10.1
M3 S255
G1 X24.5 Y10.1
M3 S247
G1 X24.4 Y10.1
M3 S222
G1 X24.3 Y10.1
M3 S196
G1 X24.2 Y10.1
M3 S171
G1 X24.1 Y10.1
M3 S145
G1 X24.0 Y10.1
M3 S120
G1 X23.9 Y10.1
M3 S94
G1 X23.8 Y10.1
M3 S69
G1 X23.7 Y10.1
M3 S43
G1 X23.6 Y10.1
M3 S18
G1 X23.5 Y10.1
M3 S0
G0 X19.6 Y10.1
M3 S26
G1 X19.6 Y10.1
M3 S26
G1 X19.5 Y10.1
M3 S51
G1 X19.4 Y10.1
M3 S77
G1 X19.3 Y10.1
M3 S102
G1 X19.2 Y10.1
M3 S128
G1 X19.1 Y10.1
M3 S153
G1 X19.0 Y10.1
M3 S179
G1 X18.9 Y10.1
M3 S204
G1 X18.8 Y10.1
M3 S230
G1 X18.7 Y10.1
M3 S255
G1 X3.0 Y10.1
M3 S254
G1 X2.9 Y10.1
M3 S233
G1 X2.8 Y10.1
M3 S207
G1 X2.7 Y10.1
M3 S182
G1 X2.6 Y10.1
M3 S156
G1 X2.5 Y10.1
M3 S131
G1 X2.4 Y10.1
M3 S105
G1 X2.3 Y10.1
M3 S80
G1 X2.2 Y10.1
M3 S54
G1 X2.1 Y10.1
M3 S29
G1 X2.0 Y10.1
M3 S4
G1 X1.9 Y10.1
M3 S0
M5 S0
G0 X2.0 Y10.2
M3 S15
G1 X2.0 Y10.2
M3 S15
G1 X2.1 Y10.2
M3 S40
G1 X2.2 Y10.2
M3 S66
G1 X2.3 Y10.2
M3 S91
G1 X2.4 Y10.2
M3 S117
G1 X2.5 Y10.2
M3 S142
G1 X2.6 Y10.2
M3 S168
G1 X2.7 Y10.2
M3 S193
G1 X2.8 Y10.2
M3 S219
G1 X2.9 Y10.2
M3 S244
G1 X3.0 Y10.2
M3 S255
G1 X18.7 Y10.2
M3 S230
G1 X18.8 Y10.2
M3 S204
G1 X18.9 Y10.2
M3 S178
G1 X19.0 Y10.2
M3 S153
G1 X19.1 Y10.2
M3 S128
G1 X19.2 Y10.2
M3 S102
G1 X19.3 Y10.2
M3 S76
G1 X19.4 Y10.2
M3 S51
G1 X19.5 Y10.2
M3 S26
G1 X19.6 Y10.2
M3 S0
G0 X23.4 Y10.2
M3 S7
G1 X23.4 Y10.2
M3 S7
G1 X23.5 Y10.2
M3 S32
G1 X23.6 Y10.2
M3 S58
G1 X23.7 Y10.2
M3 S83
G1 X23.8 Y10.2
M3 S109
G1 X23.9 Y10.2
M3 S134
G1 X24.0 Y10.2
M3 S160
G1 X24.1 Y10.2
M3 S185
G1 X24.2 Y10.2
M3 S211
G1 X24.3 Y10.2
M3 S236
G1 X24.4 Y10.2
M3 S255
G1 X28.2 Y10.2
M3 S229
G1 X28.3 Y10.2
M3 S204
G1 X28.4 Y10.2
M3 S178
G1 X28.5 Y10.2
M3 S153
G1 X28.6 Y10.2
M3 S127
G1 X28.7 Y10.2
M3 S102
G1 X28.8 Y10.2
M3 S76
G1 X28.9 Y10.2
M3 S51
G1 X29.0 Y10.2
M3 S25
G1 X29.1 Y10.2
M3 S0
G0 X32.7 Y10.2
M3 S9
G1 X32.7 Y10.2
M3 S9
G1 X32.8 Y10.2
M3 S35
G1 X32.9 Y10.2
M3 S60
G1 X33.0 Y10.2
M3 S86
G1 X33.1 Y10.2
M3 S111
G1 X33.2 Y10.2
M3 S137
G1 X33.3 Y10.2
M3 S162
G1 X33.4 Y10.2
M3 S188
G1 X33.5 Y10.2
M3 S213
G1 X33.6 Y10.2
M3 S239
G1 X33.7 Y10.2
M3 S255
G1 X37.5 Y10.2
M3 S245
G1 X37.6 Y10.2
M3 S220
G1 X37.7 Y10.2
M3 S194
G1 X37.8 Y10.2
M3 S169
G1 X37.9 Y10.2
M3 S143
G1 X38.0 Y10.2
M3 S118
G1 X38.1 Y10.2
M3 S92
G1 X38.2 Y10.2
M3 S67
G1 X38.3 Y10.2
M3 S41
G1 X38.4 Y10.2
M3 S16
G1 X38.5 Y10.2
M3 S0
G0 X42.2 Y10.2
M3 S16
G1 X42.2 Y10.2
M3 S16
G1 X42.3 Y10.2
M3 S42
G1 X42.4 Y10.2
M3 S67
G1 X42.5 Y10.2
M3 S93
G1 X42.6 Y10.2
M3 S118
G1 X42.7 Y10.2
M3 S144
G1 X42.8 Y10.2
M3 S169
G1 X42.9 Y10.2
M3 S195
G1 X43.0 Y10.2
M3 S220
G1 X43.1 Y10.2
M3 S246
G1 X43.2 Y10.2
M3 S255
G1 X46.9 Y10.2
M3 S243
G1 X47.0 Y10.2
M3 S217
G1 X47.1 Y10.2
M3 S192
G1 X47.2 Y10.2
M3 S166
G1 X47.3 Y10.2
M3 S141
G1 X47.4 Y10.2
M3 S115
G1 X47.5 Y10.2
M3 S90
G1 X47.6 Y10.2
M3 S64
G1 X47.7 Y10.2
M3 S39
G1 X47.8 Y10.2
M3 S13
G1 X47.9 Y10.2
M3 S0
M5 S0
G0 X47.8 Y10.3
M3 S26
G1 X47.8 Y10.3
M3 S26
G1 X47.7 Y10.3
M3 S51
G1 X47.6 Y10.3
M3 S76
G1 X47.5 Y10.3
M3 S102
G1 X47.4 Y10.3
M3 S128
G1 X47.3 Y10.3
M3 S153
G1 X47.2 Y10.3
M3 S178
G1 X47.1 Y10.3
M3 S204
G1 X47.0 Y10.3
M3 S230
G1 X46.9 Y10.3
M3 S255
G1 X43.1 Y10.3
M3 S230
G1 X43.0 Y10.3
M3 S204
G1 X42.9 Y10.3
M3 S179
G1 X42.8 Y10.3
M3 S153
G1 X42.7 Y10.3
M3 S128
G1 X42.6 Y10.3
M3 S102
G1 X42.5 Y10.3
M3 S77
G1 X42.4 Y10.3
M3 S51
G1 X42.3 Y10.3
M3 S26
G1 X42.2 Y10.3
M3 S0
G0 X38.4 Y10.3
M3 S13
G1 X38.4 Y10.3
M3 S13
G1 X38.3 Y10.3
M3 S38
G1 X38.2 Y10.3
M3 S64
G1 X38.1 Y10.3
M3 S89
G1 X38.0 Y10.3
M3 S115
G1 X37.9 Y10.3
M3 S140
G1 X37.8 Y10.3
M3 S166
G1 X37.7 Y10.3
M3 S191
G1 X37.6 Y10.3
M3 S217
G1 X37.5 Y10.3
M3 S242
G1 X37.4 Y10.3
M3 S255
G1 X33.6 Y10.3
M3 S230
G1 X33.5 Y10.3
M3 S204
G1 X33.4 Y10.3
M3 S178
G1 X33.3 Y10.3
M3 S153
G1 X33.2 Y10.3
M3 S128
G1 X33.1 Y10.3
M3 S102
G1 X33.0 Y10.3
M3 S76
G1 X32.9 Y10.3
M3 S51
G1 X32.8 Y10.3
M3 S26
G1 X32.7 Y10.3
M3 S0
G0 X29.1 Y10.3
M3 S2
G1 X29.1 Y10.3
M3 S2
G1 X29.0 Y10.3
M3 S28
G1 X28.9 Y10.3
M3 S53
G1 X28.8 Y10.3
M3 S79
G1 X28.7 Y10.3
M3 S104
G1 X28.6 Y10.3
M3 S130
G1 X28.5 Y10.3
M3 S155
G1 X28.4 Y10.3
M3 S181
G1 X28.3 Y10.3
M3 S206
G1 X28.2 Y10.3
M3 S232
G1 X28.1 Y10.3
M3 S255
G1 X24.3 Y10.3
M3 S230
G1 X24.2 Y10.3
M3 S204
G1 X24.1 Y10.3
M3 S178
G1 X24.0 Y10.3
M3 S153
G1 X23.9 Y10.3
M3 S128
G1 X23.8 Y10.3
M3 S102
G1 X23.7 Y10.3
M3 S76
G1 X23.6 Y10.3
M3 S51
G1 X23.5 Y10.3
M3 S26
G1 X23.4 Y10.3
M3 S0
G0 X19.6 Y10.3
M3 S5
G1 X19.6 Y10.3
M3 S5
G1 X19.5 Y10.3
M3 S31
G1 X19.4 Y10.3
M3 S56
G1 X19.3 Y10.3
M3 S82
G1 X19.2 Y10.3
M3 S107
G1 X19.1 Y10.3
M3 S133
G1 X19.0 Y10.3
M3 S158
G1 X18.9 Y10.3
M3 S184
G1 X18.8 Y10.3
M3 S209
G1 X18.7 Y10.3
M3 S235
G1 X18.6 Y10.3
M3 S255
G1 X3.0 Y10.3
M3 S230
G1 X2.9 Y10.3
M3 S204
G1 X2.8 Y10.3
M3 S178
G1 X2.7 Y10.3
M3 S153
G1 X2.6 Y10.3
M3 S128
G1 X2.5 Y10.3
M3 S102
G1 X2.4 Y10.3
M3 S76
G1 X2.3 Y10.3
M3 S51
G1 X2.2 Y10.3
M3 S26
G1 X2.1 Y10.3
M3 S0
M5 S0
G0 X2.1 Y10.4
M3 S8
G1 X2.1 Y10.4
M3 S8
G1 X2.2 Y10.4
M3 S33
G1 X2.3 Y10.4
M3 S59
G1 X2.4 Y10.4
M3 S84
G1 X2.5 Y10.4
M3 S110
G1 X2.6 Y10.4
M3 S135
G1 X2.7 Y10.4
M3 S161
G1 X2.8 Y10.4
M3 S186
G1 X2.9 Y10.4
M3 S212
G1 X3.0 Y10.4
M3 S237
G1 X3.1 Y10.4
M3 S255
G1 X18.5 Y10.4
M3 S254
G1 X18.6 Y10.4
M3 S229
G1 X18.7 Y10.4
M3 S203
G1 X18.8 Y10.4
M3 S178
G1 X18.9 Y10.4
M3 S152
G1 X19.0 Y10.4
M3 S127
G1 X19.1 Y10.4
M3 S101
G1 X19.2 Y10.4
M3 S76
G1 X19.3 Y10.4
M3 S50
G1 X19.4 Y10.4
M3 S25
G1 X19.5 Y10.4
M3 S0
G0 X23.3 Y10.4
M3 S14
G1 X23.3 Y10.4
M3 S14
G1 X23.4 Y10.4
M3 S39
G1 X23.5 Y10.4
M3 S65
G1 X23.6 Y10.4
M3 S90
G1 X23.7 Y10.4
M3 S116
G1 X23.8 Y10.4
M3 S141
G1 X23.9 Y10.4
M3 S167
G1 X24.0 Y10.4
M3 S192
G1 X24.1 Y10.4
M3 S218
G1 X24.2 Y10.4
M3 S243
G1 X24.3 Y10.4
M3 S255
G1 X28.0 Y10.4
M3 S252
G1 X28.1 Y10.4
M3 S227
G1 X28.2 Y10.4
M3 S201
G1 X28.3 Y10.4
M3 S176
G1 X28.4 Y10.4
M3 S150
G1 X28.5 Y10.4
M3 S125
G1 X28.6 Y10.4
M3 S99
G1 X28.7 Y10.4
M3 S74
G1 X28.8 Y10.4
M3 S48
G1 X28.9 Y10.4
M3 S23
G1 X29.0 Y10.4
M3 S0
G0 X32.6 Y10.4
M3 S16
G1 X32.6 Y10.4
M3 S16
G1 X32.7 Y10.4
M3 S41
G1 X32.8 Y10.4
M3 S67
G1 X32.9 Y10.4
M3 S92
G1 X33.0 Y10.4
M3 S118
G1 X33.1 Y10.4
M3 S143
G1 X33.2 Y10.4
M3 S169
G1 X33.3 Y10.4
M3 S194
G1 X33.4 Y10.4
M3 S220
G1 X33.5 Y10.4
M3 S245
G1 X33.6 Y10.4
M3 S255
G1 X37.4 Y10.4
M3 S230
G1 X37.5 Y10.4
M3 S204
G1 X37.6 Y10.4
M3 S178
G1 X37.7 Y10.4
M3 S153
G1 X37.8 Y10.4
M3 S128
G1 X37.9 Y10.4
M3 S102
G1 X38.0 Y10.4
M3 S76
G1 X38.1 Y10.4
M3 S51
G1 X38.2 Y10.4
M3 S26
G1 X38.3 Y10.4
M3 S0
G0 X42.1 Y10.4
M3 S22
G1 X42.1 Y10.4
M3 S22
G1 X42.2 Y10.4
M3 S48
G1 X42.3 Y10.4
M3 S73
G1 X42.4 Y10.4
M3 S99
G1 X42.5 Y10.4
M3 S124
G1 X42.6 Y10.4
M3 S150
G1 X42.7 Y10.4
M3 S175
G1 X42.8 Y10.4
M3 S201
G1 X42.9 Y10.4
M3 S226
G1 X43.0 Y10.4
M3 S252
G1 X43.1 Y10.4
M3 S255
G1 X46.8 Y10.4
M3 S236
G1 X46.9 Y10.4
M3 S210
G1 X47.0 Y10.4
M3 S185
G1 X47.1 Y10.4
M3 S159
G1 X47.2 Y10.4
M3 S134
G1 X47.3 Y10.4
M3 S108
G1 X47.4 Y10.4
M3 S83
G1 X47.5 Y10.4
M3 S57
G1 X47.6 Y10.4
M3 S32
G1 X47.7 Y10.4
M3 S6
G1 X47.8 Y10.4
M3 S0
M5 S0
G0 X47.7 Y10.5
M3 S17
G1 X47.7 Y10.5
M3 S17
G1 X47.6 Y10.5
M3 S43
G1 X47.5 Y10.5
M3 S68
G1 X47.4 Y10.5
M3 S94
G1 X47.3 Y10.5
M3 S119
G1 X47.2 Y10.5
M3 S145
G1 X47.1 Y10.5
M3 S170
G1 X47.0 Y10.5
M3 S196
G1 X46.9 Y10.5
M3 S221
G1 X46.8 Y10.5
M3 S247
G1 X46.7 Y10.5
M3 S255
G1 X43.0 Y10.5
M3 S230
G1 X42.9 Y10.5
M3 S204
G1 X42.8 Y10.5
M3 S178
G1 X42.7 Y10.5
M3 S153
G1 X42.6 Y10.5
M3 S128
G1 X42.5 Y10.5
M3 S102
G1 X42.4 Y10.5
M3 S76
G1 X42.3 Y10.5
M3 S51
G1 X42.2 Y10.5
M3 S26
G1 X42.1 Y10.5
M3 S0
G0 X38.3 Y10.5
M3 S20
G1 X38.3 Y10.5
M3 S20
G1 X38.2 Y10.5
M3 S46
G1 X38.1 Y10.5
M3 S71
G1 X38.0 Y10.5
M3 S97
G1 X37.9 Y10.5
M3 S122
G1 X37.8 Y10.5
M3 S148
G1 X37.7 Y10.5
M3 S173
G1 X37.6 Y10.5
M3 S199
G1 X37.5 Y10.5
M3 S224
G1 X37.4 Y10.5
M3 S250
G1 X37.3 Y10.5
M3 S255
G1 X33.5 Y10.5
M3 S229
G1 X33.4 Y10.5
M3 S204
G1 X33.3 Y10.5
M3 S178
G1 X33.2 Y10.5
M3 S153
G1 X33.1 Y10.5
M3 S127
G1 X33.0 Y10.5
M3 S102
G1 X32.9 Y10.5
M3 S76
G1 X32.8 Y10.5
M3 S51
G1 X32.7 Y10.5
M3 S25
G1 X32.6 Y10.5
M3 S0
G0 X29.0 Y10.5
M3 S9
G1 X29.0 Y10.5
M3 S9
G1 X28.9 Y10.5
M3 S34
G1 X28.8 Y10.5
M3 S60
G1 X28.7 Y10.5
M3 S85
G1 X28.6 Y10.5
M3 S111
G1 X28.5 Y10.5
M3 S136
G1 X28.4 Y10.5
M3 S162
G1 X28.3 Y10.5
M3 S187
G1 X28.2 Y10.5
M3 S213
G1 X28.1 Y10.5
M3 S238
G1 X28.0 Y10.5
M3 S255
G1 X24.3 Y10.5
M3 S254
G1 X24.2 Y10.5
M3 S232
G1 X24.1 Y10.5
M3 S207
G1 X24.0 Y10.5
M3 S181
G1 X23.9 Y10.5
M3 S156
G1 X23.8 Y10.5
M3 S130
G1 X23.7 Y10.5
M3 S105
G1 X23.6 Y10.5
M3 S79
G1 X23.5 Y10.5
M3 S54
G1 X23.4 Y10.5
M3 S28
G1 X23.3 Y10.5
M3 S3
G1 X23.2 Y10.5
M3 S0
G0 X19.5 Y10.5
M3 S13
G1 X19.5 Y10.5
M3 S13
G1 X19.4 Y10.5
M3 S39
G1 X19.3 Y10.5
M3 S64
G1 X19.2 Y10.5
M3 S90
G1 X19.1 Y10.5
M3 S115
G1 X19.0 Y10.5
M3 S141
G1 X18.9 Y10.5
M3 S166
G1 X18.8 Y10.5
M3 S192
G1 X18.7 Y10.5
M3 S217
G1 X18.6 Y10.5
M3 S243
G1 X18.5 Y10.5
M3 S255
G1 X3.1 Y10.5
M3 S230
G1 X3.0 Y10.5
M3 S204
G1 X2.9 Y10.5
M3 S178
G1 X2.8 Y10.5
M3 S153
G1 X2.7 Y10.5
M3 S128
G1 X2.6 Y10.5
M3 S102
G1 X2.5 Y10.5
M3 S76
G1 X2.4 Y10.5
M3 S51
G1 X2.3 Y10.5
M3 S26
G1 X2.2 Y10.5
M3 S0
M5 S0
G0 X2.2 Y10.6
M3 S15
G1 X2.2 Y10.6
M3 S15
G1 X2.3 Y10.6
M3 S41
G1 X2.4 Y10.6
M3 S66
G1 X2.5 Y10.6
M3 S92
G1 X2.6 Y10.6
M3 S117
G1 X2.7 Y10.6
M3 S143
G1 X2.8 Y10.6
M3 S168
G1 X2.9 Y10.6
M3 S194
G1 X3.0 Y10.6
M3 S219
G1 X3.1 Y10.6
M3 S245
G1 X3.2 Y10.6
M3 S255
G1 X18.4 Y10.6
M3 S240
G1 X18.5 Y10.6
M3 S214
G1 X18.6 Y10.6
M3 S189
G1 X18.7 Y10.6
M3 S163
G1 X18.8 Y10.6
M3 S138
G1 X18.9 Y10.6
M3 S112
G1 X19.0 Y10.6
M3 S87
G1 X19.1 Y10.6
M3 S61
G1 X19.2 Y10.6
M3 S36
G1 X19.3 Y10.6
M3 S10
G1 X19.4 Y10.6
M3 S0
G0 X23.2 Y10.6
M3 S26
G1 X23.2 Y10.6
M3 S26
G1 X23.3 Y10.6
M3 S51
G1 X23.4 Y10.6
M3 S76
G1 X23.5 Y10.6
M3 S102
G1 X23.6 Y10.6
M3 S128
G1 X23.7 Y10.6
M3 S153
G1 X23.8 Y10.6
M3 S178
G1 X23.9 Y10.6
M3 S204
G1 X24.0 Y10.6
M3 S230
G1 X24.1 Y10.6
M3 S255
G1 X27.9 Y10.6
M3 S235
G1 X28.0 Y10.6
M3 S209
G1 X28.1 Y10.6
M3 S184
G1 X28.2 Y10.6
M3 S158
G1 X28.3 Y10.6
M3 S133
G1 X28.4 Y10.6
M3 S107
G1 X28.5 Y10.6
M3 S82
G1 X28.6 Y10.6
M3 S56
G1 X28.7 Y10.6
M3 S31
G1 X28.8 Y10.6
M3 S5
G1 X28.9 Y10.6
M3 S0
G0 X32.5 Y10.6
M3 S8
G1 X32.5 Y10.6
M3 S8
G1 X32.6 Y10.6
M3 S34
G1 X32.7 Y10.6
M3 S59
G1 X32.8 Y10.6
M3 S85
G1 X32.9 Y10.6
M3 S110
G1 X33.0 Y10.6
M3 S136
G1 X33.1 Y10.6
M3 S161
G1 X33.2 Y10.6
M3 S187
G1 X33.3 Y10.6
M3 S212
G1 X33.4 Y10.6
M3 S238
G1 X33.5 Y10.6
M3 S255
G1 X37.2 Y10.6
M3 S246
G1 X37.3 Y10.6
M3 S220
G1 X37.4 Y10.6
M3 S195
G1 X37.5 Y10.6
M3 S169
G1 X37.6 Y10.6
M3 S144
G1 X37.7 Y10.6
M3 S118
G1 X37.8 Y10.6
M3 S93
G1 X37.9 Y10.6
M3 S67
G1 X38.0 Y10.6
M3 S42
G1 X38.1 Y10.6
M3 S16
G1 X38.2 Y10.6
M3 S0
G0 X42.0 Y10.6
M3 S16
G1 X42.0 Y10.6
M3 S16
G1 X42.1 Y10.6
M3 S42
G1 X42.2 Y10.6
M3 S67
G1 X42.3 Y10.6
M3 S93
G1 X42.4 Y10.6
M3 S118
G1 X42.5 Y10.6
M3 S144
G1 X42.6 Y10.6
M3 S169
G1 X42.7 Y10.6
M3 S195
G1 X42.8 Y10.6
M3 S220
G1 X42.9 Y10.6
M3 S246
G1 X43.0 Y10.6
M3 S255
G1 X46.7 Y10.6
M3 S230
G1 X46.8 Y10.6
M3 S204
G1 X46.9 Y10.6
M3 S178
G1 X47.0 Y10.6
M3 S153
G1 X47.1 Y10.6
M3 S128
G1 X47.2 Y10.6
M3 S102
G1 X47.3 Y10.6
M3 S76
G1 X47.4 Y10.6
M3 S51
G1 X47.5 Y10.6
M3 S26
G1 X47.6 Y10.6
M3 S0
M5 S0
G0 X47.6 Y10.7
M3 S23
G1 X47.6 Y10.7
M3 S23
G1 X47.5 Y10.7
M3 S49
G1 X47.4 Y10.7
M3 S74
G1 X47.3 Y10.7
M3 S100
G1 X47.2 Y10.7
M3 S125
G1 X47.1 Y10.7
M3 S151
G1 X47.0 Y10.7
M3 S176
G1 X46.9 Y10.7
M3 S202
G1 X46.8 Y10.7
M3 S227
G1 X46.7 Y10.7
M3 S253
G1 X46.6 Y10.7
M3 S255
G1 X42.9 Y10.7
M3 S234
G1 X42.8 Y10.7
M3 S209
G1 X42.7 Y10.7
M3 S183
G1 X42.6 Y10.7
M3 S158
G1 X42.5 Y10.7
M3 S132
G1 X42.4 Y10.7
M3 S107
G1 X42.3 Y10.7
M3 S81
G1 X42.2 Y10.7
M3 S56
G1 X42.1 Y10.7
M3 S30
G1 X42.0 Y10.7
M3 S5
G1 X41.9 Y10.7
M3 S0
G0 X38.2 Y10.7
M3 S3
G1 X38.2 Y10.7
M3 S3
G1 X38.1 Y10.7
M3 S29
G1 X38.0 Y10.7
M3 S54
G1 X37.9 Y10.7
M3 S80
G1 X37.8 Y10.7
M3 S105
G1 X37.7 Y10.7
M3 S131
G1 X37.6 Y10.7
M3 S156
G1 X37.5 Y10.7
M3 S182
G1 X37.4 Y10.7
M3 S207
G1 X37.3 Y10.7
M3 S233
G1 X37.2 Y10.7
M3 S255
G1 X33.5 Y10.7
M3 S251
G1 X33.4 Y10.7
M3 S226
G1 X33.3 Y10.7
M3 S201
G1 X33.2 Y10.7
M3 S175
G1 X33.1 Y10.7
M3 S150
G1 X33.0 Y10.7
M3 S124
G1 X32.9 Y10.7
M3 S99
G1 X32.8 Y10.7
M3 S73
G1 X32.7 Y10.7
M3 S48
G1 X32.6 Y10.7
M3 S22
G1 X32.5 Y10.7
M3 S1
G1 X32.4 Y10.7
M3 S0
G0 X28.8 Y10.7
M3 S26
G1 X28.8 Y10.7
M3 S26
G1 X28.7 Y10.7
M3 S51
G1 X28.6 Y10.7
M3 S76
G1 X28.5 Y10.7
M3 S102
G1 X28.4 Y10.7
M3 S128
G1 X28.3 Y10.7
M3 S153
G1 X28.2 Y10.7
M3 S178
G1 X28.1 Y10.7
M3 S204
G1 X28.0 Y10.7
M3 S230
G1 X27.9 Y10.7
M3 S255
G1 X24.1 Y10.7
M3 S230
G1 X24.0 Y10.7
M3 S204
G1 X23.9 Y10.7
M3 S179
G1 X23.8 Y10.7
M3 S153
G1 X23.7 Y10.7
M3 S128
G1 X23.6 Y10.7
M3 S102
G1 X23.5 Y10.7
M3 S77
G1 X23.4 Y10.7
M3 S51
G1 X23.3 Y10.7
M3 S26
G1 X23.2 Y10.7
M3 S0
G0 X19.3 Y10.7
M3 S26
G1 X19.3 Y10.7
M3 S26
G1 X19.2 Y10.7
M3 S51
G1 X19.1 Y10.7
M3 S77
G1 X19.0 Y10.7
M3 S102
G1 X18.9 Y10.7
M3 S128
G1 X18.8 Y10.7
M3 S153
G1 X18.7 Y10.7
M3 S179
G1 X18.6 Y10.7
M3 S204
G1 X18.5 Y10.7
M3 S230
G1 X18.4 Y10.7
M3 S255
G1 X3.3 Y10.7
M3 S253
G1 X3.2 Y10.7
M3 S230
G1 X3.1 Y10.7
M3 S204
G1 X3.0 Y10.7
M3 S179
G1 X2.9 Y10.7
M3 S153
G1 X2.8 Y10.7
M3 S128
G1 X2.7 Y10.7
M3 S102
G1 X2.6 Y10.7
M3 S77
G1 X2.5 Y10.7
M3 S51
G1 X2.4 Y10.7
M3 S26
G1 X2.3 Y10.7
M3 S2
G1 X2.2 Y10.7
M3 S0
M5 S0
G0 X2.3 Y10.8
M3 S1
G1 X2.3 Y10.8
M3 S1
G1 X2.4 Y10.8
M3 S26
G1 X2.5 Y10.8
M3 S52
G1 X2.6 Y10.8
M3 S77
G1 X2.7 Y10.8
M3 S103
G1 X2.8 Y10.8
M3 S128
G1 X2.9 Y10.8
M3 S154
G1 X3.0 Y10.8
M3 S179
G1 X3.1 Y10.8
M3 S205
G1 X3.2 Y10.8
M3 S230
G1 X3.3 Y10.8
M3 S255
G1 X18.3 Y10.8
M3 S249
G1 X18.4 Y10.8
M3 S223
G1 X18.5 Y10.8
M3 S198
G1 X18.6 Y10.8
M3 S172
G1 X18.7 Y10.8
M3 S147
G1 X18.8 Y10.8
M3 S121
G1 X18.9 Y10.8
M3 S96
G1 X19.0 Y10.8
M3 S70
G1 X19.1 Y10.8
M3 S45
G1 X19.2 Y10.8
M3 S19
G1 X19.3 Y10.8
M3 S0
G0 X23.1 Y10.8
M3 S23
G1 X23.1 Y10.8
M3 S23
G1 X23.2 Y10.8
M3 S48
G1 X23.3 Y10.8
M3 S74
G1 X23.4 Y10.8
M3 S99
G1 X23.5 Y10.8
M3 S125
G1 X23.6 Y10.8
M3 S150
G1 X23.7 Y10.8
M3 S176
G1 X23.8 Y10.8
M3 S201
G1 X23.9 Y10.8
M3 S227
G1 X24.0 Y10.8
M3 S252
G1 X24.1 Y10.8
M3 S255
G1 X27.8 Y10.8
M3 S242
G1 X27.9 Y10.8
M3 S217
G1 X28.0 Y10.8
M3 S191
G1 X28.1 Y10.8
M3 S166
G1 X28.2 Y10.8
M3 S140
G1 X28.3 Y10.8
M3 S115
G1 X28.4 Y10.8
M3 S89
G1 X28.5 Y10.8
M3 S64
G1 X28.6 Y10.8
M3 S38
G1 X28.7 Y10.8
M3 S13
G1 X28.8 Y10.8
M3 S0
G0 X32.4 Y10.8
M3 S24
G1 X32.4 Y10.8
M3 S24
G1 X32.5 Y10.8
M3 S49
G1 X32.6 Y10.8
M3 S75
G1 X32.7 Y10.8
M3 S100
G1 X32.8 Y10.8
M3 S126
G1 X32.9 Y10.8
M3 S151
G1 X33.0 Y10.8
M3 S177
G1 X33.1 Y10.8
M3 S202
G1 X33.2 Y10.8
M3 S228
G1 X33.3 Y10.8
M3 S253
G1 X33.4 Y10.8
M3 S255
G1 X37.1 Y10.8
M3 S253
G1 X37.2 Y10.8
M3 S227
G1 X37.3 Y10.8
M3 S202
G1 X37.4 Y10.8
M3 S176
G1 X37.5 Y10.8
M3 S151
G1 X37.6 Y10.8
M3 S125
G1 X37.7 Y10.8
M3 S100
G1 X37.8 Y10.8
M3 S74
G1 X37.9 Y10.8
M3 S49
G1 X38.0 Y10.8
M3 S23
G1 X38.1 Y10.8
M3 S0
G0 X41.9 Y10.8
M3 S26
G1 X41.9 Y10.8
M3 S26
G1 X42.0 Y10.8
M3 S51
G1 X42.1 Y10.8
M3 S76
G1 X42.2 Y10.8
M3 S102
G1 X42.3 Y10.8
M3 S128
G1 X42.4 Y10.8
M3 S153
G1 X42.5 Y10.8
M3 S178
G1 X42.6 Y10.8
M3 S204
G1 X42.7 Y10.8
M3 S230
G1 X42.8 Y10.8
M3 S255
G1 X46.6 Y10.8
M3 S230
G1 X46.7 Y10.8
M3 S204
G1 X46.8 Y10.8
M3 S179
G1 X46.9 Y10.8
M3 S153
G1 X47.0 Y10.8
M3 S128
G1 X47.1 Y10.8
M3 S102
G1 X47.2 Y10.8
M3 S77
G1 X47.3 Y10.8
M3 S51
G1 X47.4 Y10.8
M3 S26
G1 X47.5 Y10.8
M3 S0
M5 S0
G0 X47.5 Y10.9
M3 S18
G1 X47.5 Y10.9
M3 S18
G1 X47.4 Y10.9
M3 S43
G1 X47.3 Y10.9
M3 S69
G1 X47.2 Y10.9
M3 S94
G1 X47.1 Y10.9
M3 S120
G1 X47.0 Y10.9
M3 S145
G1 X46.9 Y10.9
M3 S171
G1 X46.8 Y10.9
M3 S196
G1 X46.7 Y10.9
M3 S222
G1 X46.6 Y10.9
M3 S247
G1 X46.5 Y10.9
M3 S255
G1 X42.8 Y10.9
M3 S242
G1 X42.7 Y10.9
M3 S216
G1 X42.6 Y10.9
M3 S191
G1 X42.5 Y10.9
M3 S165
G1 X42.4 Y10.9
M3 S140
G1 X42.3 Y10.9
M3 S114
G1 X42.2 Y10.9
M3 S89
G1 X42.1 Y10.9
M3 S63
G1 X42.0 Y10.9
M3 S38
G1 X41.9 Y10.9
M3 S12
G1 X41.8 Y10.9
M3 S0
G0 X38.0 Y10.9
M3 S26
G1 X38.0 Y10.9
M3 S26
G1 X37.9 Y10.9
M3 S51
G1 X37.8 Y10.9
M3 S77
G1 X37.7 Y10.9
M3 S102
G1 X37.6 Y10.9
M3 S128
G1 X37.5 Y10.9
M3 S153
G1 X37.4 Y10.9
M3 S179
G1 X37.3 Y10.9
M3 S204
G1 X37.2 Y10.9
M3 S230
G1 X37.1 Y10.9
M3 S255
G1 X33.3 Y10.9
M3 S234
G1 X33.2 Y10.9
M3 S208
G1 X33.1 Y10.9
M3 S183
G1 X33.0 Y10.9
M3 S157
G1 X32.9 Y10.9
M3 S132
G1 X32.8 Y10.9
M3 S106
G1 X32.7 Y10.9
M3 S81
G1 X32.6 Y10.9
M3 S55
G1 X32.5 Y10.9
M3 S30
G1 X32.4 Y10.9
M3 S4
G1 X32.3 Y10.9
M3 S0
G0 X28.7 Y10.9
M3 S9
G1 X28.7 Y10.9
M3 S9
G1 X28.6 Y10.9
M3 S35
G1 X28.5 Y10.9
M3 S60
G1 X28.4 Y10.9
M3 S86
G1 X28.3 Y10.9
M3 S111
G1 X28.2 Y10.9
M3 S137
G1 X28.1 Y10.9
M3 S162
G1 X28.0 Y10.9
M3 S188
G1 X27.9 Y10.9
M3 S213
G1 X27.8 Y10.9
M3 S239
G1 X27.7 Y10.9
M3 S255
G1 X24.0 Y10.9
M3 S232
G1 X23.9 Y10.9
M3 S207
G1 X23.8 Y10.9
M3 S181
G1 X23.7 Y10.9
M3 S156
G1 X23.6 Y10.9
M3 S130
G1 X23.5 Y10.9
M3 S105
G1 X23.4 Y10.9
M3 S79
G1 X23.3 Y10.9
M3 S54
G1 X23.2 Y10.9
M3 S28
G1 X23.1 Y10.9
M3 S3
G1 X23.0 Y10.9
M3 S0
G0 X19.2 Y10.9
M3 S16
G1 X19.2 Y10.9
M3 S16
G1 X19.1 Y10.9
M3 S41
G1 X19.0 Y10.9
M3 S67
G1 X18.9 Y10.9
M3 S92
G1 X18.8 Y10.9
M3 S118
G1 X18.7 Y10.9
M3 S143
G1 X18.6 Y10.9
M3 S169
G1 X18.5 Y10.9
M3 S194
G1 X18.4 Y10.9
M3 S220
G1 X18.3 Y10.9
M3 S245
G1 X18.2 Y10.9
M3 S255
G1 X3.4 Y10.9
M3 S249
G1 X3.3 Y10.9
M3 S223
G1 X3.2 Y10.9
M3 S198
G1 X3.1 Y10.9
M3 S172
G1 X3.0 Y10.9
M3 S147
G1 X2.9 Y10.9
M3 S121
G1 X2.8 Y10.9
M3 S96
G1 X2.7 Y10.9
M3 S70
G1 X2.6 Y10.9
M3 S45
G1 X2.5 Y10.9
M3 S19
G1 X2.4 Y10.9
M3 S0
M5 S0
G0 X2.4 Y11.0
M3 S5
G1 X2.4 Y11.0
M3 S5
G1 X2.5 Y11.0
M3 S30
G1 X2.6 Y11.0
M3 S55
G1 X2.7 Y11.0
M3 S81
G1 X2.8 Y11.0
M3 S106
G1 X2.9 Y11.0
M3 S132
G1 X3.0 Y11.0
M3 S157
G1 X3.1 Y11.0
M3 S183
G1 X3.2 Y11.0
M3 S208
G1 X3.3 Y11.0
M3 S234
G1 X3.4 Y11.0
M3 S255
G1 X18.2 Y11.0
M3 S233
G1 X18.3 Y11.0
M3 S207
G1 X18.4 Y11.0
M3 S182
G1 X18.5 Y11.0
M3 S156
G1 X18.6 Y11.0
M3 S131
G1 X18.7 Y11.0
M3 S105
G1 X18.8 Y11.0
M3 S80
G1 X18.9 Y11.0
M3 S54
G1 X19.0 Y11.0
M3 S29
G1 X19.1 Y11.0
M3 S3
G1 X19.2 Y11.0
M3 S0
G0 X23.0 Y11.0
M3 S17
G1 X23.0 Y11.0
M3 S17
G1 X23.1 Y11.0
M3 S42
G1 X23.2 Y11.0
M3 S68
G1 X23.3 Y11.0
M3 S93
G1 X23.4 Y11.0
M3 S119
G1 X23.5 Y11.0
M3 S144
G1 X23.6 Y11.0
M3 S170
G1 X23.7 Y11.0
M3 S195
G1 X23.8 Y11.0
M3 S221
G1 X23.9 Y11.0
M3 S246
G1 X24.0 Y11.0
M3 S255
G1 X27.7 Y11.0
M3 S230
G1 X27.8 Y11.0
M3 S204
G1 X27.9 Y11.0
M3 S179
G1 X28.0 Y11.0
M3 S153
G1 X28.1 Y11.0
M3 S128
G1 X28.2 Y11.0
M3 S102
G1 X28.3 Y11.0
M3 S77
G1 X28.4 Y11.0
M3 S51
G1 X28.5 Y11.0
M3 S26
G1 X28.6 Y11.0
M3 S0
G0 X32.3 Y11.0
M3 S18
G1 X32.3 Y11.0
M3 S18
G1 X32.4 Y11.0
M3 S44
G1 X32.5 Y11.0
M3 S69
G1 X32.6 Y11.0
M3 S95
G1 X32.7 Y11.0
M3 S120
G1 X32.8 Y11.0
M3 S146
G1 X32.9 Y11.0
M3 S171
G1 X33.0 Y11.0
M3 S197
G1 X33.1 Y11.0
M3 S222
G1 X33.2 Y11.0
M3 S248
G1 X33.3 Y11.0
M3 S255
G1 X37.1 Y11.0
M3 S230
G1 X37.2 Y11.0
M3 S204
G1 X37.3 Y11.0
M3 S178
G1 X37.4 Y11.0
M3 S153
G1 X37.5 Y11.0
M3 S128
G1 X37.6 Y11.0
M3 S102
G1 X37.7 Y11.0
M3 S76
G1 X37.8 Y11.0
M3 S51
G1 X37.9 Y11.0
M3 S26
G1 X38.0 Y11.0
M3 S0
G0 X41.7 Y11.0
M3 S2
G1 X41.7 Y11.0
M3 S2
G1 X41.8 Y11.0
M3 S26
G1 X41.9 Y11.0
M3 S52
G1 X42.0 Y11.0
M3 S77
G1 X42.1 Y11.0
M3 S103
G1 X42.2 Y11.0
M3 S128
G1 X42.3 Y11.0
M3 S154
G1 X42.4 Y11.0
M3 S179
G1 X42.5 Y11.0
M3 S205
G1 X42.6 Y11.0
M3 S230
G1 X42.7 Y11.0
M3 S254
G1 X42.8 Y11.0
M3 S255
G1 X46.4 Y11.0
M3 S254
G1 X46.5 Y11.0
M3 S233
G1 X46.6 Y11.0
M3 S207
G1 X46.7 Y11.0
M3 S182
G1 X46.8 Y11.0
M3 S156
G1 X46.9 Y11.0
M3 S131
G1 X47.0 Y11.0
M3 S105
G1 X47.1 Y11.0
M3 S80
G1 X47.2 Y11.0
M3 S54
G1 X47.3 Y11.0
M3 S29
G1 X47.4 Y11.0
M3 S4
G1 X47.5 Y11.0
M3 S0
M5 S0
G0 X47.4 Y11.1
M3 S2
G1 X47.4 Y11.1
M3 S2
G1 X47.3 Y11.1
M3 S27
G1 X47.2 Y11.1
M3 S53
G1 X47.1 Y11.1
M3 S78
G1 X47.0 Y11.1
M3 S104
G1 X46.9 Y11.1
M3 S129
G1 X46.8 Y11.1
M3 S155
G1 X46.7 Y11.1
M3 S180
G1 X46.6 Y11.1
M3 S206
G1 X46.5 Y11.1
M3 S231
G1 X46.4 Y11.1
M3 S255
G1 X42.6 Y11.1
M3 S229
G1 X42.5 Y11.1
M3 S204
G1 X42.4 Y11.1
M3 S178
G1 X42.3 Y11.1
M3 S153
G1 X42.2 Y11.1
M3 S127
G1 X42.1 Y11.1
M3 S102
G1 X42.0 Y11.1
M3 S76
G1 X41.9 Y11.1
M3 S51
G1 X41.8 Y11.1
M3 S25
G1 X41.7 Y11.1
M3 S0
G0 X38.0 Y11.1
M3 S4
G1 X38.0 Y11.1
M3 S4
G1 X37.9 Y11.1
M3 S29
G1 X37.8 Y11.1
M3 S54
G1 X37.7 Y11.1
M3 S80
G1 X37.6 Y11.1
M3 S105
G1 X37.5 Y11.1
M3 S131
G1 X37.4 Y11.1
M3 S156
G1 X37.3 Y11.1
M3 S182
G1 X37.2 Y11.1
M3 S207
G1 X37.1 Y11.1
M3 S233
G1 X37.0 Y11.1
M3 S254
G1 X36.9 Y11.1
M3 S255
G1 X33.2 Y11.1
M3 S251
G1 X33.1 Y11.1
M3 S225
G1 X33.0 Y11.1
M3 S200
G1 X32.9 Y11.1
M3 S174
G1 X32.8 Y11.1
M3 S149
G1 X32.7 Y11.1
M3 S123
G1 X32.6 Y11.1
M3 S98
G1 X32.5 Y11.1
M3 S72
G1 X32.4 Y11.1
M3 S47
G1 X32.3 Y11.1
M3 S21
G1 X32.2 Y11.1
M3 S0
G0 X28.6 Y11.1
M3 S17
G1 X28.6 Y11.1
M3 S17
G1 X28.5 Y11.1
M3 S42
G1 X28.4 Y11.1
M3 S68
G1 X28.3 Y11.1
M3 S93
G1 X28.2 Y11.1
M3 S119
G1 X28.1 Y11.1
M3 S144
G1 X28.0 Y11.1
M3 S170
G1 X27.9 Y11.1
M3 S195
G1 X27.8 Y11.1
M3 S221
G1 X27.7 Y11.1
M3 S246
G1 X27.6 Y11.1
M3 S255
G1 X23.9 Y11.1
M3 S249
G1 X23.8 Y11.1
M3 S223
G1 X23.7 Y11.1
M3 S198
G1 X23.6 Y11.1
M3 S172
G1 X23.5 Y11.1
M3 S147
G1 X23.4 Y11.1
M3 S121
G1 X23.3 Y11.1
M3 S96
G1 X23.2 Y11.1
M3 S70
G1 X23.1 Y11.1
M3 S45
G1 X23.0 Y11.1
M3 S19
G1 X22.9 Y11.1
M3 S0
G0 X19.1 Y11.1
M3 S23
G1 X19.1 Y11.1
M3 S23
G1 X19.0 Y11.1
M3 S49
G1 X18.9 Y11.1
M3 S74
G1 X18.8 Y11.1
M3 S100
G1 X18.7 Y11.1
M3 S125
G1 X18.6 Y11.1
M3 S151
G1 X18.5 Y11.1
M3 S176
G1 X18.4 Y11.1
M3 S202
G1 X18.3 Y11.1
M3 S227
G1 X18.2 Y11.1
M3 S253
G1 X18.1 Y11.1
M3 S255
G1 X3.5 Y11.1
M3 S232
G1 X3.4 Y11.1
M3 S206
G1 X3.3 Y11.1
M3 S181
G1 X3.2 Y11.1
M3 S155
G1 X3.1 Y11.1
M3 S130
G1 X3.0 Y11.1
M3 S104
G1 X2.9 Y11.1
M3 S79
G1 X2.8 Y11.1
M3 S53
G1 X2.7 Y11.1
M3 S28
G1 X2.6 Y11.1
M3 S2
G1 X2.5 Y11.1
M3 S0
M5 S0
G0 X2.6 Y11.2
M3 S26
G1 X2.6 Y11.2
M3 S26
G1 X2.7 Y11.2
M3 S51
G1 X2.8 Y11.2
M3 S76
G1 X2.9 Y11.2
M3 S102
G1 X3.0 Y11.2
M3 S128
G1 X3.1 Y11.2
M3 S153
G1 X3.2 Y11.2
M3 S178
G1 X3.3 Y11.2
M3 S204
G1 X3.4 Y11.2
M3 S230
G1 X3.5 Y11.2
M3 S255
G1 X18.1 Y11.2
M3 S240
G1 X18.2 Y11.2
M3 S214
G1 X18.3 Y11.2
M3 S189
G1 X18.4 Y11.2
M3 S163
G1 X18.5 Y11.2
M3 S138
G1 X18.6 Y11.2
M3 S112
G1 X18.7 Y11.2
M3 S87
G1 X18.8 Y11.2
M3 S61
G1 X18.9 Y11.2
M3 S36
G1 X19.0 Y11.2
M3 S10
G1 X19.1 Y11.2
M3 S0
G0 X22.9 Y11.2
M3 S26
G1 X22.9 Y11.2
M3 S26
G1 X23.0 Y11.2
M3 S51
G1 X23.1 Y11.2
M3 S76
G1 X23.2 Y11.2
M3 S102
G1 X23.3 Y11.2
M3 S128
G1 X23.4 Y11.2
M3 S153
G1 X23.5 Y11.2
M3 S178
G1 X23.6 Y11.2
M3 S204
G1 X23.7 Y11.2
M3 S230
G1 X23.8 Y11.2
M3 S255
G1 X27.6 Y11.2
M3 S233
G1 X27.7 Y11.2
M3 S207
G1 X27.8 Y11.2
M3 S182
G1 X27.9 Y11.2
M3 S156
G1 X28.0 Y11.2
M3 S131
G1 X28.1 Y11.2
M3 S105
G1 X28.2 Y11.2
M3 S80
G1 X28.3 Y11.2
M3 S54
G1 X28.4 Y11.2
M3 S29
G1 X28.5 Y11.2
M3 S3
G1 X28.6 Y11.2
M3 S0
G0 X32.2 Y11.2
M3 S26
G1 X32.2 Y11.2
M3 S26
G1 X32.3 Y11.2
M3 S51
G1 X32.4 Y11.2
M3 S76
G1 X32.5 Y11.2
M3 S102
G1 X32.6 Y11.2
M3 S128
G1 X32.7 Y11.2
M3 S153
G1 X32.8 Y11.2
M3 S178
G1 X32.9 Y11.2
M3 S204
G1 X33.0 Y11.2
M3 S230
G1 X33.1 Y11.2
M3 S255
G1 X36.9 Y11.2
M3 S243
G1 X37.0 Y11.2
M3 S217
G1 X37.1 Y11.2
M3 S192
G1 X37.2 Y11.2
M3 S166
G1 X37.3 Y11.2
M3 S141
G1 X37.4 Y11.2
M3 S115
G1 X37.5 Y11.2
M3 S90
G1 X37.6 Y11.2
M3 S64
G1 X37.7 Y11.2
M3 S39
G1 X37.8 Y11.2
M3 S13
G1 X37.9 Y11.2
M3 S0
G0 X41.7 Y11.2
M3 S26
G1 X41.7 Y11.2
M3 S26
G1 X41.8 Y11.2
M3 S51
G1 X41.9 Y11.2
M3 S76
G1 X42.0 Y11.2
M3 S102
G1 X42.1 Y11.2
M3 S128
G1 X42.2 Y11.2
M3 S153
G1 X42.3 Y11.2
M3 S178
G1 X42.4 Y11.2
M3 S204
G1 X42.5 Y11.2
M3 S230
G1 X42.6 Y11.2
M3 S255
G1 X46.4 Y11.2
M3 S230
G1 X46.5 Y11.2
M3 S204
G1 X46.6 Y11.2
M3 S178
G1 X46.7 Y11.2
M3 S153
G1 X46.8 Y11.2
M3 S128
G1 X46.9 Y11.2
M3 S102
G1 X47.0 Y11.2
M3 S76
G1 X47.1 Y11.2
M3 S51
G1 X47.2 Y11.2
M3 S26
G1 X47.3 Y11.2
M3 S0
M5 S0
G0 X47.3 Y11.3
M3 S7
G1 X47.3 Y11.3
M3 S7
G1 X47.2 Y11.3
M3 S33
G1 X47.1 Y11.3
M3 S58
G1 X47.0 Y11.3
M3 S84
G1 X46.9 Y11.3
M3 S109
G1 X46.8 Y11.3
M3 S135
G1 X46.7 Y11.3
M3 S160
G1 X46.6 Y11.3
M3 S186
G1 X46.5 Y11.3
M3 S211
G1 X46.4 Y11.3
M3 S237
G1 X46.3 Y11.3
M3 S255
G1 X42.6 Y11.3
M3 S251
G1 X42.5 Y11.3
M3 S226
G1 X42.4 Y11.3
M3 S200
G1 X42.3 Y11.3
M3 S175
G1 X42.2 Y11.3
M3 S149
G1 X42.1 Y11.3
M3 S124
G1 X42.0 Y11.3
M3 S98
G1 X41.9 Y11.3
M3 S73
G1 X41.8 Y11.3
M3 S47
G1 X41.7 Y11.3
M3 S22
G1 X41.6 Y11.3
M3 S0
G0 X37.8 Y11.3
M3 S26
G1 X37.8 Y11.3
M3 S26
G1 X37.7 Y11.3
M3 S51
G1 X37.6 Y11.3
M3 S76
G1 X37.5 Y11.3
M3 S102
G1 X37.4 Y11.3
M3 S128
G1 X37.3 Y11.3
M3 S153
G1 X37.2 Y11.3
M3 S178
G1 X37.1 Y11.3
M3 S204
G1 X37.0 Y11.3
M3 S230
G1 X36.9 Y11.3
M3 S255
G1 X33.1 Y11.3
M3 S244
G1 X33.0 Y11.3
M3 S218
G1 X32.9 Y11.3
M3 S193
G1 X32.8 Y11.3
M3 S167
G1 X32.7 Y11.3
M3 S142
G1 X32.6 Y11.3
M3 S116
G1 X32.5 Y11.3
M3 S91
G1 X32.4 Y11.3
M3 S65
G1 X32.3 Y11.3
M3 S40
G1 X32.2 Y11.3
M3 S14
G1 X32.1 Y11.3
M3 S0
G0 X28.5 Y11.3
M3 S23
G1 X28.5 Y11.3
M3 S23
G1 X28.4 Y11.3
M3 S49
G1 X28.3 Y11.3
M3 S74
G1 X28.2 Y11.3
M3 S100
G1 X28.1 Y11.3
M3 S125
G1 X28.0 Y11.3
M3 S151
G1 X27.9 Y11.3
M3 S176
G1 X27.8 Y11.3
M3 S202
G1 X27.7 Y11.3
M3 S227
G1 X27.6 Y11.3
M3 S253
G1 X27.5 Y11.3
M3 S255
G1 X23.8 Y11.3
M3 S242
G1 X23.7 Y11.3
M3 S217
G1 X23.6 Y11.3
M3 S191
G1 X23.5 Y11.3
M3 S166
G1 X23.4 Y11.3
M3 S140
G1 X23.3 Y11.3
M3 S115
G1 X23.2 Y11.3
M3 S89
G1 X23.1 Y11.3
M3 S64
G1 X23.0 Y11.3
M3 S38
G1 X22.9 Y11.3
M3 S13
G1 X22.8 Y11.3
M3 S0
G0 X19.0 Y11.3
M3 S26
G1 X19.0 Y11.3
M3 S26
G1 X18.9 Y11.3
M3 S51
G1 X18.8 Y11.3
M3 S76
G1 X18.7 Y11.3
M3 S102
G1 X18.6 Y11.3
M3 S128
G1 X18.5 Y11.3
M3 S153
G1 X18.4 Y11.3
M3 S178
G1 X18.3 Y11.3
M3 S204
G1 X18.2 Y11.3
M3 S230
G1 X18.1 Y11.3
M3 S255
G1 X3.6 Y11.3
M3 S238
G1 X3.5 Y11.3
M3 S213
G1 X3.4 Y11.3
M3 S187
G1 X3.3 Y11.3
M3 S162
G1 X3.2 Y11.3
M3 S136
G1 X3.1 Y11.3
M3 S111
G1 X3.0 Y11.3
M3 S85
G1 X2.9 Y11.3
M3 S60
G1 X2.8 Y11.3
M3 S34
G1 X2.7 Y11.3
M3 S9
G1 X2.6 Y11.3
M3 S0
M5 S0
G0 X2.7 Y11.4
M3 S25
G1 X2.7 Y11.4
M3 S25
G1 X2.8 Y11.4
M3 S51
G1 X2.9 Y11.4
M3 S76
G1 X3.0 Y11.4
M3 S102
G1 X3.1 Y11.4
M3 S127
G1 X3.2 Y11.4
M3 S153
G1 X3.3 Y11.4
M3 S178
G1 X3.4 Y11.4
M3 S204
G1 X3.5 Y11.4
M3 S229
G1 X3.6 Y11.4
M3 S255
G1 X18.0 Y11.4
M3 S234
G1 X18.1 Y11.4
M3 S209
G1 X18.2 Y11.4
M3 S183
G1 X18.3 Y11.4
M3 S158
G1 X18.4 Y11.4
M3 S132
G1 X18.5 Y11.4
M3 S107
G1 X18.6 Y11.4
M3 S81
G1 X18.7 Y11.4
M3 S56
G1 X18.8 Y11.4
M3 S30
G1 X18.9 Y11.4
M3 S5
G1 X19.0 Y11.4
M3 S0
G0 X22.7 Y11.4
M3 S16
G1 X22.7 Y11.4
M3 S16
G1 X22.8 Y11.4
M3 S41
G1 X22.9 Y11.4
M3 S67
G1 X23.0 Y11.4
M3 S92
G1 X23.1 Y11.4
M3 S118
G1 X23.2 Y11.4
M3 S143
G1 X23.3 Y11.4
M3 S169
G1 X23.4 Y11.4
M3 S194
G1 X23.5 Y11.4
M3 S220
G1 X23.6 Y11.4
M3 S245
G1 X23.7 Y11.4
M3 S255
G1 X27.4 Y11.4
M3 S250
G1 X27.5 Y11.4
M3 S225
G1 X27.6 Y11.4
M3 S199
G1 X27.7 Y11.4
M3 S174
G1 X27.8 Y11.4
M3 S148
G1 X27.9 Y11.4
M3 S123
G1 X28.0 Y11.4
M3 S97
G1 X28.1 Y11.4
M3 S72
G1 X28.2 Y11.4
M3 S46
G1 X28.3 Y11.4
M3 S21
G1 X28.4 Y11.4
M3 S0
G0 X32.1 Y11.4
M3 S26
G1 X32.1 Y11.4
M3 S26
G1 X32.2 Y11.4
M3 S51
G1 X32.3 Y11.4
M3 S76
G1 X32.4 Y11.4
M3 S102
G1 X32.5 Y11.4
M3 S128
G1 X32.6 Y11.4
M3 S153
G1 X32.7 Y11.4
M3 S178
G1 X32.8 Y11.4
M3 S204
G1 X32.9 Y11.4
M3 S230
G1 X33.0 Y11.4
M3 S255
G1 X36.8 Y11.4
M3 S236
G1 X36.9 Y11.4
M3 S211
G1 X37.0 Y11.4
M3 S185
G1 X37.1 Y11.4
M3 S160
G1 X37.2 Y11.4
M3 S134
G1 X37.3 Y11.4
M3 S109
G1 X37.4 Y11.4
M3 S83
G1 X37.5 Y11.4
M3 S58
G1 X37.6 Y11.4
M3 S32
G1 X37.7 Y11.4
M3 S7
G1 X37.8 Y11.4
M3 S0
G0 X41.5 Y11.4
M3 S2
G1 X41.5 Y11.4
M3 S2
G1 X41.6 Y11.4
M3 S28
G1 X41.7 Y11.4
M3 S53
G1 X41.8 Y11.4
M3 S79
G1 X41.9 Y11.4
M3 S104
G1 X42.0 Y11.4
M3 S130
G1 X42.1 Y11.4
M3 S155
G1 X42.2 Y11.4
M3 S181
G1 X42.3 Y11.4
M3 S206
G1 X42.4 Y11.4
M3 S232
G1 X42.5 Y11.4
M3 S255
G1 X46.2 Y11.4
M3 S234
G1 X46.3 Y11.4
M3 S208
G1 X46.4 Y11.4
M3 S183
G1 X46.5 Y11.4
M3 S157
G1 X46.6 Y11.4
M3 S132
G1 X46.7 Y11.4
M3 S106
G1 X46.8 Y11.4
M3 S81
G1 X46.9 Y11.4
M3 S55
G1 X47.0 Y11.4
M3 S30
G1 X47.1 Y11.4
M3 S4
G1 X47.2 Y11.4
M3 S0
M5 S0
G0 X47.1 Y11.5
M3 S26
G1 X47.1 Y11.5
M3 S26
G1 X47.0 Y11.5
M3 S51
G1 X46.9 Y11.5
M3 S76
G1 X46.8 Y11.5
M3 S102
G1 X46.7 Y11.5
M3 S128
G1 X46.6 Y11.5
M3 S153
G1 X46.5 Y11.5
M3 S178
G1 X46.4 Y11.5
M3 S204
G1 X46.3 Y11.5
M3 S230
G1 X46.2 Y11.5
M3 S255
G1 X42.5 Y11.5
M3 S245
G1 X42.4 Y11.5
M3 S220
G1 X42.3 Y11.5
M3 S194
G1 X42.2 Y11.5
M3 S169
G1 X42.1 Y11.5
M3 S143
G1 X42.0 Y11.5
M3 S118
G1 X41.9 Y11.5
M3 S92
G1 X41.8 Y11.5
M3 S67
G1 X41.7 Y11.5
M3 S41
G1 X41.6 Y11.5
M3 S16
G1 X41.5 Y11.5
M3 S0
G0 X37.7 Y11.5
M3 S17
G1 X37.7 Y11.5
M3 S17
G1 X37.6 Y11.5
M3 S43
G1 X37.5 Y11.5
M3 S68
G1 X37.4 Y11.5
M3 S94
G1 X37.3 Y11.5
M3 S119
G1 X37.2 Y11.5
M3 S145
G1 X37.1 Y11.5
M3 S170
G1 X37.0 Y11.5
M3 S196
G1 X36.9 Y11.5
M3 S221
G1 X36.8 Y11.5
M3 S247
G1 X36.7 Y11.5
M3 S255
G1 X33.0 Y11.5
M3 S236
G1 X32.9 Y11.5
M3 S210
G1 X32.8 Y11.5
M3 S185
G1 X32.7 Y11.5
M3 S159
G1 X32.6 Y11.5
M3 S134
G1 X32.5 Y11.5
M3 S108
G1 X32.4 Y11.5
M3 S83
G1 X32.3 Y11.5
M3 S57
G1 X32.2 Y11.5
M3 S32
G1 X32.1 Y11.5
M3 S6
G1 X32.0 Y11.5
M3 S0
G0 X28.4 Y11.5
M3 S6
G1 X28.4 Y11.5
M3 S6
G1 X28.3 Y11.5
M3 S32
G1 X28.2 Y11.5
M3 S57
G1 X28.1 Y11.5
M3 S83
G1 X28.0 Y11.5
M3 S108
G1 X27.9 Y11.5
M3 S134
G1 X27.8 Y11.5
M3 S159
G1 X27.7 Y11.5
M3 S185
G1 X27.6 Y11.5
M3 S210
G1 X27.5 Y11.5
M3 S236
G1 X27.4 Y11.5
M3 S255
G1 X23.6 Y11.5
M3 S229
G1 X23.5 Y11.5
M3 S204
G1 X23.4 Y11.5
M3 S178
G1 X23.3 Y11.5
M3 S153
G1 X23.2 Y11.5
M3 S127
G1 X23.1 Y11.5
M3 S102
G1 X23.0 Y11.5
M3 S76
G1 X22.9 Y11.5
M3 S51
G1 X22.8 Y11.5
M3 S25
G1 X22.7 Y11.5
M3 S0
G0 X18.9 Y11.5
M3 S16
G1 X18.9 Y11.5
M3 S16
G1 X18.8 Y11.5
M3 S41
G1 X18.7 Y11.5
M3 S67
G1 X18.6 Y11.5
M3 S92
G1 X18.5 Y11.5
M3 S118
G1 X18.4 Y11.5
M3 S143
G1 X18.3 Y11.5
M3 S169
G1 X18.2 Y11.5
M3 S194
G1 X18.1 Y11.5
M3 S220
G1 X18.0 Y11.5
M3 S245
G1 X17.9 Y11.5
M3 S255
G1 X3.7 Y11.5
M3 S246
G1 X3.6 Y11.5
M3 S220
G1 X3.5 Y11.5
M3 S195
G1 X3.4 Y11.5
M3 S169
G1 X3.3 Y11.5
M3 S144
G1 X3.2 Y11.5
M3 S118
G1 X3.1 Y11.5
M3 S93
G1 X3.0 Y11.5
M3 S67
G1 X2.9 Y11.5
M3 S42
G1 X2.8 Y11.5
M3 S16
G1 X2.7 Y11.5
M3 S0
M5 S0
G0 X2.8 Y11.6
M3 S13
G1 X2.8 Y11.6
M3 S13
G1 X2.9 Y11.6
M3 S38
G1 X3.0 Y11.6
M3 S64
G1 X3.1 Y11.6
M3 S89
G1 X3.2 Y11.6
M3 S115
G1 X3.3 Y11.6
M3 S140
G1 X3.4 Y11.6
M3 S166
G1 X3.5 Y11.6
M3 S191
G1 X3.6 Y11.6
M3 S217
G1 X3.7 Y11.6
M3 S242
G1 X3.8 Y11.6
M3 S255
G1 X17.9 Y11.6
M3 S230
G1 X18.0 Y11.6
M3 S204
G1 X18.1 Y11.6
M3 S178
G1 X18.2 Y11.6
M3 S153
G1 X18.3 Y11.6
M3 S128
G1 X18.4 Y11.6
M3 S102
G1 X18.5 Y11.6
M3 S76
G1 X18.6 Y11.6
M3 S51
G1 X18.7 Y11.6
M3 S26
G1 X18.8 Y11.6
M3 S0
G0 X22.6 Y11.6
M3 S8
G1 X22.6 Y11.6
M3 S8
G1 X22.7 Y11.6
M3 S34
G1 X22.8 Y11.6
M3 S59
G1 X22.9 Y11.6
M3 S85
G1 X23.0 Y11.6
M3 S110
G1 X23.1 Y11.6
M3 S136
G1 X23.2 Y11.6
M3 S161
G1 X23.3 Y11.6
M3 S187
G1 X23.4 Y11.6
M3 S212
G1 X23.5 Y11.6
M3 S238
G1 X23.6 Y11.6
M3 S255
G1 X27.3 Y11.6
M3 S254
G1 X27.4 Y11.6
M3 S229
G1 X27.5 Y11.6
M3 S203
G1 X27.6 Y11.6
M3 S178
G1 X27.7 Y11.6
M3 S152
G1 X27.8 Y11.6
M3 S127
G1 X27.9 Y11.6
M3 S101
G1 X28.0 Y11.6
M3 S76
G1 X28.1 Y11.6
M3 S50
G1 X28.2 Y11.6
M3 S25
G1 X28.3 Y11.6
M3 S0
G0 X31.9 Y11.6
M3 S10
G1 X31.9 Y11.6
M3 S10
G1 X32.0 Y11.6
M3 S35
G1 X32.1 Y11.6
M3 S61
G1 X32.2 Y11.6
M3 S86
G1 X32.3 Y11.6
M3 S112
G1 X32.4 Y11.6
M3 S137
G1 X32.5 Y11.6
M3 S163
G1 X32.6 Y11.6
M3 S188
G1 X32.7 Y11.6
M3 S214
G1 X32.8 Y11.6
M3 S239
G1 X32.9 Y11.6
M3 S255
G1 X36.7 Y11.6
M3 S230
G1 X36.8 Y11.6
M3 S204
G1 X36.9 Y11.6
M3 S178
G1 X37.0 Y11.6
M3 S153
G1 X37.1 Y11.6
M3 S128
G1 X37.2 Y11.6
M3 S102
G1 X37.3 Y11.6
M3 S76
G1 X37.4 Y11.6
M3 S51
G1 X37.5 Y11.6
M3 S26
G1 X37.6 Y11.6
M3 S0
G0 X41.4 Y11.6
M3 S19
G1 X41.4 Y11.6
M3 S19
G1 X41.5 Y11.6
M3 S44
G1 X41.6 Y11.6
M3 S70
G1 X41.7 Y11.6
M3 S95
G1 X41.8 Y11.6
M3 S121
G1 X41.9 Y11.6
M3 S146
G1 X42.0 Y11.6
M3 S172
G1 X42.1 Y11.6
M3 S197
G1 X42.2 Y11.6
M3 S223
G1 X42.3 Y11.6
M3 S248
G1 X42.4 Y11.6
M3 S255
G1 X46.1 Y11.6
M3 S241
G1 X46.2 Y11.6
M3 S215
G1 X46.3 Y11.6
M3 S190
G1 X46.4 Y11.6
M3 S164
G1 X46.5 Y11.6
M3 S139
G1 X46.6 Y11.6
M3 S113
G1 X46.7 Y11.6
M3 S88
G1 X46.8 Y11.6
M3 S62
G1 X46.9 Y11.6
M3 S37
G1 X47.0 Y11.6
M3 S11
G1 X47.1 Y11.6
M3 S0
M5 S0
G0 X47.1 Y11.7
M3 S1
G1 X47.1 Y11.7
M3 S1
G1 X47.0 Y11.7
M3 S26
G1 X46.9 Y11.7
M3 S52
G1 X46.8 Y11.7
M3 S77
G1 X46.7 Y11.7
M3 S103
G1 X46.6 Y11.7
M3 S128
G1 X46.5 Y11.7
M3 S154
G1 X46.4 Y11.7
M3 S179
G1 X46.3 Y11.7
M3 S205
G1 X46.2 Y11.7
M3 S230
G1 X46.1 Y11.7
M3 S255
G1 X42.3 Y11.7
M3 S230
G1 X42.2 Y11.7
M3 S204
G1 X42.1 Y11.7
M3 S178
G1 X42.0 Y11.7
M3 S153
G1 X41.9 Y11.7
M3 S128
G1 X41.8 Y11.7
M3 S102
G1 X41.7 Y11.7
M3 S76
G1 X41.6 Y11.7
M3 S51
G1 X41.5 Y11.7
M3 S26
G1 X41.4 Y11.7
M3 S0
G0 X37.6 Y11.7
M3 S24
G1 X37.6 Y11.7
M3 S24
G1 X37.5 Y11.7
M3 S49
G1 X37.4 Y11.7
M3 S75
G1 X37.3 Y11.7
M3 S100
G1 X37.2 Y11.7
M3 S126
G1 X37.1 Y11.7
M3 S151
G1 X37.0 Y11.7
M3 S177
G1 X36.9 Y11.7
M3 S202
G1 X36.8 Y11.7
M3 S228
G1 X36.7 Y11.7
M3 S253
G1 X36.6 Y11.7
M3 S255
G1 X32.9 Y11.7
M3 S252
G1 X32.8 Y11.7
M3 S227
G1 X32.7 Y11.7
M3 S201
G1 X32.6 Y11.7
M3 S176
G1 X32.5 Y11.7
M3 S150
G1 X32.4 Y11.7
M3 S125
G1 X32.3 Y11.7
M3 S99
G1 X32.2 Y11.7
M3 S74
G1 X32.1 Y11.7
M3 S48
G1 X32.0 Y11.7
M3 S23
G1 X31.9 Y11.7
M3 S0
G0 X28.3 Y11.7
M3 S14
G1 X28.3 Y11.7
M3 S14
G1 X28.2 Y11.7
M3 S39
G1 X28.1 Y11.7
M3 S65
G1 X28.0 Y11.7
M3 S90
G1 X27.9 Y11.7
M3 S116
G1 X27.8 Y11.7
M3 S141
G1 X27.7 Y11.7
M3 S167
G1 X27.6 Y11.7
M3 S192
G1 X27.5 Y11.7
M3 S218
G1 X27.4 Y11.7
M3 S243
G1 X27.3 Y11.7
M3 S255
G1 X23.6 Y11.7
M3 S251
G1 X23.5 Y11.7
M3 S226
G1 X23.4 Y11.7
M3 S200
G1 X23.3 Y11.7
M3 S175
G1 X23.2 Y11.7
M3 S149
G1 X23.1 Y11.7
M3 S124
G1 X23.0 Y11.7
M3 S98
G1 X22.9 Y11.7
M3 S73
G1 X22.8 Y11.7
M3 S47
G1 X22.7 Y11.7
M3 S22
G1 X22.6 Y11.7
M3 S0
G0 X18.8 Y11.7
M3 S23
G1 X18.8 Y11.7
M3 S23
G1 X18.7 Y11.7
M3 S49
G1 X18.6 Y11.7
M3 S74
G1 X18.5 Y11.7
M3 S100
G1 X18.4 Y11.7
M3 S125
G1 X18.3 Y11.7
M3 S151
G1 X18.2 Y11.7
M3 S176
G1 X18.1 Y11.7
M3 S202
G1 X18.0 Y11.7
M3 S227
G1 X17.9 Y11.7
M3 S253
G1 X17.8 Y11.7
M3 S255
G1 X3.8 Y11.7
M3 S230
G1 X3.7 Y11.7
M3 S205
G1 X3.6 Y11.7
M3 S179
G1 X3.5 Y11.7
M3 S154
G1 X3.4 Y11.7
M3 S128
G1 X3.3 Y11.7
M3 S103
G1 X3.2 Y11.7
M3 S77
G1 X3.1 Y11.7
M3 S52
G1 X3.0 Y11.7
M3 S26
G1 X2.9 Y11.7
M3 S1
G1 X2.8 Y11.7
M3 S0
M5 S0
G0 X2.9 Y11.8
M3 S20
G1 X2.9 Y11.8
M3 S20
G1 X3.0 Y11.8
M3 S46
G1 X3.1 Y11.8
M3 S71
G1 X3.2 Y11.8
M3 S97
G1 X3.3 Y11.8
M3 S122
G1 X3.4 Y11.8
M3 S148
G1 X3.5 Y11.8
M3 S173
G1 X3.6 Y11.8
M3 S199
G1 X3.7 Y11.8
M3 S224
G1 X3.8 Y11.8
M3 S250
G1 X3.9 Y11.8
M3 S255
G1 X17.8 Y11.8
M3 S230
G1 X17.9 Y11.8
M3 S204
G1 X18.0 Y11.8
M3 S179
G1 X18.1 Y11.8
M3 S153
G1 X18.2 Y11.8
M3 S128
G1 X18.3 Y11.8
M3 S102
G1 X18.4 Y11.8
M3 S77
G1 X18.5 Y11.8
M3 S51
G1 X18.6 Y11.8
M3 S26
G1 X18.7 Y11.8
M3 S0
G0 X22.5 Y11.8
M3 S2
G1 X22.5 Y11.8
M3 S2
G1 X22.6 Y11.8
M3 S28
G1 X22.7 Y11.8
M3 S53
G1 X22.8 Y11.8
M3 S79
G1 X22.9 Y11.8
M3 S104
G1 X23.0 Y11.8
M3 S130
G1 X23.1 Y11.8
M3 S155
G1 X23.2 Y11.8
M3 S181
G1 X23.3 Y11.8
M3 S206
G1 X23.4 Y11.8
M3 S232
G1 X23.5 Y11.8
M3 S255
G1 X27.2 Y11.8
M3 S240
G1 X27.3 Y11.8
M3 S214
G1 X27.4 Y11.8
M3 S189
G1 X27.5 Y11.8
M3 S163
G1 X27.6 Y11.8
M3 S138
G1 X27.7 Y11.8
M3 S112
G1 X27.8 Y11.8
M3 S87
G1 X27.9 Y11.8
M3 S61
G1 X28.0 Y11.8
M3 S36
G1 X28.1 Y11.8
M3 S10
G1 X28.2 Y11.8
M3 S0
G0 X31.8 Y11.8
M3 S3
G1 X31.8 Y11.8
M3 S3
G1 X31.9 Y11.8
M3 S28
G1 X32.0 Y11.8
M3 S54
G1 X32.1 Y11.8
M3 S79
G1 X32.2 Y11.8
M3 S105
G1 X32.3 Y11.8
M3 S130
G1 X32.4 Y11.8
M3 S156
G1 X32.5 Y11.8
M3 S181
G1 X32.6 Y11.8
M3 S207
G1 X32.7 Y11.8
M3 S232
G1 X32.8 Y11.8
M3 S255
G1 X36.6 Y11.8
M3 S230
G1 X36.7 Y11.8
M3 S204
G1 X36.8 Y11.8
M3 S179
G1 X36.9 Y11.8
M3 S153
G1 X37.0 Y11.8
M3 S128
G1 X37.1 Y11.8
M3 S102
G1 X37.2 Y11.8
M3 S77
G1 X37.3 Y11.8
M3 S51
G1 X37.4 Y11.8
M3 S26
G1 X37.5 Y11.8
M3 S0
G0 X41.3 Y11.8
M3 S12
G1 X41.3 Y11.8
M3 S12
G1 X41.4 Y11.8
M3 S37
G1 X41.5 Y11.8
M3 S63
G1 X41.6 Y11.8
M3 S88
G1 X41.7 Y11.8
M3 S114
G1 X41.8 Y11.8
M3 S139
G1 X41.9 Y11.8
M3 S165
G1 X42.0 Y11.8
M3 S190
G1 X42.1 Y11.8
M3 S216
G1 X42.2 Y11.8
M3 S241
G1 X42.3 Y11.8
M3 S255
G1 X46.0 Y11.8
M3 S248
G1 X46.1 Y11.8
M3 S223
G1 X46.2 Y11.8
M3 S197
G1 X46.3 Y11.8
M3 S172
G1 X46.4 Y11.8
M3 S146
G1 X46.5 Y11.8
M3 S121
G1 X46.6 Y11.8
M3 S95
G1 X46.7 Y11.8
M3 S70
G1 X46.8 Y11.8
M3 S44
G1 X46.9 Y11.8
M3 S19
G1 X47.0 Y11.8
M3 S0
M5 S0
G0 X46.9 Y11.9
M3 S15
G1 X46.9 Y11.9
M3 S15
G1 X46.8 Y11.9
M3 S41
G1 X46.7 Y11.9
M3 S66
G1 X46.6 Y11.9
M3 S92
G1 X46.5 Y11.9
M3 S117
G1 X46.4 Y11.9
M3 S143
G1 X46.3 Y11.9
M3 S168
G1 X46.2 Y11.9
M3 S194
G1 X46.1 Y11.9
M3 S219
G1 X46.0 Y11.9
M3 S245
G1 X45.9 Y11.9
M3 S255
G1 X42.2 Y11.9
M3 S245
G1 X42.1 Y11.9
M3 S219
G1 X42.0 Y11.9
M3 S194
G1 X41.9 Y11.9
M3 S168
G1 X41.8 Y11.9
M3 S143
G1 X41.7 Y11.9
M3 S117
G1 X41.6 Y11.9
M3 S92
G1 X41.5 Y11.9
M3 S66
G1 X41.4 Y11.9
M3 S41
G1 X41.3 Y11.9
M3 S15
G1 X41.2 Y11.9
M3 S0
G0 X37.5 Y11.9
M3 S18
G1 X37.5 Y11.9
M3 S18
G1 X37.4 Y11.9
M3 S43
G1 X37.3 Y11.9
M3 S69
G1 X37.2 Y11.9
M3 S94
G1 X37.1 Y11.9
M3 S120
G1 X37.0 Y11.9
M3 S145
G1 X36.9 Y11.9
M3 S171
G1 X36.8 Y11.9
M3 S196
G1 X36.7 Y11.9
M3 S222
G1 X36.6 Y11.9
M3 S247
G1 X36.5 Y11.9
M3 S255
G1 X32.7 Y11.9
M3 S235
G1 X32.6 Y11.9
M3 S209
G1 X32.5 Y11.9
M3 S184
G1 X32.4 Y11.9
M3 S158
G1 X32.3 Y11.9
M3 S133
G1 X32.2 Y11.9
M3 S107
G1 X32.1 Y11.9
M3 S82
G1 X32.0 Y11.9
M3 S56
G1 X31.9 Y11.9
M3 S31
G1 X31.8 Y11.9
M3 S6
G1 X31.7 Y11.9
M3 S0
G0 X28.1 Y11.9
M3 S26
G1 X28.1 Y11.9
M3 S26
G1 X28.0 Y11.9
M3 S51
G1 X27.9 Y11.9
M3 S76
G1 X27.8 Y11.9
M3 S102
G1 X27.7 Y11.9
M3 S128
G1 X27.6 Y11.9
M3 S153
G1 X27.5 Y11.9
M3 S178
G1 X27.4 Y11.9
M3 S204
G1 X27.3 Y11.9
M3 S230
G1 X27.2 Y11.9
M3 S255
G1 X23.4 Y11.9
M3 S233
G1 X23.3 Y11.9
M3 S208
G1 X23.2 Y11.9
M3 S182
G1 X23.1 Y11.9
M3 S157
G1 X23.0 Y11.9
M3 S131
G1 X22.9 Y11.9
M3 S106
G1 X22.8 Y11.9
M3 S80
G1 X22.7 Y11.9
M3 S55
G1 X22.6 Y11.9
M3 S29
G1 X22.5 Y11.9
M3 S4
G1 X22.4 Y11.9
M3 S0
G0 X18.7 Y11.9
M3 S19
G1 X18.7 Y11.9
M3 S19
G1 X18.6 Y11.9
M3 S44
G1 X18.5 Y11.9
M3 S70
G1 X18.4 Y11.9
M3 S95
G1 X18.3 Y11.9
M3 S121
G1 X18.2 Y11.9
M3 S146
G1 X18.1 Y11.9
M3 S172
G1 X18.0 Y11.9
M3 S197
G1 X17.9 Y11.9
M3 S223
G1 X17.8 Y11.9
M3 S248
G1 X17.7 Y11.9
M3 S255
G1 X4.0 Y11.9
M3 S246
G1 X3.9 Y11.9
M3 S221
G1 X3.8 Y11.9
M3 S195
G1 X3.7 Y11.9
M3 S170
G1 X3.6 Y11.9
M3 S144
G1 X3.5 Y11.9
M3 S119
G1 X3.4 Y11.9
M3 S93
G1 X3.3 Y11.9
M3 S68
G1 X3.2 Y11.9
M3 S42
G1 X3.1 Y11.9
M3 S17
G1 X3.0 Y11.9
M3 S0
M5 S0
G0 X3.0 Y12.0
M3 S3
G1 X3.0 Y12.0
M3 S3
G1 X3.1 Y12.0
M3 S29
G1 X3.2 Y12.0
M3 S54
G1 X3.3 Y12.0
M3 S80
G1 X3.4 Y12.0
M3 S105
G1 X3.5 Y12.0
M3 S131
G1 X3.6 Y12.0
M3 S156
G1 X3.7 Y12.0
M3 S182
G1 X3.8 Y12.0
M3 S207
G1 X3.9 Y12.0
M3 S233
G1 X4.0 Y12.0
M3 S255
G1 X15.9 Y12.0
M3 S253
G1 X16.0 Y12.0
M3 S252
G1 X16.1 Y12.0
M3 S250
G1 X16.2 Y12.0
M3 S248
G1 X16.3 Y12.0
M3 S246
G1 X16.4 Y12.0
M3 S245
G1 X16.5 Y12.0
M3 S243
G1 X16.6 Y12.0
M3 S241
G1 X16.7 Y12.0
M3 S240
G1 X16.8 Y12.0
M3 S238
G1 X17.4 Y12.0
M3 S236
G1 X17.5 Y12.0
M3 S235
G1 X17.6 Y12.0
M3 S233
G1 X17.7 Y12.0
M3 S214
G1 X17.8 Y12.0
M3 S190
G1 X17.9 Y12.0
M3 S166
G1 X18.0 Y12.0
M3 S143
G1 X18.1 Y12.0
M3 S119
G1 X18.2 Y12.0
M3 S95
G1 X18.3 Y12.0
M3 S71
G1 X18.4 Y12.0
M3 S49
G1 X18.5 Y12.0
M3 S27
G1 X18.6 Y12.0
M3 S5
G1 X18.7 Y12.0
M3 S0
G0 X22.4 Y12.0
M3 S19
G1 X22.4 Y12.0
M3 S19
G1 X22.5 Y12.0
M3 S44
G1 X22.6 Y12.0
M3 S70
G1 X22.7 Y12.0
M3 S95
G1 X22.8 Y12.0
M3 S121
G1 X22.9 Y12.0
M3 S146
G1 X23.0 Y12.0
M3 S172
G1 X23.1 Y12.0
M3 S197
G1 X23.2 Y12.0
M3 S223
G1 X23.3 Y12.0
M3 S248
G1 X23.4 Y12.0
M3 S255
G1 X27.1 Y12.0
M3 S247
G1 X27.2 Y12.0
M3 S222
G1 X27.3 Y12.0
M3 S196
G1 X27.4 Y12.0
M3 S171
G1 X27.5 Y12.0
M3 S145
G1 X27.6 Y12.0
M3 S120
G1 X27.7 Y12.0
M3 S94
G1 X27.8 Y12.0
M3 S69
G1 X27.9 Y12.0
M3 S43
G1 X28.0 Y12.0
M3 S18
G1 X28.1 Y12.0
M3 S0
G0 X31.7 Y12.0
M3 S20
G1 X31.7 Y12.0
M3 S20
G1 X31.8 Y12.0
M3 S46
G1 X31.9 Y12.0
M3 S71
G1 X32.0 Y12.0
M3 S97
G1 X32.1 Y12.0
M3 S122
G1 X32.2 Y12.0
M3 S148
G1 X32.3 Y12.0
M3 S173
G1 X32.4 Y12.0
M3 S199
G1 X32.5 Y12.0
M3 S224
G1 X32.6 Y12.0
M3 S250
G1 X32.7 Y12.0
M3 S255
G1 X36.4 Y12.0
M3 S254
G1 X36.5 Y12.0
M3 S233
G1 X36.6 Y12.0
M3 S208
G1 X36.7 Y12.0
M3 S182
G1 X36.8 Y12.0
M3 S157
G1 X36.9 Y12.0
M3 S131
G1 X37.0 Y12.0
M3 S106
G1 X37.1 Y12.0
M3 S80
G1 X37.2 Y12.0
M3 S55
G1 X37.3 Y12.0
M3 S29
G1 X37.4 Y12.0
M3 S4
G1 X37.5 Y12.0
M3 S0
G0 X41.2 Y12.0
M3 S25
G1 X41.2 Y12.0
M3 S25
G1 X41.3 Y12.0
M3 S51
G1 X41.4 Y12.0
M3 S76
G1 X41.5 Y12.0
M3 S102
G1 X41.6 Y12.0
M3 S127
G1 X41.7 Y12.0
M3 S153
G1 X41.8 Y12.0
M3 S178
G1 X41.9 Y12.0
M3 S204
G1 X42.0 Y12.0
M3 S229
G1 X42.1 Y12.0
M3 S255
G1 X45.9 Y12.0
M3 S232
G1 X46.0 Y12.0
M3 S206
G1 X46.1 Y12.0
M3 S181
G1 X46.2 Y12.0
M3 S155
G1 X46.3 Y12.0
M3 S130
G1 X46.4 Y12.0
M3 S104
G1 X46.5 Y12.0
M3 S79
G1 X46.6 Y12.0
M3 S53
G1 X46.7 Y12.0
M3 S28
G1 X46.8 Y12.0
M3 S2
G1 X46.9 Y12.0
M3 S0
M5 S0
G0 X46.8 Y12.1
M3 S22
G1 X46.8 Y12.1
M3 S22
G1 X46.7 Y12.1
M3 S48
G1 X46.6 Y12.1
M3 S73
G1 X46.5 Y12.1
M3 S99
G1 X46.4 Y12.1
M3 S124
G1 X46.3 Y12.1
M3 S150
G1 X46.2 Y12.1
M3 S175
G1 X46.1 Y12.1
M3 S201
G1 X46.0 Y12.1
M3 S226
G1 X45.9 Y12.1
M3 S252
G1 X45.8 Y12.1
M3 S255
G1 X42.1 Y12.1
M3 S237
G1 X42.0 Y12.1
M3 S212
G1 X41.9 Y12.1
M3 S186
G1 X41.8 Y12.1
M3 S161
G1 X41.7 Y12.1
M3 S135
G1 X41.6 Y12.1
M3 S110
G1 X41.5 Y12.1
M3 S84
G1 X41.4 Y12.1
M3 S59
G1 X41.3 Y12.1
M3 S33
G1 X41.2 Y12.1
M3 S8
G1 X41.1 Y12.1
M3 S0
G0 X37.4 Y12.1
M3 S2
G1 X37.4 Y12.1
M3 S2
G1 X37.3 Y12.1
M3 S27
G1 X37.2 Y12.1
M3 S53
G1 X37.1 Y12.1
M3 S78
G1 X37.0 Y12.1
M3 S104
G1 X36.9 Y12.1
M3 S129
G1 X36.8 Y12.1
M3 S155
G1 X36.7 Y12.1
M3 S180
G1 X36.6 Y12.1
M3 S206
G1 X36.5 Y12.1
M3 S231
G1 X36.4 Y12.1
M3 S255
G1 X32.6 Y12.1
M3 S230
G1 X32.5 Y12.1
M3 S205
G1 X32.4 Y12.1
M3 S179
G1 X32.3 Y12.1
M3 S154
G1 X32.2 Y12.1
M3 S128
G1 X32.1 Y12.1
M3 S103
G1 X32.0 Y12.1
M3 S77
G1 X31.9 Y12.1
M3 S52
G1 X31.8 Y12.1
M3 S26
G1 X31.7 Y12.1
M3 S1
G1 X31.6 Y12.1
M3 S0
G0 X28.0 Y12.1
M3 S26
G1 X28.0 Y12.1
M3 S26
G1 X27.9 Y12.1
M3 S51
G1 X27.8 Y12.1
M3 S76
G1 X27.7 Y12.1
M3 S102
G1 X27.6 Y12.1
M3 S128
G1 X27.5 Y12.1
M3 S153
G1 X27.4 Y12.1
M3 S178
G1 X27.3 Y12.1
M3 S204
G1 X27.2 Y12.1
M3 S230
G1 X27.1 Y12.1
M3 S255
G1 X23.3 Y12.1
M3 S230
G1 X23.2 Y12.1
M3 S204
G1 X23.1 Y12.1
M3 S179
G1 X23.0 Y12.1
M3 S153
G1 X22.9 Y12.1
M3 S128
G1 X22.8 Y12.1
M3 S102
G1 X22.7 Y12.1
M3 S77
G1 X22.6 Y12.1
M3 S51
G1 X22.5 Y12.1
M3 S26
G1 X22.4 Y12.1
M3 S0
G0 X8.8 Y12.1
M3 S20
G1 X8.8 Y12.1
M3 S20
G1 X8.7 Y12.1
M3 S46
G1 X8.6 Y12.1
M3 S71
G1 X8.5 Y12.1
M3 S97
G1 X8.4 Y12.1
M3 S122
G1 X8.3 Y12.1
M3 S148
G1 X8.2 Y12.1
M3 S173
G1 X8.1 Y12.1
M3 S199
G1 X8.0 Y12.1
M3 S224
G1 X7.9 Y12.1
M3 S250
G1 X7.8 Y12.1
M3 S255
G1 X4.1 Y12.1
M3 S252
G1 X4.0 Y12.1
M3 S227
G1 X3.9 Y12.1
M3 S201
G1 X3.8 Y12.1
M3 S176
G1 X3.7 Y12.1
M3 S150
G1 X3.6 Y12.1
M3 S125
G1 X3.5 Y12.1
M3 S99
G1 X3.4 Y12.1
M3 S74
G1 X3.3 Y12.1
M3 S48
G1 X3.2 Y12.1
M3 S23
G1 X3.1 Y12.1
M3 S0
M5 S0
G0 X3.1 Y12.2
M3 S10
G1 X3.1 Y12.2
M3 S10
G1 X3.2 Y12.2
M3 S36
G1 X3.3 Y12.2
M3 S61
G1 X3.4 Y12.2
M3 S87
G1 X3.5 Y12.2
M3 S112
G1 X3.6 Y12.2
M3 S138
G1 X3.7 Y12.2
M3 S163
G1 X3.8 Y12.2
M3 S189
G1 X3.9 Y12.2
M3 S214
G1 X4.0 Y12.2
M3 S240
G1 X4.1 Y12.2
M3 S255
G1 X7.9 Y12.2
M3 S230
G1 X8.0 Y12.2
M3 S204
G1 X8.1 Y12.2
M3 S178
G1 X8.2 Y12.2
M3 S153
G1 X8.3 Y12.2
M3 S128
G1 X8.4 Y12.2
M3 S102
G1 X8.5 Y12.2
M3 S76
G1 X8.6 Y12.2
M3 S51
G1 X8.7 Y12.2
M3 S26
G1 X8.8 Y12.2
M3 S0
G0 X22.3 Y12.2
M3 S11
G1 X22.3 Y12.2
M3 S11
G1 X22.4 Y12.2
M3 S37
G1 X22.5 Y12.2
M3 S62
G1 X22.6 Y12.2
M3 S88
G1 X22.7 Y12.2
M3 S113
G1 X22.8 Y12.2
M3 S139
G1 X22.9 Y12.2
M3 S164
G1 X23.0 Y12.2
M3 S190
G1 X23.1 Y12.2
M3 S215
G1 X23.2 Y12.2
M3 S241
G1 X23.3 Y12.2
M3 S255
G1 X27.0 Y12.2
M3 S253
G1 X27.1 Y12.2
M3 S228
G1 X27.2 Y12.2
M3 S202
G1 X27.3 Y12.2
M3 S177
G1 X27.4 Y12.2
M3 S151
G1 X27.5 Y12.2
M3 S126
G1 X27.6 Y12.2
M3 S100
G1 X27.7 Y12.2
M3 S75
G1 X27.8 Y12.2
M3 S49
G1 X27.9 Y12.2
M3 S24
G1 X28.0 Y12.2
M3 S0
G0 X31.6 Y12.2
M3 S13
G1 X31.6 Y12.2
M3 S13
G1 X31.7 Y12.2
M3 S38
G1 X31.8 Y12.2
M3 S64
G1 X31.9 Y12.2
M3 S89
G1 X32.0 Y12.2
M3 S115
G1 X32.1 Y12.2
M3 S140
G1 X32.2 Y12.2
M3 S166
G1 X32.3 Y12.2
M3 S191
G1 X32.4 Y12.2
M3 S217
G1 X32.5 Y12.2
M3 S242
G1 X32.6 Y12.2
M3 S255
G1 X36.4 Y12.2
M3 S230
G1 X36.5 Y12.2
M3 S204
G1 X36.6 Y12.2
M3 S178
G1 X36.7 Y12.2
M3 S153
G1 X36.8 Y12.2
M3 S128
G1 X36.9 Y12.2
M3 S102
G1 X37.0 Y12.2
M3 S76
G1 X37.1 Y12.2
M3 S51
G1 X37.2 Y12.2
M3 S26
G1 X37.3 Y12.2
M3 S0
G0 X41.1 Y12.2
M3 S22
G1 X41.1 Y12.2
M3 S22
G1 X41.2 Y12.2
M3 S47
G1 X41.3 Y12.2
M3 S73
G1 X41.4 Y12.2
M3 S98
G1 X41.5 Y12.2
M3 S124
G1 X41.6 Y12.2
M3 S149
G1 X41.7 Y12.2
M3 S175
G1 X41.8 Y12.2
M3 S200
G1 X41.9 Y12.2
M3 S226
G1 X42.0 Y12.2
M3 S251
G1 X42.1 Y12.2
M3 S255
G1 X45.8 Y12.2
M3 S238
G1 X45.9 Y12.2
M3 S212
G1 X46.0 Y12.2
M3 S187
G1 X46.1 Y12.2
M3 S161
G1 X46.2 Y12.2
M3 S136
G1 X46.3 Y12.2
M3 S110
G1 X46.4 Y12.2
M3 S85
G1 X46.5 Y12.2
M3 S59
G1 X46.6 Y12.2
M3 S34
G1 X46.7 Y12.2
M3 S8
G1 X46.8 Y12.2
M3 S0
M5 S0
G0 X46.7 Y12.3
M3 S5
G1 X46.7 Y12.3
M3 S5
G1 X46.6 Y12.3
M3 S31
G1 X46.5 Y12.3
M3 S56
G1 X46.4 Y12.3
M3 S82
G1 X46.3 Y12.3
M3 S107
G1 X46.2 Y12.3
M3 S133
G1 X46.1 Y12.3
M3 S158
G1 X46.0 Y12.3
M3 S184
G1 X45.9 Y12.3
M3 S209
G1 X45.8 Y12.3
M3 S235
G1 X45.7 Y12.3
M3 S255
G1 X42.0 Y12.3
M3 S231
G1 X41.9 Y12.3
M3 S206
G1 X41.8 Y12.3
M3 S180
G1 X41.7 Y12.3
M3 S155
G1 X41.6 Y12.3
M3 S129
G1 X41.5 Y12.3
M3 S104
G1 X41.4 Y12.3
M3 S78
G1 X41.3 Y12.3
M3 S53
G1 X41.2 Y12.3
M3 S27
G1 X41.1 Y12.3
M3 S2
G1 X41.0 Y12.3
M3 S0
G0 X37.3 Y12.3
M3 S8
G1 X37.3 Y12.3
M3 S8
G1 X37.2 Y12.3
M3 S33
G1 X37.1 Y12.3
M3 S59
G1 X37.0 Y12.3
M3 S84
G1 X36.9 Y12.3
M3 S110
G1 X36.8 Y12.3
M3 S135
G1 X36.7 Y12.3
M3 S161
G1 X36.6 Y12.3
M3 S186
G1 X36.5 Y12.3
M3 S212
G1 X36.4 Y12.3
M3 S237
G1 X36.3 Y12.3
M3 S255
G1 X32.5 Y12.3
M3 S230
G1 X32.4 Y12.3
M3 S204
G1 X32.3 Y12.3
M3 S178
G1 X32.2 Y12.3
M3 S153
G1 X32.1 Y12.3
M3 S128
G1 X32.0 Y12.3
M3 S102
G1 X31.9 Y12.3
M3 S76
G1 X31.8 Y12.3
M3 S51
G1 X31.7 Y12.3
M3 S26
G1 X31.6 Y12.3
M3 S0
G0 X27.9 Y12.3
M3 S22
G1 X27.9 Y12.3
M3 S22
G1 X27.8 Y12.3
M3 S47
G1 X27.7 Y12.3
M3 S73
G1 X27.6 Y12.3
M3 S98
G1 X27.5 Y12.3
M3 S124
G1 X27.4 Y12.3
M3 S149
G1 X27.3 Y12.3
M3 S175
G1 X27.2 Y12.3
M3 S200
G1 X27.1 Y12.3
M3 S226
G1 X27.0 Y12.3
M3 S251
G1 X26.9 Y12.3
M3 S255
G1 X23.2 Y12.3
M3 S244
G1 X23.1 Y12.3
M3 S218
G1 X23.0 Y12.3
M3 S193
G1 X22.9 Y12.3
M3 S167
G1 X22.8 Y12.3
M3 S142
G1 X22.7 Y12.3
M3 S116
G1 X22.6 Y12.3
M3 S91
G1 X22.5 Y12.3
M3 S65
G1 X22.4 Y12.3
M3 S40
G1 X22.3 Y12.3
M3 S14
G1 X22.2 Y12.3
M3 S0
G0 X8.9 Y12.3
M3 S13
G1 X8.9 Y12.3
M3 S13
G1 X8.8 Y12.3
M3 S38
G1 X8.7 Y12.3
M3 S64
G1 X8.6 Y12.3
M3 S89
G1 X8.5 Y12.3
M3 S115
G1 X8.4 Y12.3
M3 S140
G1 X8.3 Y12.3
M3 S166
G1 X8.2 Y12.3
M3 S191
G1 X8.1 Y12.3
M3 S217
G1 X8.0 Y12.3
M3 S242
G1 X7.9 Y12.3
M3 S255
G1 X4.1 Y12.3
M3 S230
G1 X4.0 Y12.3
M3 S204
G1 X3.9 Y12.3
M3 S178
G1 X3.8 Y12.3
M3 S153
G1 X3.7 Y12.3
M3 S128
G1 X3.6 Y12.3
M3 S102
G1 X3.5 Y12.3
M3 S76
G1 X3.4 Y12.3
M3 S51
G1 X3.3 Y12.3
M3 S26
G1 X3.2 Y12.3
M3 S0
M5 S0
G0 X3.2 Y12.4
M3 S4
G1 X3.2 Y12.4
M3 S4
G1 X3.3 Y12.4
M3 S28
G1 X3.4 Y12.4
M3 S54
G1 X3.5 Y12.4
M3 S79
G1 X3.6 Y12.4
M3 S105
G1 X3.7 Y12.4
M3 S130
G1 X3.8 Y12.4
M3 S156
G1 X3.9 Y12.4
M3 S181
G1 X4.0 Y12.4
M3 S207
G1 X4.1 Y12.4
M3 S232
G1 X4.2 Y12.4
M3 S254
G1 X4.3 Y12.4
M3 S255
G1 X8.0 Y12.4
M3 S245
G1 X8.1 Y12.4
M3 S220
G1 X8.2 Y12.4
M3 S194
G1 X8.3 Y12.4
M3 S169
G1 X8.4 Y12.4
M3 S143
G1 X8.5 Y12.4
M3 S118
G1 X8.6 Y12.4
M3 S92
G1 X8.7 Y12.4
M3 S67
G1 X8.8 Y12.4
M3 S41
G1 X8.9 Y12.4
M3 S16
G1 X9.0 Y12.4
M3 S0
G0 X22.2 Y12.4
M3 S26
G1 X22.2 Y12.4
M3 S26
G1 X22.3 Y12.4
M3 S51
G1 X22.4 Y12.4
M3 S76
G1 X22.5 Y12.4
M3 S102
G1 X22.6 Y12.4
M3 S128
G1 X22.7 Y12.4
M3 S153
G1 X22.8 Y12.4
M3 S178
G1 X22.9 Y12.4
M3 S204
G1 X23.0 Y12.4
M3 S230
G1 X23.1 Y12.4
M3 S255
G1 X26.9 Y12.4
M3 S230
G1 X27.0 Y12.4
M3 S204
G1 X27.1 Y12.4
M3 S178
G1 X27.2 Y12.4
M3 S153
G1 X27.3 Y12.4
M3 S128
G1 X27.4 Y12.4
M3 S102
G1 X27.5 Y12.4
M3 S76
G1 X27.6 Y12.4
M3 S51
G1 X27.7 Y12.4
M3 S26
G1 X27.8 Y12.4
M3 S0
G0 X31.5 Y12.4
M3 S19
G1 X31.5 Y12.4
M3 S19
G1 X31.6 Y12.4
M3 S44
G1 X31.7 Y12.4
M3 S70
G1 X31.8 Y12.4
M3 S95
G1 X31.9 Y12.4
M3 S121
G1 X32.0 Y12.4
M3 S146
G1 X32.1 Y12.4
M3 S172
G1 X32.2 Y12.4
M3 S197
G1 X32.3 Y12.4
M3 S223
G1 X32.4 Y12.4
M3 S248
G1 X32.5 Y12.4
M3 S255
G1 X36.2 Y12.4
M3 S234
G1 X36.3 Y12.4
M3 S208
G1 X36.4 Y12.4
M3 S183
G1 X36.5 Y12.4
M3 S157
G1 X36.6 Y12.4
M3 S132
G1 X36.7 Y12.4
M3 S106
G1 X36.8 Y12.4
M3 S81
G1 X36.9 Y12.4
M3 S55
G1 X37.0 Y12.4
M3 S30
G1 X37.1 Y12.4
M3 S4
G1 X37.2 Y12.4
M3 S0
G0 X40.9 Y12.4
M3 S4
G1 X40.9 Y12.4
M3 S4
G1 X41.0 Y12.4
M3 S29
G1 X41.1 Y12.4
M3 S55
G1 X41.2 Y12.4
M3 S80
G1 X41.3 Y12.4
M3 S106
G1 X41.4 Y12.4
M3 S131
G1 X41.5 Y12.4
M3 S157
G1 X41.6 Y12.4
M3 S182
G1 X41.7 Y12.4
M3 S208
G1 X41.8 Y12.4
M3 S233
G1 X41.9 Y12.4
M3 S255
G1 X45.6 Y12.4
M3 S254
G1 X45.7 Y12.4
M3 S228
G1 X45.8 Y12.4
M3 S203
G1 X45.9 Y12.4
M3 S177
G1 X46.0 Y12.4
M3 S152
G1 X46.1 Y12.4
M3 S126
G1 X46.2 Y12.4
M3 S101
G1 X46.3 Y12.4
M3 S75
G1 X46.4 Y12.4
M3 S50
G1 X46.5 Y12.4
M3 S24
G1 X46.6 Y12.4
M3 S0
M5 S0
G0 X46.6 Y12.5
M3 S13
G1 X46.6 Y12.5
M3 S13
G1 X46.5 Y12.5
M3 S38
G1 X46.4 Y12.5
M3 S64
G1 X46.3 Y12.5
M3 S89
G1 X46.2 Y12.5
M3 S115
G1 X46.1 Y12.5
M3 S140
G1 X46.0 Y12.5
M3 S166
G1 X45.9 Y12.5
M3 S191
G1 X45.8 Y12.5
M3 S217
G1 X45.7 Y12.5
M3 S242
G1 X45.6 Y12.5
M3 S255
G1 X41.9 Y12.5
M3 S248
G1 X41.8 Y12.5
M3 S222
G1 X41.7 Y12.5
M3 S197
G1 X41.6 Y12.5
M3 S171
G1 X41.5 Y12.5
M3 S146
G1 X41.4 Y12.5
M3 S120
G1 X41.3 Y12.5
M3 S95
G1 X41.2 Y12.5
M3 S69
G1 X41.1 Y12.5
M3 S44
G1 X41.0 Y12.5
M3 S18
G1 X40.9 Y12.5
M3 S0
G0 X37.1 Y12.5
M3 S26
G1 X37.1 Y12.5
M3 S26
G1 X37.0 Y12.5
M3 S51
G1 X36.9 Y12.5
M3 S76
G1 X36.8 Y12.5
M3 S102
G1 X36.7 Y12.5
M3 S128
G1 X36.6 Y12.5
M3 S153
G1 X36.5 Y12.5
M3 S178
G1 X36.4 Y12.5
M3 S204
G1 X36.3 Y12.5
M3 S230
G1 X36.2 Y12.5
M3 S255
G1 X32.4 Y12.5
M3 S238
G1 X32.3 Y12.5
M3 S212
G1 X32.2 Y12.5
M3 S187
G1 X32.1 Y12.5
M3 S161
G1 X32.0 Y12.5
M3 S136
G1 X31.9 Y12.5
M3 S110
G1 X31.8 Y12.5
M3 S85
G1 X31.7 Y12.5
M3 S59
G1 X31.6 Y12.5
M3 S34
G1 X31.5 Y12.5
M3 S8
G1 X31.4 Y12.5
M3 S0
G0 X27.8 Y12.5
M3 S25
G1 X27.8 Y12.5
M3 S25
G1 X27.7 Y12.5
M3 S51
G1 X27.6 Y12.5
M3 S76
G1 X27.5 Y12.5
M3 S102
G1 X27.4 Y12.5
M3 S127
G1 X27.3 Y12.5
M3 S153
G1 X27.2 Y12.5
M3 S178
G1 X27.1 Y12.5
M3 S204
G1 X27.0 Y12.5
M3 S229
G1 X26.9 Y12.5
M3 S255
G1 X23.1 Y12.5
M3 S236
G1 X23.0 Y12.5
M3 S211
G1 X22.9 Y12.5
M3 S185
G1 X22.8 Y12.5
M3 S160
G1 X22.7 Y12.5
M3 S134
G1 X22.6 Y12.5
M3 S109
G1 X22.5 Y12.5
M3 S83
G1 X22.4 Y12.5
M3 S58
G1 X22.3 Y12.5
M3 S32
G1 X22.2 Y12.5
M3 S7
G1 X22.1 Y12.5
M3 S0
G0 X9.0 Y12.5
M3 S25
G1 X9.0 Y12.5
M3 S25
G1 X8.9 Y12.5
M3 S51
G1 X8.8 Y12.5
M3 S76
G1 X8.7 Y12.5
M3 S102
G1 X8.6 Y12.5
M3 S127
G1 X8.5 Y12.5
M3 S153
G1 X8.4 Y12.5
M3 S178
G1 X8.3 Y12.5
M3 S204
G1 X8.2 Y12.5
M3 S229
G1 X8.1 Y12.5
M3 S255
G1 X4.3 Y12.5
M3 S243
G1 X4.2 Y12.5
M3 S218
G1 X4.1 Y12.5
M3 S192
G1 X4.0 Y12.5
M3 S167
G1 X3.9 Y12.5
M3 S141
G1 X3.8 Y12.5
M3 S116
G1 X3.7 Y12.5
M3 S90
G1 X3.6 Y12.5
M3 S65
G1 X3.5 Y12.5
M3 S39
G1 X3.4 Y12.5
M3 S14
G1 X3.3 Y12.5
M3 S0
M5 S0
G0 X3.4 Y12.6
M3 S26
G1 X3.4 Y12.6
M3 S26
G1 X3.5 Y12.6
M3 S51
G1 X3.6 Y12.6
M3 S76
G1 X3.7 Y12.6
M3 S102
G1 X3.8 Y12.6
M3 S128
G1 X3.9 Y12.6
M3 S153
G1 X4.0 Y12.6
M3 S178
G1 X4.1 Y12.6
M3 S204
G1 X4.2 Y12.6
M3 S230
G1 X4.3 Y12.6
M3 S255
G1 X8.1 Y12.6
M3 S237
G1 X8.2 Y12.6
M3 S212
G1 X8.3 Y12.6
M3 S186
G1 X8.4 Y12.6
M3 S161
G1 X8.5 Y12.6
M3 S135
G1 X8.6 Y12.6
M3 S110
G1 X8.7 Y12.6
M3 S84
G1 X8.8 Y12.6
M3 S59
G1 X8.9 Y12.6
M3 S33
G1 X9.0 Y12.6
M3 S8
G1 X9.1 Y12.6
M3 S0
G0 X22.1 Y12.6
M3 S26
G1 X22.1 Y12.6
M3 S26
G1 X22.2 Y12.6
M3 S51
G1 X22.3 Y12.6
M3 S76
G1 X22.4 Y12.6
M3 S102
G1 X22.5 Y12.6
M3 S128
G1 X22.6 Y12.6
M3 S153
G1 X22.7 Y12.6
M3 S178
G1 X22.8 Y12.6
M3 S204
G1 X22.9 Y12.6
M3 S230
G1 X23.0 Y12.6
M3 S255
G1 X26.7 Y12.6
M3 S253
G1 X26.8 Y12.6
M3 S230
G1 X26.9 Y12.6
M3 S204
G1 X27.0 Y12.6
M3 S179
G1 X27.1 Y12.6
M3 S153
G1 X27.2 Y12.6
M3 S128
G1 X27.3 Y12.6
M3 S102
G1 X27.4 Y12.6
M3 S77
G1 X27.5 Y12.6
M3 S51
G1 X27.6 Y12.6
M3 S26
G1 X27.7 Y12.6
M3 S2
G1 X27.8 Y12.6
M3 S0
G0 X31.4 Y12.6
M3 S26
G1 X31.4 Y12.6
M3 S26
G1 X31.5 Y12.6
M3 S51
G1 X31.6 Y12.6
M3 S76
G1 X31.7 Y12.6
M3 S102
G1 X31.8 Y12.6
M3 S128
G1 X31.9 Y12.6
M3 S153
G1 X32.0 Y12.6
M3 S178
G1 X32.1 Y12.6
M3 S204
G1 X32.2 Y12.6
M3 S230
G1 X32.3 Y12.6
M3 S255
G1 X36.1 Y12.6
M3 S241
G1 X36.2 Y12.6
M3 S216
G1 X36.3 Y12.6
M3 S190
G1 X36.4 Y12.6
M3 S165
G1 X36.5 Y12.6
M3 S139
G1 X36.6 Y12.6
M3 S114
G1 X36.7 Y12.6
M3 S88
G1 X36.8 Y12.6
M3 S63
G1 X36.9 Y12.6
M3 S37
G1 X37.0 Y12.6
M3 S12
G1 X37.1 Y12.6
M3 S0
G0 X40.9 Y12.6
M3 S26
G1 X40.9 Y12.6
M3 S26
G1 X41.0 Y12.6
M3 S51
G1 X41.1 Y12.6
M3 S77
G1 X41.2 Y12.6
M3 S102
G1 X41.3 Y12.6
M3 S128
G1 X41.4 Y12.6
M3 S153
G1 X41.5 Y12.6
M3 S179
G1 X41.6 Y12.6
M3 S204
G1 X41.7 Y12.6
M3 S230
G1 X41.8 Y12.6
M3 S255
G1 X45.6 Y12.6
M3 S230
G1 X45.7 Y12.6
M3 S204
G1 X45.8 Y12.6
M3 S178
G1 X45.9 Y12.6
M3 S153
G1 X46.0 Y12.6
M3 S128
G1 X46.1 Y12.6
M3 S102
G1 X46.2 Y12.6
M3 S76
G1 X46.3 Y12.6
M3 S51
G1 X46.4 Y12.6
M3 S26
G1 X46.5 Y12.6
M3 S0
M5 S0
G0 X46.5 Y12.7
M3 S20
G1 X46.5 Y12.7
M3 S20
G1 X46.4 Y12.7
M3 S46
G1 X46.3 Y12.7
M3 S71
G1 X46.2 Y12.7
M3 S97
G1 X46.1 Y12.7
M3 S122
G1 X46.0 Y12.7
M3 S148
G1 X45.9 Y12.7
M3 S173
G1 X45.8 Y12.7
M3 S199
G1 X45.7 Y12.7
M3 S224
G1 X45.6 Y12.7
M3 S250
G1 X45.5 Y12.7
M3 S255
G1 X41.8 Y12.7
M3 S241
G1 X41.7 Y12.7
M3 S215
G1 X41.6 Y12.7
M3 S190
G1 X41.5 Y12.7
M3 S164
G1 X41.4 Y12.7
M3 S139
G1 X41.3 Y12.7
M3 S113
G1 X41.2 Y12.7
M3 S88
G1 X41.1 Y12.7
M3 S62
G1 X41.0 Y12.7
M3 S37
G1 X40.9 Y12.7
M3 S11
G1 X40.8 Y12.7
M3 S0
G0 X37.1 Y12.7
M3 S1
G1 X37.1 Y12.7
M3 S1
G1 X37.0 Y12.7
M3 S26
G1 X36.9 Y12.7
M3 S52
G1 X36.8 Y12.7
M3 S77
G1 X36.7 Y12.7
M3 S103
G1 X36.6 Y12.7
M3 S128
G1 X36.5 Y12.7
M3 S154
G1 X36.4 Y12.7
M3 S179
G1 X36.3 Y12.7
M3 S205
G1 X36.2 Y12.7
M3 S230
G1 X36.1 Y12.7
M3 S255
G1 X32.3 Y12.7
M3 S232
G1 X32.2 Y12.7
M3 S206
G1 X32.1 Y12.7
M3 S181
G1 X32.0 Y12.7
M3 S155
G1 X31.9 Y12.7
M3 S130
G1 X31.8 Y12.7
M3 S104
G1 X31.7 Y12.7
M3 S79
G1 X31.6 Y12.7
M3 S53
G1 X31.5 Y12.7
M3 S28
G1 X31.4 Y12.7
M3 S2
G1 X31.3 Y12.7
M3 S0
G0 X27.7 Y12.7
M3 S11
G1 X27.7 Y12.7
M3 S11
G1 X27.6 Y12.7
M3 S37
G1 X27.5 Y12.7
M3 S62
G1 X27.4 Y12.7
M3 S88
G1 X27.3 Y12.7
M3 S113
G1 X27.2 Y12.7
M3 S139
G1 X27.1 Y12.7
M3 S164
G1 X27.0 Y12.7
M3 S190
G1 X26.9 Y12.7
M3 S215
G1 X26.8 Y12.7
M3 S241
G1 X26.7 Y12.7
M3 S255
G1 X23.0 Y12.7
M3 S231
G1 X22.9 Y12.7
M3 S205
G1 X22.8 Y12.7
M3 S180
G1 X22.7 Y12.7
M3 S154
G1 X22.6 Y12.7
M3 S129
G1 X22.5 Y12.7
M3 S103
G1 X22.4 Y12.7
M3 S78
G1 X22.3 Y12.7
M3 S52
G1 X22.2 Y12.7
M3 S27
G1 X22.1 Y12.7
M3 S1
G1 X22.0 Y12.7
M3 S0
G0 X9.2 Y12.7
M3 S1
G1 X9.2 Y12.7
M3 S1
G1 X9.1 Y12.7
M3 S23
G1 X9.0 Y12.7
M3 S48
G1 X8.9 Y12.7
M3 S74
G1 X8.8 Y12.7
M3 S99
G1 X8.7 Y12.7
M3 S125
G1 X8.6 Y12.7
M3 S150
G1 X8.5 Y12.7
M3 S176
G1 X8.4 Y12.7
M3 S201
G1 X8.3 Y12.7
M3 S227
G1 X8.2 Y12.7
M3 S252
G1 X8.1 Y12.7
M3 S255
G1 X4.4 Y12.7
M3 S251
G1 X4.3 Y12.7
M3 S225
G1 X4.2 Y12.7
M3 S200
G1 X4.1 Y12.7
M3 S174
G1 X4.0 Y12.7
M3 S149
G1 X3.9 Y12.7
M3 S123
G1 X3.8 Y12.7
M3 S98
G1 X3.7 Y12.7
M3 S72
G1 X3.6 Y12.7
M3 S47
G1 X3.5 Y12.7
M3 S21
G1 X3.4 Y12.7
M3 S0
M5 S0
G0 X3.5 Y12.8
M3 S18
G1 X3.5 Y12.8
M3 S18
G1 X3.6 Y12.8
M3 S44
G1 X3.7 Y12.8
M3 S69
G1 X3.8 Y12.8
M3 S95
G1 X3.9 Y12.8
M3 S120
G1 X4.0 Y12.8
M3 S146
G1 X4.1 Y12.8
M3 S171
G1 X4.2 Y12.8
M3 S197
G1 X4.3 Y12.8
M3 S222
G1 X4.4 Y12.8
M3 S248
G1 X4.5 Y12.8
M3 S255
G1 X8.2 Y12.8
M3 S253
G1 X8.3 Y12.8
M3 S228
G1 X8.4 Y12.8
M3 S202
G1 X8.5 Y12.8
M3 S177
G1 X8.6 Y12.8
M3 S151
G1 X8.7 Y12.8
M3 S126
G1 X8.8 Y12.8
M3 S100
G1 X8.9 Y12.8
M3 S75
G1 X9.0 Y12.8
M3 S49
G1 X9.1 Y12.8
M3 S24
G1 X9.2 Y12.8
M3 S0
G0 X21.9 Y12.8
M3 S3
G1 X21.9 Y12.8
M3 S3
G1 X22.0 Y12.8
M3 S28
G1 X22.1 Y12.8
M3 S54
G1 X22.2 Y12.8
M3 S79
G1 X22.3 Y12.8
M3 S105
G1 X22.4 Y12.8
M3 S130
G1 X22.5 Y12.8
M3 S156
G1 X22.6 Y12.8
M3 S181
G1 X22.7 Y12.8
M3 S207
G1 X22.8 Y12.8
M3 S232
G1 X22.9 Y12.8
M3 S254
G1 X23.0 Y12.8
M3 S255
G1 X26.7 Y12.8
M3 S230
G1 X26.8 Y12.8
M3 S204
G1 X26.9 Y12.8
M3 S178
G1 X27.0 Y12.8
M3 S153
G1 X27.1 Y12.8
M3 S128
G1 X27.2 Y12.8
M3 S102
G1 X27.3 Y12.8
M3 S76
G1 X27.4 Y12.8
M3 S51
G1 X27.5 Y12.8
M3 S26
G1 X27.6 Y12.8
M3 S0
G0 X31.2 Y12.8
M3 S4
G1 X31.2 Y12.8
M3 S4
G1 X31.3 Y12.8
M3 S29
G1 X31.4 Y12.8
M3 S55
G1 X31.5 Y12.8
M3 S80
G1 X31.6 Y12.8
M3 S106
G1 X31.7 Y12.8
M3 S131
G1 X31.8 Y12.8
M3 S157
G1 X31.9 Y12.8
M3 S182
G1 X32.0 Y12.8
M3 S208
G1 X32.1 Y12.8
M3 S233
G1 X32.2 Y12.8
M3 S255
G1 X36.0 Y12.8
M3 S249
G1 X36.1 Y12.8
M3 S223
G1 X36.2 Y12.8
M3 S198
G1 X36.3 Y12.8
M3 S172
G1 X36.4 Y12.8
M3 S147
G1 X36.5 Y12.8
M3 S121
G1 X36.6 Y12.8
M3 S96
G1 X36.7 Y12.8
M3 S70
G1 X36.8 Y12.8
M3 S45
G1 X36.9 Y12.8
M3 S19
G1 X37.0 Y12.8
M3 S0
G0 X40.7 Y12.8
M3 S15
G1 X40.7 Y12.8
M3 S15
G1 X40.8 Y12.8
M3 S40
G1 X40.9 Y12.8
M3 S66
G1 X41.0 Y12.8
M3 S91
G1 X41.1 Y12.8
M3 S117
G1 X41.2 Y12.8
M3 S142
G1 X41.3 Y12.8
M3 S168
G1 X41.4 Y12.8
M3 S193
G1 X41.5 Y12.8
M3 S219
G1 X41.6 Y12.8
M3 S244
G1 X41.7 Y12.8
M3 S255
G1 X45.4 Y12.8
M3 S246
G1 X45.5 Y12.8
M3 S220
G1 X45.6 Y12.8
M3 S195
G1 X45.7 Y12.8
M3 S169
G1 X45.8 Y12.8
M3 S144
G1 X45.9 Y12.8
M3 S118
G1 X46.0 Y12.8
M3 S93
G1 X46.1 Y12.8
M3 S67
G1 X46.2 Y12.8
M3 S42
G1 X46.3 Y12.8
M3 S16
G1 X46.4 Y12.8
M3 S0
M5 S0
G0 X46.3 Y12.9
M3 S26
G1 X46.3 Y12.9
M3 S26
G1 X46.2 Y12.9
M3 S51
G1 X46.1 Y12.9
M3 S76
G1 X46.0 Y12.9
M3 S102
G1 X45.9 Y12.9
M3 S128
G1 X45.8 Y12.9
M3 S153
G1 X45.7 Y12.9
M3 S178
G1 X45.6 Y12.9
M3 S204
G1 X45.5 Y12.9
M3 S230
G1 X45.4 Y12.9
M3 S255
G1 X41.6 Y12.9
M3 S230
G1 X41.5 Y12.9
M3 S204
G1 X41.4 Y12.9
M3 S178
G1 X41.3 Y12.9
M3 S153
G1 X41.2 Y12.9
M3 S128
G1 X41.1 Y12.9
M3 S102
G1 X41.0 Y12.9
M3 S76
G1 X40.9 Y12.9
M3 S51
G1 X40.8 Y12.9
M3 S26
G1 X40.7 Y12.9
M3 S0
G0 X36.9 Y12.9
M3 S16
G1 X36.9 Y12.9
M3 S16
G1 X36.8 Y12.9
M3 S41
G1 X36.7 Y12.9
M3 S67
G1 X36.6 Y12.9
M3 S92
G1 X36.5 Y12.9
M3 S118
G1 X36.4 Y12.9
M3 S143
G1 X36.3 Y12.9
M3 S169
G1 X36.2 Y12.9
M3 S194
G1 X36.1 Y12.9
M3 S220
G1 X36.0 Y12.9
M3 S245
G1 X35.9 Y12.9
M3 S255
G1 X32.1 Y12.9
M3 S230
G1 X32.0 Y12.9
M3 S204
G1 X31.9 Y12.9
M3 S178
G1 X31.8 Y12.9
M3 S153
G1 X31.7 Y12.9
M3 S128
G1 X31.6 Y12.9
M3 S102
G1 X31.5 Y12.9
M3 S76
G1 X31.4 Y12.9
M3 S51
G1 X31.3 Y12.9
M3 S26
G1 X31.2 Y12.9
M3 S0
G0 X27.6 Y12.9
M3 S5
G1 X27.6 Y12.9
M3 S5
G1 X27.5 Y12.9
M3 S31
G1 X27.4 Y12.9
M3 S56
G1 X27.3 Y12.9
M3 S82
G1 X27.2 Y12.9
M3 S107
G1 X27.1 Y12.9
M3 S133
G1 X27.0 Y12.9
M3 S158
G1 X26.9 Y12.9
M3 S184
G1 X26.8 Y12.9
M3 S209
G1 X26.7 Y12.9
M3 S235
G1 X26.6 Y12.9
M3 S255
G1 X22.8 Y12.9
M3 S229
G1 X22.7 Y12.9
M3 S204
G1 X22.6 Y12.9
M3 S178
G1 X22.5 Y12.9
M3 S153
G1 X22.4 Y12.9
M3 S127
G1 X22.3 Y12.9
M3 S102
G1 X22.2 Y12.9
M3 S76
G1 X22.1 Y12.9
M3 S51
G1 X22.0 Y12.9
M3 S25
G1 X21.9 Y12.9
M3 S0
G0 X9.3 Y12.9
M3 S4
G1 X9.3 Y12.9
M3 S4
G1 X9.2 Y12.9
M3 S30
G1 X9.1 Y12.9
M3 S55
G1 X9.0 Y12.9
M3 S81
G1 X8.9 Y12.9
M3 S106
G1 X8.8 Y12.9
M3 S132
G1 X8.7 Y12.9
M3 S157
G1 X8.6 Y12.9
M3 S183
G1 X8.5 Y12.9
M3 S208
G1 X8.4 Y12.9
M3 S234
G1 X8.3 Y12.9
M3 S255
G1 X4.5 Y12.9
M3 S230
G1 X4.4 Y12.9
M3 S204
G1 X4.3 Y12.9
M3 S178
G1 X4.2 Y12.9
M3 S153
G1 X4.1 Y12.9
M3 S128
G1 X4.0 Y12.9
M3 S102
G1 X3.9 Y12.9
M3 S76
G1 X3.8 Y12.9
M3 S51
G1 X3.7 Y12.9
M3 S26
G1 X3.6 Y12.9
M3 S0
M5 S0
G0 X3.6 Y13.0
M3 S24
G1 X3.6 Y13.0
M3 S24
G1 X3.7 Y13.0
M3 S49
G1 X3.8 Y13.0
M3 S75
G1 X3.9 Y13.0
M3 S100
G1 X4.0 Y13.0
M3 S126
G1 X4.1 Y13.0
M3 S151
G1 X4.2 Y13.0
M3 S177
G1 X4.3 Y13.0
M3 S202
G1 X4.4 Y13.0
M3 S228
G1 X4.5 Y13.0
M3 S253
G1 X4.6 Y13.0
M3 S255
G1 X8.3 Y13.0
M3 S247
G1 X8.4 Y13.0
M3 S222
G1 X8.5 Y13.0
M3 S196
G1 X8.6 Y13.0
M3 S171
G1 X8.7 Y13.0
M3 S145
G1 X8.8 Y13.0
M3 S120
G1 X8.9 Y13.0
M3 S94
G1 X9.0 Y13.0
M3 S69
G1 X9.1 Y13.0
M3 S43
G1 X9.2 Y13.0
M3 S18
G1 X9.3 Y13.0
M3 S0
G0 X21.9 Y13.0
M3 S26
G1 X21.9 Y13.0
M3 S26
G1 X22.0 Y13.0
M3 S51
G1 X22.1 Y13.0
M3 S77
G1 X22.2 Y13.0
M3 S102
G1 X22.3 Y13.0
M3 S128
G1 X22.4 Y13.0
M3 S153
G1 X22.5 Y13.0
M3 S179
G1 X22.6 Y13.0
M3 S204
G1 X22.7 Y13.0
M3 S230
G1 X22.8 Y13.0
M3 S255
G1 X26.6 Y13.0
M3 S230
G1 X26.7 Y13.0
M3 S204
G1 X26.8 Y13.0
M3 S178
G1 X26.9 Y13.0
M3 S153
G1 X27.0 Y13.0
M3 S128
G1 X27.1 Y13.0
M3 S102
G1 X27.2 Y13.0
M3 S76
G1 X27.3 Y13.0
M3 S51
G1 X27.4 Y13.0
M3 S26
G1 X27.5 Y13.0
M3 S0
G0 X31.2 Y13.0
M3 S26
G1 X31.2 Y13.0
M3 S26
G1 X31.3 Y13.0
M3 S51
G1 X31.4 Y13.0
M3 S77
G1 X31.5 Y13.0
M3 S102
G1 X31.6 Y13.0
M3 S128
G1 X31.7 Y13.0
M3 S153
G1 X31.8 Y13.0
M3 S179
G1 X31.9 Y13.0
M3 S204
G1 X32.0 Y13.0
M3 S230
G1 X32.1 Y13.0
M3 S255
G1 X35.9 Y13.0
M3 S232
G1 X36.0 Y13.0
M3 S206
G1 X36.1 Y13.0
M3 S181
G1 X36.2 Y13.0
M3 S155
G1 X36.3 Y13.0
M3 S130
G1 X36.4 Y13.0
M3 S104
G1 X36.5 Y13.0
M3 S79
G1 X36.6 Y13.0
M3 S53
G1 X36.7 Y13.0
M3 S28
G1 X36.8 Y13.0
M3 S2
G1 X36.9 Y13.0
M3 S0
G0 X40.6 Y13.0
M3 S7
G1 X40.6 Y13.0
M3 S7
G1 X40.7 Y13.0
M3 S32
G1 X40.8 Y13.0
M3 S58
G1 X40.9 Y13.0
M3 S83
G1 X41.0 Y13.0
M3 S109
G1 X41.1 Y13.0
M3 S134
G1 X41.2 Y13.0
M3 S160
G1 X41.3 Y13.0
M3 S185
G1 X41.4 Y13.0
M3 S211
G1 X41.5 Y13.0
M3 S236
G1 X41.6 Y13.0
M3 S255
G1 X45.3 Y13.0
M3 S253
G1 X45.4 Y13.0
M3 S227
G1 X45.5 Y13.0
M3 S202
G1 X45.6 Y13.0
M3 S176
G1 X45.7 Y13.0
M3 S151
G1 X45.8 Y13.0
M3 S125
G1 X45.9 Y13.0
M3 S100
G1 X46.0 Y13.0
M3 S74
G1 X46.1 Y13.0
M3 S49
G1 X46.2 Y13.0
M3 S23
G1 X46.3 Y13.0
M3 S0
M5 S0
G0 X46.2 Y13.1
M3 S21
G1 X46.2 Y13.1
M3 S21
G1 X46.1 Y13.1
M3 S46
G1 X46.0 Y13.1
M3 S72
G1 X45.9 Y13.1
M3 S97
G1 X45.8 Y13.1
M3 S123
G1 X45.7 Y13.1
M3 S148
G1 X45.6 Y13.1
M3 S174
G1 X45.5 Y13.1
M3 S199
G1 X45.4 Y13.1
M3 S225
G1 X45.3 Y13.1
M3 S250
G1 X45.2 Y13.1
M3 S255
G1 X41.5 Y13.1
M3 S230
G1 X41.4 Y13.1
M3 S204
G1 X41.3 Y13.1
M3 S178
G1 X41.2 Y13.1
M3 S153
G1 X41.1 Y13.1
M3 S128
G1 X41.0 Y13.1
M3 S102
G1 X40.9 Y13.1
M3 S76
G1 X40.8 Y13.1
M3 S51
G1 X40.7 Y13.1
M3 S26
G1 X40.6 Y13.1
M3 S0
G0 X36.8 Y13.1
M3 S23
G1 X36.8 Y13.1
M3 S23
G1 X36.7 Y13.1
M3 S48
G1 X36.6 Y13.1
M3 S74
G1 X36.5 Y13.1
M3 S99
G1 X36.4 Y13.1
M3 S125
G1 X36.3 Y13.1
M3 S150
G1 X36.2 Y13.1
M3 S176
G1 X36.1 Y13.1
M3 S201
G1 X36.0 Y13.1
M3 S227
G1 X35.9 Y13.1
M3 S252
G1 X35.8 Y13.1
M3 S255
G1 X32.1 Y13.1
M3 S253
G1 X32.0 Y13.1
M3 S227
G1 X31.9 Y13.1
M3 S202
G1 X31.8 Y13.1
M3 S176
G1 X31.7 Y13.1
M3 S151
G1 X31.6 Y13.1
M3 S125
G1 X31.5 Y13.1
M3 S100
G1 X31.4 Y13.1
M3 S74
G1 X31.3 Y13.1
M3 S49
G1 X31.2 Y13.1
M3 S23
G1 X31.1 Y13.1
M3 S0
G0 X27.5 Y13.1
M3 S12
G1 X27.5 Y13.1
M3 S12
G1 X27.4 Y13.1
M3 S37
G1 X27.3 Y13.1
M3 S63
G1 X27.2 Y13.1
M3 S88
G1 X27.1 Y13.1
M3 S114
G1 X27.0 Y13.1
M3 S139
G1 X26.9 Y13.1
M3 S165
G1 X26.8 Y13.1
M3 S190
G1 X26.7 Y13.1
M3 S216
G1 X26.6 Y13.1
M3 S241
G1 X26.5 Y13.1
M3 S255
G1 X22.8 Y13.1
M3 S252
G1 X22.7 Y13.1
M3 S228
G1 X22.6 Y13.1
M3 S202
G1 X22.5 Y13.1
M3 S177
G1 X22.4 Y13.1
M3 S151
G1 X22.3 Y13.1
M3 S126
G1 X22.2 Y13.1
M3 S100
G1 X22.1 Y13.1
M3 S75
G1 X22.0 Y13.1
M3 S49
G1 X21.9 Y13.1
M3 S24
G1 X21.8 Y13.1
M3 S1
G1 X21.7 Y13.1
M3 S0
G0 X9.3 Y13.1
M3 S26
G1 X9.3 Y13.1
M3 S26
G1 X9.2 Y13.1
M3 S51
G1 X9.1 Y13.1
M3 S77
G1 X9.0 Y13.1
M3 S102
G1 X8.9 Y13.1
M3 S128
G1 X8.8 Y13.1
M3 S153
G1 X8.7 Y13.1
M3 S179
G1 X8.6 Y13.1
M3 S204
G1 X8.5 Y13.1
M3 S230
G1 X8.4 Y13.1
M3 S255
G1 X4.6 Y13.1
M3 S230
G1 X4.5 Y13.1
M3 S204
G1 X4.4 Y13.1
M3 S179
G1 X4.3 Y13.1
M3 S153
G1 X4.2 Y13.1
M3 S128
G1 X4.1 Y13.1
M3 S102
G1 X4.0 Y13.1
M3 S77
G1 X3.9 Y13.1
M3 S51
G1 X3.8 Y13.1
M3 S26
G1 X3.7 Y13.1
M3 S0
M5 S0
G0 X3.7 Y13.2
M3 S26
G1 X3.7 Y13.2
M3 S26
G1 X3.8 Y13.2
M3 S51
G1 X3.9 Y13.2
M3 S76
G1 X4.0 Y13.2
M3 S102
G1 X4.1 Y13.2
M3 S128
G1 X4.2 Y13.2
M3 S153
G1 X4.3 Y13.2
M3 S178
G1 X4.4 Y13.2
M3 S204
G1 X4.5 Y13.2
M3 S230
G1 X4.6 Y13.2
M3 S255
G1 X8.4 Y13.2
M3 S240
G1 X8.5 Y13.2
M3 S214
G1 X8.6 Y13.2
M3 S189
G1 X8.7 Y13.2
M3 S163
G1 X8.8 Y13.2
M3 S138
G1 X8.9 Y13.2
M3 S112
G1 X9.0 Y13.2
M3 S87
G1 X9.1 Y13.2
M3 S61
G1 X9.2 Y13.2
M3 S36
G1 X9.3 Y13.2
M3 S10
G1 X9.4 Y13.2
M3 S0
G0 X21.7 Y13.2
M3 S13
G1 X21.7 Y13.2
M3 S13
G1 X21.8 Y13.2
M3 S38
G1 X21.9 Y13.2
M3 S64
G1 X22.0 Y13.2
M3 S89
G1 X22.1 Y13.2
M3 S115
G1 X22.2 Y13.2
M3 S140
G1 X22.3 Y13.2
M3 S166
G1 X22.4 Y13.2
M3 S191
G1 X22.5 Y13.2
M3 S217
G1 X22.6 Y13.2
M3 S242
G1 X22.7 Y13.2
M3 S255
G1 X26.4 Y13.2
M3 S252
G1 X26.5 Y13.2
M3 S227
G1 X26.6 Y13.2
M3 S201
G1 X26.7 Y13.2
M3 S176
G1 X26.8 Y13.2
M3 S150
G1 X26.9 Y13.2
M3 S125
G1 X27.0 Y13.2
M3 S99
G1 X27.1 Y13.2
M3 S74
G1 X27.2 Y13.2
M3 S48
G1 X27.3 Y13.2
M3 S23
G1 X27.4 Y13.2
M3 S1
G1 X27.5 Y13.2
M3 S0
G0 X31.1 Y13.2
M3 S26
G1 X31.1 Y13.2
M3 S26
G1 X31.2 Y13.2
M3 S51
G1 X31.3 Y13.2
M3 S76
G1 X31.4 Y13.2
M3 S102
G1 X31.5 Y13.2
M3 S128
G1 X31.6 Y13.2
M3 S153
G1 X31.7 Y13.2
M3 S178
G1 X31.8 Y13.2
M3 S204
G1 X31.9 Y13.2
M3 S230
G1 X32.0 Y13.2
M3 S255
G1 X35.8 Y13.2
M3 S238
G1 X35.9 Y13.2
M3 S213
G1 X36.0 Y13.2
M3 S187
G1 X36.1 Y13.2
M3 S162
G1 X36.2 Y13.2
M3 S136
G1 X36.3 Y13.2
M3 S111
G1 X36.4 Y13.2
M3 S85
G1 X36.5 Y13.2
M3 S60
G1 X36.6 Y13.2
M3 S34
G1 X36.7 Y13.2
M3 S9
G1 X36.8 Y13.2
M3 S0
G0 X40.5 Y13.2
M3 S2
G1 X40.5 Y13.2
M3 S2
G1 X40.6 Y13.2
M3 S27
G1 X40.7 Y13.2
M3 S53
G1 X40.8 Y13.2
M3 S78
G1 X40.9 Y13.2
M3 S104
G1 X41.0 Y13.2
M3 S129
G1 X41.1 Y13.2
M3 S155
G1 X41.2 Y13.2
M3 S180
G1 X41.3 Y13.2
M3 S206
G1 X41.4 Y13.2
M3 S231
G1 X41.5 Y13.2
M3 S255
G1 X45.2 Y13.2
M3 S236
G1 X45.3 Y13.2
M3 S210
G1 X45.4 Y13.2
M3 S185
G1 X45.5 Y13.2
M3 S159
G1 X45.6 Y13.2
M3 S134
G1 X45.7 Y13.2
M3 S108
G1 X45.8 Y13.2
M3 S83
G1 X45.9 Y13.2
M3 S57
G1 X46.0 Y13.2
M3 S32
G1 X46.1 Y13.2
M3 S6
G1 X46.2 Y13.2
M3 S0
M5 S0
G0 X46.1 Y13.3
M3 S25
G1 X46.1 Y13.3
M3 S25
G1 X46.0 Y13.3
M3 S50
G1 X45.9 Y13.3
M3 S76
G1 X45.8 Y13.3
M3 S101
G1 X45.7 Y13.3
M3 S127
G1 X45.6 Y13.3
M3 S152
G1 X45.5 Y13.3
M3 S178
G1 X45.4 Y13.3
M3 S203
G1 X45.3 Y13.3
M3 S229
G1 X45.2 Y13.3
M3 S254
G1 X45.1 Y13.3
M3 S255
G1 X41.5 Y13.3
M3 S254
G1 X41.4 Y13.3
M3 S233
G1 X41.3 Y13.3
M3 S207
G1 X41.2 Y13.3
M3 S182
G1 X41.1 Y13.3
M3 S156
G1 X41.0 Y13.3
M3 S131
G1 X40.9 Y13.3
M3 S105
G1 X40.8 Y13.3
M3 S80
G1 X40.7 Y13.3
M3 S54
G1 X40.6 Y13.3
M3 S29
G1 X40.5 Y13.3
M3 S4
G1 X40.4 Y13.3
M3 S0
G0 X36.7 Y13.3
M3 S5
G1 X36.7 Y13.3
M3 S5
G1 X36.6 Y13.3
M3 S31
G1 X36.5 Y13.3
M3 S56
G1 X36.4 Y13.3
M3 S82
G1 X36.3 Y13.3
M3 S107
G1 X36.2 Y13.3
M3 S133
G1 X36.1 Y13.3
M3 S158
G1 X36.0 Y13.3
M3 S184
G1 X35.9 Y13.3
M3 S209
G1 X35.8 Y13.3
M3 S235
G1 X35.7 Y13.3
M3 S255
G1 X32.0 Y13.3
M3 S247
G1 X31.9 Y13.3
M3 S221
G1 X31.8 Y13.3
M3 S196
G1 X31.7 Y13.3
M3 S170
G1 X31.6 Y13.3
M3 S145
G1 X31.5 Y13.3
M3 S119
G1 X31.4 Y13.3
M3 S94
G1 X31.3 Y13.3
M3 S68
G1 X31.2 Y13.3
M3 S43
G1 X31.1 Y13.3
M3 S17
G1 X31.0 Y13.3
M3 S0
G0 X27.3 Y13.3
M3 S26
G1 X27.3 Y13.3
M3 S26
G1 X27.2 Y13.3
M3 S51
G1 X27.1 Y13.3
M3 S77
G1 X27.0 Y13.3
M3 S102
G1 X26.9 Y13.3
M3 S128
G1 X26.8 Y13.3
M3 S153
G1 X26.7 Y13.3
M3 S179
G1 X26.6 Y13.3
M3 S204
G1 X26.5 Y13.3
M3 S230
G1 X26.4 Y13.3
M3 S255
G1 X22.6 Y13.3
M3 S230
G1 X22.5 Y13.3
M3 S204
G1 X22.4 Y13.3
M3 S178
G1 X22.3 Y13.3
M3 S153
G1 X22.2 Y13.3
M3 S128
G1 X22.1 Y13.3
M3 S102
G1 X22.0 Y13.3
M3 S76
G1 X21.9 Y13.3
M3 S51
G1 X21.8 Y13.3
M3 S26
G1 X21.7 Y13.3
M3 S0
G0 X9.5 Y13.3
M3 S14
G1 X9.5 Y13.3
M3 S14
G1 X9.4 Y13.3
M3 S39
G1 X9.3 Y13.3
M3 S65
G1 X9.2 Y13.3
M3 S90
G1 X9.1 Y13.3
M3 S116
G1 X9.0 Y13.3
M3 S141
G1 X8.9 Y13.3
M3 S167
G1 X8.8 Y13.3
M3 S192
G1 X8.7 Y13.3
M3 S218
G1 X8.6 Y13.3
M3 S243
G1 X8.5 Y13.3
M3 S255
G1 X4.7 Y13.3
M3 S233
G1 X4.6 Y13.3
M3 S208
G1 X4.5 Y13.3
M3 S182
G1 X4.4 Y13.3
M3 S157
G1 X4.3 Y13.3
M3 S131
G1 X4.2 Y13.3
M3 S106
G1 X4.1 Y13.3
M3 S80
G1 X4.0 Y13.3
M3 S55
G1 X3.9 Y13.3
M3 S29
G1 X3.8 Y13.3
M3 S4
G1 X3.7 Y13.3
M3 S0
M5 S0
G0 X3.8 Y13.4
M3 S2
G1 X3.8 Y13.4
M3 S2
G1 X3.9 Y13.4
M3 S28
G1 X4.0 Y13.4
M3 S53
G1 X4.1 Y13.4
M3 S79
G1 X4.2 Y13.4
M3 S104
G1 X4.3 Y13.4
M3 S130
G1 X4.4 Y13.4
M3 S155
G1 X4.5 Y13.4
M3 S181
G1 X4.6 Y13.4
M3 S206
G1 X4.7 Y13.4
M3 S232
G1 X4.8 Y13.4
M3 S255
G1 X8.6 Y13.4
M3 S230
G1 X8.7 Y13.4
M3 S204
G1 X8.8 Y13.4
M3 S178
G1 X8.9 Y13.4
M3 S153
G1 X9.0 Y13.4
M3 S128
G1 X9.1 Y13.4
M3 S102
G1 X9.2 Y13.4
M3 S76
G1 X9.3 Y13.4
M3 S51
G1 X9.4 Y13.4
M3 S26
G1 X9.5 Y13.4
M3 S0
G0 X21.6 Y13.4
M3 S19
G1 X21.6 Y13.4
M3 S19
G1 X21.7 Y13.4
M3 S45
G1 X21.8 Y13.4
M3 S70
G1 X21.9 Y13.4
M3 S96
G1 X22.0 Y13.4
M3 S121
G1 X22.1 Y13.4
M3 S147
G1 X22.2 Y13.4
M3 S172
G1 X22.3 Y13.4
M3 S198
G1 X22.4 Y13.4
M3 S223
G1 X22.5 Y13.4
M3 S249
G1 X22.6 Y13.4
M3 S255
G1 X26.3 Y13.4
M3 S245
G1 X26.4 Y13.4
M3 S220
G1 X26.5 Y13.4
M3 S194
G1 X26.6 Y13.4
M3 S169
G1 X26.7 Y13.4
M3 S143
G1 X26.8 Y13.4
M3 S118
G1 X26.9 Y13.4
M3 S92
G1 X27.0 Y13.4
M3 S67
G1 X27.1 Y13.4
M3 S41
G1 X27.2 Y13.4
M3 S16
G1 X27.3 Y13.4
M3 S0
G0 X30.9 Y13.4
M3 S20
G1 X30.9 Y13.4
M3 S20
G1 X31.0 Y13.4
M3 S46
G1 X31.1 Y13.4
M3 S71
G1 X31.2 Y13.4
M3 S97
G1 X31.3 Y13.4
M3 S122
G1 X31.4 Y13.4
M3 S148
G1 X31.5 Y13.4
M3 S173
G1 X31.6 Y13.4
M3 S199
