( imgcode generated code )
( developed by M. "Vidmo" Widomski )
(  github.com/vidmo91 )
(  hackaday.io/vidmo91 )
 
F1000
M92 
G64 R90 

M3 
G0 X48.7 Y8.5 Z0 
G1 X48.4 Z0.073333
G1 X43.7 Z0.000000
G1 X39.1 Z0.001176
G1 X39.0 Z0.065098
G1 X38.9 Z0.073333
G1 X34.2 Z0.000000
G1 X29.7 Z0.032941
G1 X29.6 Z0.073333
G1 X25.0 Z0.070588
G1 X24.9 Z0.000000
G1 X20.2 Z0.016078
G1 X20.1 Z0.073333
G1 X9.4 Z0.070588
G1 X9.3 Z0.066275
G1 X1.6 Z0.000000
G1 X1.3
G0 X1.3 Y8.6 Z0 
G1 X1.6 Z0.076471
G1 X1.7 Z0.100000
G1 X19.9 Z0.100000
G1 X20.0 Z0.098824
G1 X20.1 Z0.000000
G1 X24.7 Z0.000000
G1 X24.8 Z0.010980
G1 X24.9 Z0.100000
G1 X29.5 Z0.100000
G1 X29.6 Z0.000000
G1 X34.0 Z0.000000
G1 X34.1 Z0.018431
G1 X34.2 Z0.100000
G1 X38.8 Z0.100000
G1 X38.9 Z0.001176
G1 X39.0 Z0.000000
G1 X43.5 Z0.000000
G1 X43.6 Z0.040392
G1 X43.7 Z0.100000
G1 X48.2 Z0.100000
G1 X48.3 Z0.073725
G1 X48.4 Z0.000000
G1 X48.7
G0 X48.7 Y8.7 Z0 
G1 X48.4 Z0.017255
G1 X48.3 Z0.098824
G1 X48.2 Z0.100000
G1 X43.7 Z0.090196
G1 X43.6 Z0.000000
G1 X38.9 Z0.100000
G1 X34.2 Z0.073333
G1 X34.1 Z0.000000
G1 X29.6 Z0.081176
G1 X29.5 Z0.100000
G1 X24.9 Z0.065490
G1 X24.8 Z0.000000
G1 X20.1 Z0.063137
G1 X20.0 Z0.100000
G1 X1.7 Z0.020000
G1 X1.6 Z0.000000
G1 X1.3
G0 X1.4 Y8.8 Z0 
G1 X1.7 Z0.095686
G1 X1.8 Z0.100000
G1 X19.8 Z0.100000
G1 X19.9 Z0.051765
G1 X20.0 Z0.000000
G1 X24.6 Z0.000000
G1 X24.7 Z0.076863
G1 X24.8 Z0.100000
G1 X29.3 Z0.100000
G1 X29.4 Z0.068627
G1 X29.5 Z0.000000
G1 X33.9 Z0.000000
G1 X34.0 Z0.002353
G1 X34.1 Z0.100000
G1 X38.6 Z0.100000
G1 X38.7 Z0.098431
G1 X38.8 Z0.016863
G1 X38.9 Z0.000000
G1 X43.4 Z0.000000
G1 X43.5 Z0.012941
G1 X43.6 Z0.100000
G1 X48.1 Z0.100000
G1 X48.2 Z0.007451
G1 X48.3 Z0.000000
G1 X48.6
G0 X48.5 Y8.9 Z0 
G1 X48.2 Z0.087059
G1 X48.1 Z0.100000
G1 X43.5 Z0.024706
G1 X43.4 Z0.000000
G1 X38.8 Z0.007451
G1 X38.7 Z0.100000
G1 X34.1 Z0.092549
G1 X34.0 Z0.006667
G1 X33.9 Z0.000000
G1 X29.4 Z0.100000
G1 X24.7 Z0.003529
G1 X24.6 Z0.000000
G1 X19.9 Z0.100000
G1 X1.9 Z0.088235
G1 X1.8 Z0.003529
G1 X1.7 Z0.000000
G1 X1.4
G0 X1.5 Y9.0 Z0 
G1 X1.8 Z0.036078
G1 X1.9 Z0.100000
G1 X19.7 Z0.100000
G1 X19.8 Z0.084314
G1 X19.9 Z0.000000
G1 X24.5 Z0.000000
G1 X24.6 Z0.049412
G1 X24.7 Z0.100000
G1 X29.2 Z0.100000
G1 X29.3 Z0.092549
G1 X29.4 Z0.000000
G1 X33.8 Z0.000000
G1 X33.9 Z0.058039
G1 X34.0 Z0.100000
G1 X38.6 Z0.100000
G1 X38.7 Z0.000000
G1 X43.3 Z0.000000
G1 X43.4 Z0.080000
G1 X43.5 Z0.100000
G1 X48.0 Z0.100000
G1 X48.1 Z0.030980
G1 X48.2 Z0.000000
G1 X48.5
G0 X48.4 Y9.1 Z0 
G1 X48.1 Z0.098824
G1 X48.0 Z0.100000
G1 X43.4 Z0.004706
G1 X43.3 Z0.000000
G1 X38.7 Z0.028627
G1 X38.6 Z0.100000
G1 X33.9 Z0.000000
G1 X29.4 Z0.001176
G1 X29.3 Z0.083922
G1 X29.2 Z0.100000
G1 X24.6 Z0.000000
G1 X19.8 Z0.074902
G1 X19.7 Z0.100000
G1 X2.0 Z0.099608
G1 X1.9 Z0.000000
G1 X1.6
G0 X1.6 Y9.2 Z0 
G1 X1.9 Z0.066275
G1 X2.0 Z0.100000
G1 X19.6 Z0.100000
G1 X19.7 Z0.020000
G1 X19.8 Z0.000000
G1 X24.4 Z0.000000
G1 X24.5 Z0.019216
G1 X24.6 Z0.100000
G1 X29.1 Z0.100000
G1 X29.2 Z0.027843
G1 X29.3 Z0.000000
G1 X33.7 Z0.000000
G1 X33.8 Z0.027843
G1 X33.9 Z0.100000
G1 X38.5 Z0.100000
G1 X38.6 Z0.000000
G1 X43.2 Z0.000000
G1 X43.3 Z0.052941
G1 X43.4 Z0.100000
G1 X47.9 Z0.100000
G1 X48.0 Z0.060784
G1 X48.1 Z0.000000
G1 X48.4
G0 X48.3 Y9.3 Z0 
G1 X48.0 Z0.046667
G1 X47.9 Z0.100000
G1 X43.3 Z0.067451
G1 X43.2 Z0.000000
G1 X38.6 Z0.058039
G1 X38.5 Z0.100000
G1 X33.8 Z0.041961
G1 X33.7 Z0.000000
G1 X29.2 Z0.098431
G1 X29.1 Z0.100000
G1 X24.5 Z0.032941
G1 X24.4 Z0.000000
G1 X19.7 Z0.096471
G1 X19.6 Z0.100000
G1 X2.1 Z0.052549
G1 X2.0 Z0.000000
G1 X1.7
G0 X1.8 Y9.4 Z0 
G1 X2.1 Z0.100000
G1 X19.5 Z0.100000
G1 X19.6 Z0.005490
G1 X19.7 Z0.000000
G1 X24.3 Z0.000000
G1 X24.4 Z0.100000
G1 X29.0 Z0.100000
G1 X29.1 Z0.007451
G1 X29.2 Z0.000000
G1 X33.6 Z0.000000
G1 X33.7 Z0.100000
G1 X38.3 Z0.100000
G1 X38.4 Z0.045098
G1 X38.5 Z0.000000
G1 X43.0 Z0.000000
G1 X43.1 Z0.001176
G1 X43.2 Z0.100000
G1 X47.8 Z0.100000
G1 X47.9 Z0.000000
G1 X48.2
G0 X48.2 Y9.5 Z0 
G1 X47.9 Z0.077647
G1 X47.8 Z0.100000
G1 X43.2 Z0.038824
G1 X43.1 Z0.000000
G1 X38.5 Z0.002353
G1 X38.4 Z0.100000
G1 X33.7 Z0.012941
G1 X33.6 Z0.000000
G1 X29.1 Z0.100000
G1 X24.4 Z0.008627
G1 X24.3 Z0.000000
G1 X19.6 Z0.100000
G1 X2.2 Z0.080000
G1 X2.1 Z0.000000
G1 X1.8
G0 X1.9 Y9.6 Z0 
G1 X2.2 Z0.100000
G1 X19.4 Z0.100000
G1 X19.5 Z0.029804
G1 X19.6 Z0.000000
G1 X24.1 Z0.000000
G1 X24.2 Z0.016078
G1 X24.3 Z0.098431
G1 X24.4 Z0.100000
G1 X28.9 Z0.100000
G1 X29.0 Z0.029804
G1 X29.1 Z0.000000
G1 X33.5 Z0.000000
G1 X33.6 Z0.100000
G1 X38.2 Z0.100000
G1 X38.3 Z0.074510
G1 X38.4 Z0.000000
G1 X43.0 Z0.000000
G1 X43.1 Z0.100000
G1 X47.6 Z0.100000
G1 X47.7 Z0.062353
G1 X47.8 Z0.000000
G1 X48.1
G0 X48.1 Y9.7 Z0 
G1 X47.8 Z0.010980
G1 X47.7 Z0.100000
G1 X43.1 Z0.010980
G1 X43.0 Z0.000000
G1 X38.4 Z0.020000
G1 X38.3 Z0.098824
G1 X38.2 Z0.100000
G1 X33.6 Z0.001176
G1 X33.5 Z0.000000
G1 X29.0 Z0.073725
G1 X28.9 Z0.100000
G1 X24.3 Z0.072549
G1 X24.2 Z0.000000
G1 X19.5 Z0.074902
G1 X19.4 Z0.100000
G1 X2.3 Z0.097647
G1 X2.2 Z0.000000
G1 X1.9
G0 X1.9 Y9.8 Z0 
G1 X2.2 Z0.005490
G1 X2.3 Z0.090588
G1 X2.4 Z0.100000
G1 X19.3 Z0.100000
G1 X19.4 Z0.000000
G1 X24.0 Z0.000000
G1 X24.1 Z0.001569
G1 X24.2 Z0.100000
G1 X28.8 Z0.100000
G1 X28.9 Z0.000000
G1 X33.3 Z0.000000
G1 X33.4 Z0.004314
G1 X33.5 Z0.090196
G1 X33.6 Z0.100000
G1 X38.1 Z0.100000
G1 X38.2 Z0.009020
G1 X38.3 Z0.000000
G1 X42.8 Z0.000000
G1 X42.9 Z0.022353
G1 X43.0 Z0.099608
G1 X43.1 Z0.100000
G1 X47.5 Z0.100000
G1 X47.6 Z0.089412
G1 X47.7 Z0.000000
G1 X48.0
G0 X48.0 Y9.9 Z0 
G1 X47.7 Z0.000392
G1 X47.6 Z0.100000
G1 X42.9 Z0.000000
G1 X38.2 Z0.087059
G1 X38.1 Z0.100000
G1 X33.5 Z0.095686
G1 X33.4 Z0.000000
G1 X28.9 Z0.045490
G1 X28.8 Z0.100000
G1 X24.2 Z0.092549
G1 X24.1 Z0.000000
G1 X19.4 Z0.051765
G1 X19.3 Z0.100000
G1 X2.4 Z0.001176
G1 X2.3 Z0.000000
G1 X2.0
G0 X2.1 Y10.0 Z0 
G1 X2.4 Z0.100000
G1 X19.1 Z0.100000
G1 X19.2 Z0.091373
G1 X19.3 Z0.005490
G1 X19.4 Z0.000000
G1 X24.0 Z0.000000
G1 X24.1 Z0.100000
G1 X28.6 Z0.100000
G1 X28.7 Z0.087059
G1 X28.8 Z0.002353
G1 X28.9 Z0.000000
G1 X33.3 Z0.000000
G1 X33.4 Z0.100000
G1 X38.0 Z0.100000
G1 X38.1 Z0.032941
G1 X38.2 Z0.000000
G1 X42.7 Z0.000000
G1 X42.8 Z0.003529
G1 X42.9 Z0.100000
G1 X47.4 Z0.100000
G1 X47.5 Z0.099608
G1 X47.6 Z0.000000
G1 X47.9
G0 X47.9 Y10.1 Z0 
G1 X47.6 Z0.011765
G1 X47.5 Z0.096863
G1 X47.4 Z0.100000
G1 X42.9 Z0.095686
G1 X42.8 Z0.010980
G1 X42.7 Z0.000000
G1 X38.1 Z0.098824
G1 X38.0 Z0.100000
G1 X33.4 Z0.076471
G1 X33.3 Z0.000392
G1 X33.2 Z0.000000
G1 X28.7 Z0.100000
G1 X24.1 Z0.070588
G1 X24.0 Z0.000000
G1 X19.3 Z0.001176
G1 X19.2 Z0.100000
G1 X2.6 Z0.097647
G1 X2.5 Z0.015294
G1 X2.4 Z0.000000
G1 X2.1
G0 X2.2 Y10.2 Z0 
G1 X2.5 Z0.057647
G1 X2.6 Z0.100000
G1 X19.1 Z0.100000
G1 X19.2 Z0.000000
G1 X23.8 Z0.000000
G1 X23.9 Z0.025490
G1 X24.0 Z0.100000
G1 X28.5 Z0.100000
G1 X28.6 Z0.098824
G1 X28.7 Z0.000000
G1 X33.1 Z0.000000
G1 X33.2 Z0.035686
G1 X33.3 Z0.100000
G1 X37.9 Z0.100000
G1 X38.0 Z0.062353
G1 X38.1 Z0.000000
G1 X42.6 Z0.000000
G1 X42.7 Z0.064314
G1 X42.8 Z0.100000
G1 X47.3 Z0.100000
G1 X47.4 Z0.051373
G1 X47.5 Z0.000000
G1 X47.8
G0 X47.7 Y10.3 Z0 
G1 X47.4 Z0.100000
G1 X42.7 Z0.000392
G1 X42.6 Z0.000000
G1 X38.0 Z0.049412
G1 X37.9 Z0.100000
G1 X33.2 Z0.000000
G1 X28.7 Z0.009020
G1 X28.6 Z0.100000
G1 X23.9 Z0.000000
G1 X19.2 Z0.020000
G1 X19.1 Z0.100000
G1 X2.6 Z0.000000
G1 X2.3
G0 X2.3 Y10.4 Z0 
G1 X2.6 Z0.029804
G1 X2.7 Z0.100000
G1 X18.9 Z0.100000
G1 X19.0 Z0.096471
G1 X19.1 Z0.000000
G1 X23.7 Z0.000000
G1 X23.8 Z0.054510
G1 X23.9 Z0.100000
G1 X28.4 Z0.100000
G1 X28.5 Z0.089020
G1 X28.6 Z0.000000
G1 X33.0 Z0.000000
G1 X33.1 Z0.061961
G1 X33.2 Z0.100000
G1 X37.8 Z0.100000
G1 X37.9 Z0.000000
G1 X42.5 Z0.000000
G1 X42.6 Z0.088235
G1 X42.7 Z0.100000
G1 X47.2 Z0.100000
G1 X47.3 Z0.024706
G1 X47.4 Z0.000000
G1 X47.7
G0 X47.6 Y10.5 Z0 
G1 X47.3 Z0.067451
G1 X47.2 Z0.100000
G1 X42.6 Z0.000000
G1 X37.9 Z0.078824
G1 X37.8 Z0.100000
G1 X33.2 Z0.098824
G1 X33.1 Z0.000000
G1 X28.6 Z0.033725
G1 X28.5 Z0.100000
G1 X23.9 Z0.097647
G1 X23.8 Z0.012941
G1 X23.7 Z0.000000
G1 X19.1 Z0.051373
G1 X19.0 Z0.100000
G1 X2.7 Z0.000000
G1 X2.4
G0 X2.4 Y10.6 Z0 
G1 X2.7 Z0.059216
G1 X2.8 Z0.100000
G1 X18.8 Z0.100000
G1 X18.9 Z0.040392
G1 X19.0 Z0.000000
G1 X23.6 Z0.000000
G1 X23.7 Z0.100000
G1 X28.3 Z0.100000
G1 X28.4 Z0.021176
G1 X28.5 Z0.000000
G1 X32.9 Z0.000000
G1 X33.0 Z0.031765
G1 X33.1 Z0.100000
G1 X37.6 Z0.100000
G1 X37.7 Z0.064314
G1 X37.8 Z0.000000
G1 X42.4 Z0.000000
G1 X42.5 Z0.063137
G1 X42.6 Z0.100000
G1 X47.1 Z0.100000
G1 X47.2 Z0.000000
G1 X47.5
G0 X47.5 Y10.7 Z0 
G1 X47.2 Z0.091373
G1 X47.1 Z0.100000
G1 X42.6 Z0.098824
G1 X42.5 Z0.020000
G1 X42.4 Z0.000000
G1 X37.8 Z0.011765
G1 X37.7 Z0.100000
G1 X33.1 Z0.085098
G1 X33.0 Z0.002353
G1 X32.9 Z0.000000
G1 X28.4 Z0.100000
G1 X23.7 Z0.001176
G1 X23.6 Z0.000000
G1 X19.0 Z0.001176
G1 X18.9 Z0.100000
G1 X2.9 Z0.093725
G1 X2.8 Z0.007843
G1 X2.7 Z0.000000
G1 X2.4
G0 X2.5 Y10.8 Z0 
G1 X2.8 Z0.002353
G1 X2.9 Z0.100000
G1 X18.7 Z0.100000
G1 X18.8 Z0.074902
G1 X18.9 Z0.000000
G1 X23.5 Z0.000000
G1 X23.6 Z0.090196
G1 X23.7 Z0.100000
G1 X28.2 Z0.100000
G1 X28.3 Z0.049412
G1 X28.4 Z0.000000
G1 X32.8 Z0.000000
G1 X32.9 Z0.093725
G1 X33.0 Z0.100000
G1 X37.5 Z0.100000
G1 X37.6 Z0.090588
G1 X37.7 Z0.000000
G1 X42.3 Z0.000000
G1 X42.4 Z0.100000
G1 X47.0 Z0.100000
G1 X47.1 Z0.001176
G1 X47.2 Z0.000000
G1 X47.5
G0 X47.4 Y10.9 Z0 
G1 X47.1 Z0.069412
G1 X47.0 Z0.100000
G1 X42.4 Z0.048627
G1 X42.3 Z0.000000
G1 X37.7 Z0.001176
G1 X37.6 Z0.100000
G1 X32.9 Z0.016078
G1 X32.8 Z0.000000
G1 X28.3 Z0.036078
G1 X28.2 Z0.100000
G1 X23.6 Z0.010980
G1 X23.5 Z0.000000
G1 X18.8 Z0.062353
G1 X18.7 Z0.100000
G1 X3.0 Z0.074902
G1 X2.9 Z0.000000
G1 X2.6
G0 X2.6 Y11.0 Z0 
G1 X2.9 Z0.018431
G1 X3.0 Z0.098824
G1 X3.1 Z0.100000
G1 X18.6 Z0.100000
G1 X18.7 Z0.011765
G1 X18.8 Z0.000000
G1 X23.4 Z0.000000
G1 X23.5 Z0.065098
G1 X23.6 Z0.100000
G1 X28.1 Z0.100000
G1 X28.2 Z0.001176
G1 X28.3 Z0.000000
G1 X32.7 Z0.000000
G1 X32.8 Z0.071373
G1 X32.9 Z0.100000
G1 X37.5 Z0.100000
G1 X37.6 Z0.000000
G1 X42.1 Z0.000000
G1 X42.2 Z0.009020
G1 X42.3 Z0.094510
G1 X42.4 Z0.100000
G1 X46.8 Z0.100000
G1 X46.9 Z0.097647
G1 X47.0 Z0.014902
G1 X47.1 Z0.000000
G1 X47.4
G0 X47.3 Y11.1 Z0 
G1 X47.0 Z0.007451
G1 X46.9 Z0.100000
G1 X42.3 Z0.098824
G1 X42.2 Z0.000000
G1 X37.6 Z0.014118
G1 X37.5 Z0.097647
G1 X37.4 Z0.100000
G1 X32.8 Z0.082745
G1 X32.7 Z0.000000
G1 X28.2 Z0.065490
G1 X28.1 Z0.100000
G1 X23.5 Z0.076471
G1 X23.4 Z0.000000
G1 X18.7 Z0.091373
G1 X18.6 Z0.100000
G1 X3.1 Z0.009020
G1 X3.0 Z0.000000
G1 X2.7
G0 X2.8 Y11.2 Z0 
G1 X3.1 Z0.100000
G1 X18.5 Z0.100000
G1 X18.6 Z0.040392
G1 X18.7 Z0.000000
G1 X23.3 Z0.000000
G1 X23.4 Z0.100000
G1 X28.0 Z0.100000
G1 X28.1 Z0.012157
G1 X28.2 Z0.000000
G1 X32.6 Z0.000000
G1 X32.7 Z0.100000
G1 X37.3 Z0.100000
G1 X37.4 Z0.052549
G1 X37.5 Z0.000000
G1 X42.1 Z0.000000
G1 X42.2 Z0.100000
G1 X46.8 Z0.100000
G1 X46.9 Z0.000000
G1 X47.2
G0 X47.2 Y11.3 Z0 
G1 X46.9 Z0.027843
G1 X46.8 Z0.100000
G1 X42.2 Z0.086275
G1 X42.1 Z0.000000
G1 X37.4 Z0.100000
G1 X32.7 Z0.055686
G1 X32.6 Z0.000000
G1 X28.1 Z0.090588
G1 X28.0 Z0.100000
G1 X23.4 Z0.049412
G1 X23.3 Z0.000000
G1 X18.6 Z0.100000
G1 X3.2 Z0.034902
G1 X3.1 Z0.000000
G1 X2.8
G0 X2.9 Y11.4 Z0 
G1 X3.2 Z0.099608
G1 X3.3 Z0.100000
G1 X18.3 Z0.100000
G1 X18.4 Z0.098824
G1 X18.5 Z0.020000
G1 X18.6 Z0.000000
G1 X23.1 Z0.000000
G1 X23.2 Z0.062353
G1 X23.3 Z0.100000
G1 X27.8 Z0.100000
G1 X27.9 Z0.081176
G1 X28.0 Z0.001176
G1 X28.1 Z0.000000
G1 X32.5 Z0.000000
G1 X32.6 Z0.100000
G1 X37.2 Z0.100000
G1 X37.3 Z0.026667
G1 X37.4 Z0.000000
G1 X41.9 Z0.000000
G1 X42.0 Z0.008627
G1 X42.1 Z0.100000
G1 X46.6 Z0.100000
G1 X46.7 Z0.017255
G1 X46.8 Z0.000000
G1 X47.1
G0 X47.0 Y11.5 Z0 
G1 X46.7 Z0.100000
G1 X42.1 Z0.061176
G1 X42.0 Z0.000000
G1 X37.3 Z0.068627
G1 X37.2 Z0.100000
G1 X32.6 Z0.024706
G1 X32.5 Z0.000000
G1 X28.0 Z0.024706
G1 X27.9 Z0.100000
G1 X23.3 Z0.098824
G1 X23.2 Z0.000000
G1 X18.5 Z0.062353
G1 X18.4 Z0.100000
G1 X3.3 Z0.064314
G1 X3.2 Z0.000000
G1 X2.9
G0 X3.0 Y11.6 Z0 
G1 X3.3 Z0.050588
G1 X3.4 Z0.100000
G1 X18.3 Z0.100000
G1 X18.4 Z0.000000
G1 X23.0 Z0.000000
G1 X23.1 Z0.032549
G1 X23.2 Z0.100000
G1 X27.7 Z0.100000
G1 X27.8 Z0.097647
G1 X27.9 Z0.000000
G1 X32.3 Z0.000000
G1 X32.4 Z0.038824
G1 X32.5 Z0.100000
G1 X37.1 Z0.100000
G1 X37.2 Z0.000000
G1 X41.8 Z0.000000
G1 X41.9 Z0.073333
G1 X42.0 Z0.100000
G1 X46.5 Z0.100000
G1 X46.6 Z0.044314
G1 X46.7 Z0.000000
G1 X47.0
G0 X47.0 Y11.7 Z0 
G1 X46.7 Z0.002353
G1 X46.6 Z0.100000
G1 X41.9 Z0.000000
G1 X37.2 Z0.092549
G1 X37.1 Z0.100000
G1 X32.5 Z0.090196
G1 X32.4 Z0.000000
G1 X27.9 Z0.053725
G1 X27.8 Z0.100000
G1 X23.2 Z0.085098
G1 X23.1 Z0.000000
G1 X18.4 Z0.091373
G1 X18.3 Z0.100000
G1 X3.4 Z0.003529
G1 X3.3 Z0.000000
G1 X3.0
G0 X3.1 Y11.8 Z0 
G1 X3.4 Z0.078824
G1 X3.5 Z0.100000
G1 X18.2 Z0.100000
G1 X18.3 Z0.001176
G1 X18.4 Z0.000000
G1 X22.9 Z0.000000
G1 X23.0 Z0.007843
G1 X23.1 Z0.100000
G1 X27.6 Z0.100000
G1 X27.7 Z0.040392
G1 X27.8 Z0.000000
G1 X32.2 Z0.000000
G1 X32.3 Z0.010980
G1 X32.4 Z0.100000
G1 X37.0 Z0.100000
G1 X37.1 Z0.001569
G1 X37.2 Z0.000000
G1 X41.7 Z0.000000
G1 X41.8 Z0.046275
G1 X41.9 Z0.100000
G1 X46.4 Z0.100000
G1 X46.5 Z0.074510
G1 X46.6 Z0.000000
G1 X46.9
G0 X46.8 Y11.9 Z0 
G1 X46.5 Z0.060000
G1 X46.4 Z0.100000
G1 X41.8 Z0.060000
G1 X41.7 Z0.000000
G1 X37.1 Z0.070588
G1 X37.0 Z0.100000
G1 X32.4 Z0.099608
G1 X32.3 Z0.021569
G1 X32.2 Z0.000000
G1 X27.7 Z0.100000
G1 X23.1 Z0.098431
G1 X23.0 Z0.016078
G1 X22.9 Z0.000000
G1 X18.3 Z0.074510
G1 X18.2 Z0.100000
G1 X3.6 Z0.066275
G1 X3.5 Z0.000000
G1 X3.2
G0 X3.2 Y12.0 Z0 
G1 X3.5 Z0.012157
G1 X3.6 Z0.100000
G1 X16.3 Z0.100000
G1 X16.4 Z0.093333
G1 X17.8 Z0.093333
G1 X17.9 Z0.087059
G1 X18.1 Z0.087059
G1 X18.2 Z0.018431
G1 X18.3 Z0.000000
G1 X22.8 Z0.000000
G1 X22.9 Z0.073333
G1 X23.0 Z0.100000
G1 X27.5 Z0.100000
G1 X27.6 Z0.070196
G1 X27.7 Z0.000000
G1 X32.1 Z0.000000
G1 X32.2 Z0.078824
G1 X32.3 Z0.100000
G1 X36.8 Z0.100000
G1 X36.9 Z0.097647
G1 X37.0 Z0.016078
G1 X37.1 Z0.000000
G1 X41.6 Z0.000000
G1 X41.7 Z0.098824
G1 X41.8 Z0.100000
G1 X46.3 Z0.100000
G1 X46.4 Z0.009020
G1 X46.5 Z0.000000
G1 X46.8
G0 X46.7 Y12.1 Z0 
G1 X46.4 Z0.087059
G1 X46.3 Z0.100000
G1 X41.7 Z0.030588
G1 X41.6 Z0.000000
G1 X37.0 Z0.007451
G1 X36.9 Z0.100000
G1 X32.2 Z0.003529
G1 X32.1 Z0.000000
G1 X27.6 Z0.100000
G1 X22.9 Z0.001176
G1 X22.8 Z0.000000
G1 X8.4 Z0.080000
G1 X8.3 Z0.100000
G1 X3.7 Z0.090196
G1 X3.6 Z0.000000
G1 X3.3
G0 X3.3 Y12.2 Z0 
G1 X3.6 Z0.039216
G1 X3.7 Z0.100000
G1 X8.3 Z0.100000
G1 X8.4 Z0.000000
G1 X22.7 Z0.000000
G1 X22.8 Z0.043137
G1 X22.9 Z0.100000
G1 X27.4 Z0.100000
G1 X27.5 Z0.093333
G1 X27.6 Z0.000000
G1 X32.0 Z0.000000
G1 X32.1 Z0.049412
G1 X32.2 Z0.100000
G1 X36.8 Z0.100000
G1 X36.9 Z0.000000
G1 X41.5 Z0.000000
G1 X41.6 Z0.085098
G1 X41.7 Z0.100000
G1 X46.2 Z0.100000
G1 X46.3 Z0.032941
G1 X46.4 Z0.000000
G1 X46.7
G0 X46.6 Y12.3 Z0 
G1 X46.3 Z0.020392
G1 X46.2 Z0.100000
G1 X41.6 Z0.006667
G1 X41.5 Z0.000000
G1 X36.9 Z0.029804
G1 X36.8 Z0.100000
G1 X32.1 Z0.000000
G1 X27.6 Z0.001569
G1 X27.5 Z0.084314
G1 X27.4 Z0.100000
G1 X22.8 Z0.056863
G1 X22.7 Z0.000000
G1 X8.5 Z0.049412
G1 X8.4 Z0.100000
G1 X3.7 Z0.000000
G1 X3.4
G0 X3.4 Y12.4 Z0 
G1 X3.7 Z0.013725
G1 X3.8 Z0.097647
G1 X3.9 Z0.100000
G1 X8.4 Z0.100000
G1 X8.5 Z0.061961
G1 X8.6 Z0.000000
G1 X22.6 Z0.000000
G1 X22.7 Z0.100000
G1 X27.3 Z0.100000
G1 X27.4 Z0.000000
G1 X31.9 Z0.000000
G1 X32.0 Z0.073725
G1 X32.1 Z0.100000
G1 X36.6 Z0.100000
G1 X36.7 Z0.017255
G1 X36.8 Z0.000000
G1 X41.3 Z0.000000
G1 X41.4 Z0.016078
G1 X41.5 Z0.098431
G1 X41.6 Z0.100000
G1 X46.0 Z0.100000
G1 X46.1 Z0.095686
G1 X46.2 Z0.000000
G1 X46.5
G0 X46.5 Y12.5 Z0 
G1 X46.2 Z0.049412
G1 X46.1 Z0.100000
G1 X41.5 Z0.071765
G1 X41.4 Z0.000000
G1 X36.7 Z0.100000
G1 X32.0 Z0.031765
G1 X31.9 Z0.000000
G1 X27.4 Z0.098824
G1 X27.3 Z0.100000
G1 X22.7 Z0.025490
G1 X22.6 Z0.000000
G1 X8.6 Z0.098824
G1 X8.5 Z0.100000
G1 X3.9 Z0.054902
G1 X3.8 Z0.000000
G1 X3.5
G0 X3.6 Y12.6 Z0 
G1 X3.9 Z0.100000
G1 X8.5 Z0.100000
G1 X8.6 Z0.030980
G1 X8.7 Z0.000000
G1 X22.5 Z0.000000
G1 X22.6 Z0.100000
G1 X27.1 Z0.100000
G1 X27.2 Z0.093725
G1 X27.3 Z0.007451
G1 X27.4 Z0.000000
G1 X31.8 Z0.000000
G1 X31.9 Z0.100000
G1 X36.5 Z0.100000
G1 X36.6 Z0.045490
G1 X36.7 Z0.000000
G1 X41.2 Z0.000000
G1 X41.3 Z0.001176
G1 X41.4 Z0.100000
G1 X46.0 Z0.100000
G1 X46.1 Z0.000000
G1 X46.4
G0 X46.4 Y12.7 Z0 
G1 X46.1 Z0.078824
G1 X46.0 Z0.100000
G1 X41.4 Z0.043529
G1 X41.3 Z0.000000
G1 X36.7 Z0.002353
G1 X36.6 Z0.100000
G1 X31.9 Z0.007843
G1 X31.8 Z0.000000
G1 X27.3 Z0.044314
G1 X27.2 Z0.100000
G1 X22.6 Z0.004706
G1 X22.5 Z0.000000
G1 X8.8 Z0.002353
G1 X8.7 Z0.087059
G1 X8.6 Z0.100000
G1 X4.0 Z0.082745
G1 X3.9 Z0.000000
G1 X3.6
G0 X3.7 Y12.8 Z0 
G1 X4.0 Z0.071373
G1 X4.1 Z0.100000
G1 X8.6 Z0.100000
G1 X8.7 Z0.093725
G1 X8.8 Z0.000000
G1 X22.3 Z0.000000
G1 X22.4 Z0.012157
G1 X22.5 Z0.097647
G1 X22.6 Z0.100000
G1 X27.1 Z0.100000
G1 X27.2 Z0.000000
G1 X31.6 Z0.000000
G1 X31.7 Z0.016078
G1 X31.8 Z0.098431
G1 X31.9 Z0.100000
G1 X36.4 Z0.100000
G1 X36.5 Z0.074902
G1 X36.6 Z0.000000
G1 X41.1 Z0.000000
G1 X41.2 Z0.057647
G1 X41.3 Z0.100000
G1 X45.8 Z0.100000
G1 X45.9 Z0.064314
G1 X46.0 Z0.000000
G1 X46.3
G0 X46.2 Y12.9 Z0 
G1 X45.9 Z0.100000
G1 X41.2 Z0.000000
G1 X36.5 Z0.061176
G1 X36.4 Z0.100000
G1 X31.7 Z0.000000
G1 X27.2 Z0.020000
G1 X27.1 Z0.100000
G1 X22.5 Z0.099608
G1 X22.4 Z0.000000
G1 X8.9 Z0.016863
G1 X8.8 Z0.100000
G1 X4.1 Z0.000000
G1 X3.8
G0 X3.8 Y13.0 Z0 
G1 X4.1 Z0.092549
G1 X4.2 Z0.100000
G1 X8.7 Z0.100000
G1 X8.8 Z0.070588
G1 X8.9 Z0.000000
G1 X22.2 Z0.000000
G1 X22.3 Z0.001176
G1 X22.4 Z0.100000
G1 X27.0 Z0.100000
G1 X27.1 Z0.000000
G1 X31.5 Z0.000000
G1 X31.6 Z0.001176
G1 X31.7 Z0.100000
G1 X36.3 Z0.100000
G1 X36.4 Z0.009020
G1 X36.5 Z0.000000
G1 X41.0 Z0.000000
G1 X41.1 Z0.026667
G1 X41.2 Z0.100000
G1 X45.7 Z0.100000
G1 X45.8 Z0.090588
G1 X45.9 Z0.000000
G1 X46.2
G0 X46.2 Y13.1 Z0 
G1 X45.9 Z0.001176
G1 X45.8 Z0.080784
G1 X45.7 Z0.100000
G1 X41.1 Z0.000000
G1 X36.4 Z0.089020
G1 X36.3 Z0.100000
G1 X31.7 Z0.092157
G1 X31.6 Z0.000000
G1 X27.1 Z0.046275
G1 X27.0 Z0.100000
G1 X22.4 Z0.089020
G1 X22.3 Z0.003529
G1 X22.2 Z0.000000
G1 X9.0 Z0.001176
G1 X8.9 Z0.100000
G1 X4.2 Z0.001569
G1 X4.1 Z0.000000
G1 X3.8
G0 X3.9 Y13.2 Z0 
G1 X4.2 Z0.100000
G1 X8.8 Z0.100000
G1 X8.9 Z0.040392
G1 X9.0 Z0.000000
G1 X22.1 Z0.000000
G1 X22.2 Z0.050588
G1 X22.3 Z0.100000
G1 X26.8 Z0.100000
G1 X26.9 Z0.087059
G1 X27.0 Z0.002745
G1 X27.1 Z0.000000
G1 X31.5 Z0.000000
G1 X31.6 Z0.100000
G1 X36.2 Z0.100000
G1 X36.3 Z0.033725
G1 X36.4 Z0.000000
G1 X40.9 Z0.000000
G1 X41.0 Z0.006667
G1 X41.1 Z0.100000
G1 X45.6 Z0.100000
G1 X45.7 Z0.024314
G1 X45.8 Z0.000000
G1 X46.1
G0 X46.0 Y13.3 Z0 
G1 X45.7 Z0.097647
G1 X45.6 Z0.100000
G1 X41.1 Z0.097647
G1 X41.0 Z0.014118
G1 X40.9 Z0.000000
G1 X36.3 Z0.021176
G1 X36.2 Z0.100000
G1 X31.6 Z0.068627
G1 X31.5 Z0.000000
G1 X27.0 Z0.000392
G1 X26.9 Z0.100000
G1 X22.2 Z0.000000
G1 X9.1 Z0.053725
G1 X9.0 Z0.100000
G1 X4.4 Z0.098431
G1 X4.3 Z0.016078
G1 X4.2 Z0.000000
G1 X3.9
G0 X4.0 Y13.4 Z0 
G1 X4.3 Z0.008627
G1 X4.4 Z0.100000
G1 X9.0 Z0.100000
G1 X9.1 Z0.000000
G1 X22.0 Z0.000000
G1 X22.1 Z0.076471
G1 X22.2 Z0.100000
G1 X26.7 Z0.100000
G1 X26.8 Z0.061961
G1 X26.9 Z0.000000
G1 X31.3 Z0.000000
G1 X31.4 Z0.080000
G1 X31.5 Z0.100000
G1 X36.0 Z0.100000
G1 X36.1 Z0.096471
G1 X36.2 Z0.000000
G1 X40.8 Z0.000000
G1 X40.9 Z0.100000
G1 X45.5 Z0.100000
G1 X45.6 Z0.005882
G1 X45.7 Z0.000000
G1 X46.0
G0 X45.9 Y13.5 Z0 
G1 X45.6 Z0.100000
G1 X40.9 Z0.001176
G1 X40.8 Z0.000000
G1 X36.2 Z0.049412
G1 X36.1 Z0.100000
G1 X31.4 Z0.000000
G1 X26.9 Z0.009804
G1 X26.8 Z0.095294
G1 X26.7 Z0.100000
G1 X22.1 Z0.000000
G1 X9.2 Z0.023529
G1 X9.1 Z0.100000
G1 X4.4 Z0.000000
G1 X4.1
G0 X4.1 Y13.6 Z0 
G1 X4.4 Z0.032941
G1 X4.5 Z0.100000
G1 X9.1 Z0.100000
G1 X9.2 Z0.036078
G1 X9.3 Z0.000000
G1 X21.9 Z0.000000
G1 X22.0 Z0.048235
G1 X22.1 Z0.100000
G1 X26.6 Z0.100000
G1 X26.7 Z0.003529
G1 X26.8 Z0.000000
G1 X31.2 Z0.000000
G1 X31.3 Z0.052549
G1 X31.4 Z0.100000
G1 X36.0 Z0.100000
G1 X36.1 Z0.000000
G1 X40.6 Z0.000000
G1 X40.7 Z0.005882
G1 X40.8 Z0.092157
G1 X40.9 Z0.100000
G1 X45.4 Z0.100000
G1 X45.5 Z0.027451
G1 X45.6 Z0.000000
G1 X45.9
G0 X45.8 Y13.7 Z0 
G1 X45.5 Z0.069412
G1 X45.4 Z0.100000
G1 X40.8 Z0.054902
G1 X40.7 Z0.000000
G1 X36.1 Z0.080000
G1 X36.0 Z0.100000
G1 X31.4 Z0.095686
G1 X31.3 Z0.010980
G1 X31.2 Z0.000000
G1 X26.7 Z0.100000
G1 X22.1 Z0.094510
G1 X22.0 Z0.009020
G1 X21.9 Z0.000000
G1 X9.3 Z0.089412
G1 X9.2 Z0.100000
G1 X4.6 Z0.075686
G1 X4.5 Z0.000000
G1 X4.2
G0 X4.3 Y13.8 Z0 
G1 X4.6 Z0.100000
G1 X9.2 Z0.100000
G1 X9.3 Z0.010980
G1 X9.4 Z0.000000
G1 X21.8 Z0.000000
G1 X21.9 Z0.098824
G1 X22.0 Z0.100000
G1 X26.5 Z0.100000
G1 X26.6 Z0.023137
G1 X26.7 Z0.000000
G1 X31.1 Z0.000000
G1 X31.2 Z0.099608
G1 X31.3 Z0.100000
G1 X35.8 Z0.100000
G1 X35.9 Z0.065490
G1 X36.0 Z0.000000
G1 X40.6 Z0.000000
G1 X40.7 Z0.100000
G1 X45.3 Z0.100000
G1 X45.4 Z0.000000
G1 X45.7
G0 X45.7 Y13.9 Z0 
G1 X45.4 Z0.041961
G1 X45.3 Z0.100000
G1 X40.7 Z0.081961
G1 X40.6 Z0.000000
G1 X35.9 Z0.100000
G1 X31.2 Z0.035686
G1 X31.1 Z0.000000
G1 X26.6 Z0.096471
G1 X26.5 Z0.100000
G1 X21.9 Z0.031765
G1 X21.8 Z0.000000
G1 X9.4 Z0.098824
G1 X9.3 Z0.100000
G1 X4.7 Z0.049412
G1 X4.6 Z0.000000
G1 X4.3
G0 X4.3 Y14.0 Z0 
G1 X4.6 Z0.003529
G1 X4.7 Z0.100000
G1 X9.3 Z0.100000
G1 X9.4 Z0.000392
G1 X9.5 Z0.000000
G1 X21.6 Z0.000000
G1 X21.7 Z0.002353
G1 X21.8 Z0.085098
G1 X21.9 Z0.100000
G1 X26.4 Z0.100000
G1 X26.5 Z0.049804
G1 X26.6 Z0.000000
G1 X31.0 Z0.000000
G1 X31.1 Z0.087451
G1 X31.2 Z0.100000
G1 X35.7 Z0.100000
G1 X35.8 Z0.090588
G1 X35.9 Z0.000000
G1 X40.5 Z0.000000
G1 X40.6 Z0.100000
G1 X45.1 Z0.100000
G1 X45.2 Z0.083922
G1 X45.3 Z0.001569
G1 X45.4 Z0.000000
G1 X45.7
G0 X45.5 Y14.1 Z0 
G1 X45.2 Z0.100000
G1 X40.6 Z0.054510
G1 X40.5 Z0.000000
G1 X35.9 Z0.001176
G1 X35.8 Z0.081176
G1 X35.7 Z0.100000
G1 X31.1 Z0.009020
G1 X31.0 Z0.000000
G1 X26.5 Z0.036863
G1 X26.4 Z0.100000
G1 X21.8 Z0.093725
G1 X21.7 Z0.000000
G1 X9.6 Z0.002353
G1 X9.5 Z0.087059
G1 X9.4 Z0.100000
G1 X4.8 Z0.076471
G1 X4.7 Z0.000000
G1 X4.4
G0 X4.4 Y14.2 Z0 
G1 X4.7 Z0.021176
G1 X4.8 Z0.099608
G1 X4.9 Z0.100000
G1 X9.4 Z0.100000
G1 X9.5 Z0.045490
G1 X9.6 Z0.000000
G1 X21.6 Z0.000000
G1 X21.7 Z0.100000
G1 X26.3 Z0.100000
G1 X26.4 Z0.001176
G1 X26.5 Z0.000000
G1 X30.9 Z0.000000
G1 X31.0 Z0.062353
G1 X31.1 Z0.100000
G1 X35.6 Z0.100000
G1 X35.7 Z0.026667
G1 X35.8 Z0.000000
G1 X40.3 Z0.000000
G1 X40.4 Z0.012941
G1 X40.5 Z0.097647
G1 X40.6 Z0.100000
G1 X45.0 Z0.100000
G1 X45.1 Z0.098824
G1 X45.2 Z0.000000
G1 X45.5
G0 X45.5 Y14.3 Z0 
G1 X45.2 Z0.007451
G1 X45.1 Z0.100000
G1 X40.4 Z0.000000
G1 X35.7 Z0.097647
G1 X35.6 Z0.100000
G1 X31.0 Z0.075686
G1 X30.9 Z0.000000
G1 X26.4 Z0.066275
G1 X26.3 Z0.100000
G1 X21.7 Z0.071765
G1 X21.6 Z0.000000
G1 X9.6 Z0.100000
G1 X4.9 Z0.010980
G1 X4.8 Z0.000000
G1 X4.5
G0 X4.6 Y14.4 Z0 
G1 X4.9 Z0.089412
G1 X5.0 Z0.100000
G1 X9.5 Z0.100000
G1 X9.6 Z0.073725
G1 X9.7 Z0.000000
G1 X21.4 Z0.000000
G1 X21.5 Z0.001176
G1 X21.6 Z0.100000
G1 X26.1 Z0.100000
G1 X26.2 Z0.052549
G1 X26.3 Z0.000000
G1 X30.7 Z0.000000
G1 X30.8 Z0.002353
G1 X30.9 Z0.100000
G1 X35.5 Z0.100000
G1 X35.6 Z0.005882
G1 X35.7 Z0.000000
G1 X40.2 Z0.000000
G1 X40.3 Z0.038824
G1 X40.4 Z0.100000
G1 X44.9 Z0.100000
G1 X45.0 Z0.086275
G1 X45.1 Z0.000000
G1 X45.4
G0 X45.4 Y14.5 Z0 
G1 X45.1 Z0.030588
G1 X45.0 Z0.100000
G1 X40.4 Z0.090196
G1 X40.3 Z0.004314
G1 X40.2 Z0.000000
G1 X35.6 Z0.100000
G1 X30.9 Z0.045490
G1 X30.8 Z0.000000
G1 X26.3 Z0.005490
G1 X26.2 Z0.100000
G1 X21.6 Z0.042353
G1 X21.5 Z0.000000
G1 X9.8 Z0.027843
G1 X9.7 Z0.100000
G1 X5.0 Z0.037255
G1 X4.9 Z0.000000
G1 X4.6
G0 X4.7 Y14.6 Z0 
G1 X5.0 Z0.022353
G1 X5.1 Z0.100000
G1 X9.7 Z0.100000
G1 X9.8 Z0.000000
G1 X21.3 Z0.000000
G1 X21.4 Z0.055686
G1 X21.5 Z0.100000
G1 X26.0 Z0.100000
G1 X26.1 Z0.081176
G1 X26.2 Z0.000000
G1 X30.6 Z0.000000
G1 X30.7 Z0.059216
G1 X30.8 Z0.100000
G1 X35.4 Z0.100000
G1 X35.5 Z0.027451
G1 X35.6 Z0.000000
G1 X40.1 Z0.000000
G1 X40.2 Z0.096863
G1 X40.3 Z0.100000
G1 X44.8 Z0.100000
G1 X44.9 Z0.020000
G1 X45.0 Z0.000000
G1 X45.3
G0 X45.2 Y14.7 Z0 
G1 X44.9 Z0.100000
G1 X40.2 Z0.000000
G1 X35.5 Z0.070196
G1 X35.4 Z0.100000
G1 X30.8 Z0.098431
G1 X30.7 Z0.000000
G1 X26.2 Z0.026667
G1 X26.1 Z0.100000
G1 X21.5 Z0.097647
G1 X21.4 Z0.000000
G1 X9.9 Z0.006667
G1 X9.8 Z0.100000
G1 X5.1 Z0.000000
G1 X4.8
G0 X4.8 Y14.8 Z0 
G1 X5.1 Z0.053725
G1 X5.2 Z0.100000
G1 X9.7 Z0.100000
G1 X9.8 Z0.097647
G1 X9.9 Z0.000000
G1 X21.2 Z0.000000
G1 X21.3 Z0.025490
G1 X21.4 Z0.100000
G1 X25.9 Z0.100000
G1 X26.0 Z0.097647
G1 X26.1 Z0.000000
G1 X30.5 Z0.000000
G1 X30.6 Z0.028627
G1 X30.7 Z0.100000
G1 X35.3 Z0.100000
G1 X35.4 Z0.000000
G1 X40.0 Z0.000000
G1 X40.1 Z0.078824
G1 X40.2 Z0.100000
G1 X44.7 Z0.100000
G1 X44.8 Z0.046667
G1 X44.9 Z0.000000
G1 X45.2
G0 X45.1 Y14.9 Z0 
G1 X44.8 Z0.032941
G1 X44.7 Z0.100000
G1 X40.1 Z0.004314
G1 X40.0 Z0.000000
G1 X35.4 Z0.041961
G1 X35.3 Z0.100000
G1 X30.6 Z0.000000
G1 X26.1 Z0.005882
G1 X26.0 Z0.092157
G1 X25.9 Z0.100000
G1 X21.3 Z0.039216
G1 X21.2 Z0.000000
G1 X10.0 Z0.024314
G1 X9.9 Z0.100000
G1 X5.3 Z0.040000
G1 X5.2 Z0.000000
G1 X4.9
G0 X4.9 Y15.0 Z0 
G1 X5.2 Z0.001176
G1 X5.3 Z0.100000
G1 X9.8 Z0.100000
G1 X9.9 Z0.080784
G1 X10.0 Z0.001176
G1 X10.1 Z0.000000
G1 X21.1 Z0.000000
G1 X21.2 Z0.090196
G1 X21.3 Z0.100000
G1 X25.8 Z0.100000
G1 X25.9 Z0.040392
G1 X26.0 Z0.000000
G1 X30.4 Z0.000000
G1 X30.5 Z0.006667
G1 X30.6 Z0.100000
G1 X35.1 Z0.100000
G1 X35.2 Z0.084314
G1 X35.3 Z0.001569
G1 X35.4 Z0.000000
G1 X39.9 Z0.000000
G1 X40.0 Z0.051373
G1 X40.1 Z0.100000
G1 X44.6 Z0.100000
G1 X44.7 Z0.000392
G1 X44.8 Z0.000000
G1 X45.1
G0 X45.0 Y15.1 Z0 
G1 X44.7 Z0.062353
G1 X44.6 Z0.100000
G1 X40.0 Z0.065490
G1 X39.9 Z0.000000
G1 X35.2 Z0.100000
G1 X30.6 Z0.097647
G1 X30.5 Z0.013725
G1 X30.4 Z0.000000
G1 X25.9 Z0.100000
G1 X21.2 Z0.012157
G1 X21.1 Z0.000000
G1 X10.1 Z0.089412
G1 X10.0 Z0.100000
G1 X5.4 Z0.070196
G1 X5.3 Z0.000000
G1 X5.0
G0 X5.0 Y15.2 Z0 
G1 X5.3 Z0.013725
G1 X5.4 Z0.100000
G1 X10.0 Z0.100000
G1 X10.1 Z0.000000
G1 X21.0 Z0.000000
G1 X21.1 Z0.066275
G1 X21.2 Z0.100000
G1 X25.7 Z0.100000
G1 X25.8 Z0.070196
G1 X25.9 Z0.000000
G1 X30.3 Z0.000000
G1 X30.4 Z0.069412
G1 X30.5 Z0.100000
G1 X35.0 Z0.100000
G1 X35.1 Z0.098824
G1 X35.2 Z0.000000
G1 X39.8 Z0.000000
G1 X39.9 Z0.099608
G1 X40.0 Z0.100000
G1 X44.5 Z0.100000
G1 X44.6 Z0.010980
G1 X44.7 Z0.000000
G1 X45.0
G0 X44.9 Y15.3 Z0 
G1 X44.6 Z0.089020
G1 X44.5 Z0.100000
G1 X39.9 Z0.036078
G1 X39.8 Z0.000000
G1 X35.2 Z0.007451
G1 X35.1 Z0.100000
G1 X30.4 Z0.001176
G1 X30.3 Z0.000000
G1 X25.8 Z0.056078
G1 X25.7 Z0.100000
G1 X21.1 Z0.000392
G1 X21.0 Z0.000000
G1 X10.2 Z0.063137
G1 X10.1 Z0.100000
G1 X5.5 Z0.092157
G1 X5.4 Z0.000000
G1 X5.1
G0 X5.1 Y15.4 Z0 
G1 X5.4 Z0.001176
G1 X5.5 Z0.083137
G1 X5.6 Z0.100000
G1 X10.1 Z0.100000
G1 X10.2 Z0.077647
G1 X10.3 Z0.000000
G1 X20.8 Z0.000000
G1 X20.9 Z0.003529
G1 X21.0 Z0.088235
G1 X21.1 Z0.100000
G1 X25.6 Z0.100000
G1 X25.7 Z0.000000
G1 X30.1 Z0.000000
G1 X30.2 Z0.004314
G1 X30.3 Z0.090196
G1 X30.4 Z0.100000
G1 X34.9 Z0.100000
G1 X35.0 Z0.086275
G1 X35.1 Z0.000000
G1 X39.6 Z0.000000
G1 X39.7 Z0.049804
G1 X39.8 Z0.100000
G1 X44.3 Z0.100000
G1 X44.4 Z0.078039
G1 X44.5 Z0.000392
G1 X44.6 Z0.000000
G1 X44.9
G0 X44.8 Y15.5 Z0 
G1 X44.5 Z0.023137
G1 X44.4 Z0.100000
G1 X39.8 Z0.095686
G1 X39.7 Z0.000000
G1 X35.1 Z0.030588
G1 X35.0 Z0.100000
G1 X30.3 Z0.052549
G1 X30.2 Z0.000000
G1 X25.7 Z0.084314
G1 X25.6 Z0.100000
G1 X21.0 Z0.049804
G1 X20.9 Z0.000000
G1 X10.3 Z0.100000
G1 X5.6 Z0.028627
G1 X5.5 Z0.000000
G1 X5.2
G0 X5.3 Y15.6 Z0 
G1 X5.6 Z0.097647
G1 X5.7 Z0.100000
G1 X10.2 Z0.100000
G1 X10.3 Z0.046275
G1 X10.4 Z0.000000
G1 X20.8 Z0.000000
G1 X20.9 Z0.100000
G1 X25.5 Z0.100000
G1 X25.6 Z0.000000
G1 X30.1 Z0.000000
G1 X30.2 Z0.100000
G1 X34.8 Z0.100000
G1 X34.9 Z0.020000
G1 X35.0 Z0.000000
G1 X39.5 Z0.000000
G1 X39.6 Z0.021176
G1 X39.7 Z0.100000
G1 X44.2 Z0.100000
G1 X44.3 Z0.096471
G1 X44.4 Z0.000000
G1 X44.7
G0 X44.7 Y15.7 Z0 
G1 X44.4 Z0.050588
G1 X44.3 Z0.100000
G1 X39.7 Z0.076471
G1 X39.6 Z0.000000
G1 X34.9 Z0.100000
G1 X30.2 Z0.022353
G1 X30.1 Z0.000000
G1 X25.6 Z0.098824
G1 X25.5 Z0.100000
G1 X20.9 Z0.020000
G1 X20.8 Z0.000000
G1 X10.4 Z0.095294
G1 X10.3 Z0.100000
G1 X5.7 Z0.058039
G1 X5.6 Z0.000000
G1 X5.3
G0 X5.4 Y15.8 Z0 
G1 X5.7 Z0.045098
G1 X5.8 Z0.100000
G1 X10.3 Z0.100000
G1 X10.4 Z0.017255
G1 X10.5 Z0.000000
G1 X20.6 Z0.000000
G1 X20.7 Z0.033725
G1 X20.8 Z0.100000
G1 X25.3 Z0.100000
G1 X25.4 Z0.094510
G1 X25.5 Z0.009020
G1 X25.6 Z0.000000
G1 X30.0 Z0.000000
G1 X30.1 Z0.100000
G1 X34.7 Z0.100000
G1 X34.8 Z0.046667
G1 X34.9 Z0.000000
G1 X39.4 Z0.000000
G1 X39.5 Z0.003529
G1 X39.6 Z0.100000
G1 X44.1 Z0.100000
G1 X44.2 Z0.036863
G1 X44.3 Z0.000000
G1 X44.6
G0 X44.5 Y15.9 Z0 
G1 X44.2 Z0.100000
G1 X39.6 Z0.095686
G1 X39.5 Z0.010588
G1 X39.4 Z0.000000
G1 X34.8 Z0.032941
G1 X34.7 Z0.100000
G1 X30.1 Z0.049412
G1 X30.0 Z0.000000
G1 X25.5 Z0.002353
G1 X25.4 Z0.100000
G1 X20.7 Z0.000000
G1 X10.6 Z0.028627
G1 X10.5 Z0.100000
G1 X5.8 Z0.000000
G1 X5.5
G0 X5.5 Y16.0 Z0 
G1 X5.8 Z0.073333
G1 X5.9 Z0.100000
G1 X10.4 Z0.100000
G1 X10.5 Z0.084314
G1 X10.6 Z0.000000
G1 X20.5 Z0.000000
G1 X20.6 Z0.008627
G1 X20.7 Z0.100000
G1 X25.3 Z0.100000
G1 X25.4 Z0.000000
G1 X29.8 Z0.000000
G1 X29.9 Z0.009804
G1 X30.0 Z0.095686
G1 X30.1 Z0.100000
G1 X34.6 Z0.100000
G1 X34.7 Z0.000392
G1 X34.8 Z0.000000
G1 X39.3 Z0.000000
G1 X39.4 Z0.063137
G1 X39.5 Z0.100000
G1 X44.0 Z0.100000
G1 X44.1 Z0.066275
G1 X44.2 Z0.000000
G1 X44.5
G0 X44.4 Y16.1 Z0 
G1 X44.1 Z0.100000
G1 X39.4 Z0.000000
G1 X34.7 Z0.062353
G1 X34.6 Z0.100000
G1 X30.0 Z0.098824
G1 X29.9 Z0.000000
G1 X25.4 Z0.020000
G1 X25.3 Z0.098824
G1 X25.2 Z0.100000
G1 X20.7 Z0.098824
G1 X20.6 Z0.000000
G1 X10.7 Z0.006667
G1 X10.6 Z0.100000
G1 X5.9 Z0.000000
G1 X5.6
G0 X5.6 Y16.2 Z0 
G1 X5.9 Z0.094510
G1 X6.0 Z0.100000
G1 X10.5 Z0.100000
G1 X10.6 Z0.054902
G1 X10.7 Z0.000000
G1 X20.5 Z0.000000
G1 X20.6 Z0.100000
G1 X25.1 Z0.100000
G1 X25.2 Z0.060784
G1 X25.3 Z0.000000
G1 X29.8 Z0.000000
G1 X29.9 Z0.100000
G1 X34.5 Z0.100000
G1 X34.6 Z0.010980
G1 X34.7 Z0.000000
G1 X39.2 Z0.000000
G1 X39.3 Z0.033725
G1 X39.4 Z0.100000
G1 X43.9 Z0.100000
G1 X44.0 Z0.091373
G1 X44.1 Z0.000000
G1 X44.4
G0 X44.4 Y16.3 Z0 
G1 X44.1 Z0.001176
G1 X44.0 Z0.081176
G1 X43.9 Z0.100000
G1 X39.3 Z0.048235
G1 X39.2 Z0.000000
G1 X34.6 Z0.089020
G1 X34.5 Z0.100000
G1 X29.9 Z0.085098
G1 X29.8 Z0.002353
G1 X29.7 Z0.000000
G1 X25.2 Z0.100000
G1 X20.6 Z0.085098
G1 X20.5 Z0.002353
G1 X20.4 Z0.000000
G1 X10.8 Z0.068235
G1 X10.7 Z0.100000
G1 X6.1 Z0.086275
G1 X6.0 Z0.002353
G1 X5.9 Z0.000000
G1 X5.6
G0 X5.8 Y16.4 Z0 
G1 X6.1 Z0.100000
G1 X10.7 Z0.100000
G1 X10.8 Z0.001176
G1 X10.9 Z0.000000
G1 X20.3 Z0.000000
G1 X20.4 Z0.092549
G1 X20.5 Z0.100000
G1 X25.0 Z0.100000
G1 X25.1 Z0.032941
G1 X25.2 Z0.000000
G1 X29.6 Z0.000000
G1 X29.7 Z0.093725
G1 X29.8 Z0.100000
G1 X34.3 Z0.100000
G1 X34.4 Z0.078039
G1 X34.5 Z0.000392
G1 X34.6 Z0.000000
G1 X39.1 Z0.000000
G1 X39.2 Z0.100000
G1 X43.8 Z0.100000
G1 X43.9 Z0.000000
G1 X44.2
G0 X44.2 Y16.5 Z0 
G1 X43.9 Z0.097647
G1 X43.8 Z0.100000
G1 X39.2 Z0.018431
G1 X39.1 Z0.000000
G1 X34.5 Z0.023137
G1 X34.4 Z0.100000
G1 X29.7 Z0.000000
G1 X25.2 Z0.000392
G1 X25.1 Z0.100000
G1 X20.4 Z0.000000
G1 X10.9 Z0.038039
G1 X10.8 Z0.100000
G1 X6.2 Z0.098824
G1 X6.1 Z0.000000
G1 X5.8
G0 X5.8 Y16.6 Z0 
G1 X6.1 Z0.010588
G1 X6.2 Z0.095686
G1 X6.3 Z0.100000
G1 X10.8 Z0.100000
G1 X10.9 Z0.000000
G1 X20.2 Z0.000000
G1 X20.3 Z0.071373
G1 X20.4 Z0.100000
G1 X24.9 Z0.100000
G1 X25.0 Z0.062353
G1 X25.1 Z0.000000
G1 X29.5 Z0.000000
G1 X29.6 Z0.071765
G1 X29.7 Z0.100000
G1 X34.2 Z0.100000
G1 X34.3 Z0.096471
G1 X34.4 Z0.000000
G1 X39.0 Z0.000000
G1 X39.1 Z0.100000
G1 X43.6 Z0.100000
G1 X43.7 Z0.092549
G1 X43.8 Z0.006667
G1 X43.9 Z0.000000
G1 X44.2
G0 X44.1 Y16.7 Z0 
G1 X43.8 Z0.041176
G1 X43.7 Z0.100000
G1 X39.1 Z0.002353
G1 X39.0 Z0.000000
G1 X34.4 Z0.050588
G1 X34.3 Z0.100000
G1 X29.6 Z0.000000
G1 X25.1 Z0.010980
G1 X25.0 Z0.095686
G1 X24.9 Z0.100000
G1 X20.3 Z0.026667
G1 X20.2 Z0.000000
G1 X11.0 Z0.011765
G1 X10.9 Z0.100000
G1 X6.3 Z0.049412
G1 X6.2 Z0.000000
G1 X5.9
G0 X6.0 Y16.8 Z0 
G1 X6.3 Z0.100000
G1 X10.8 Z0.100000
G1 X10.9 Z0.099608
G1 X11.0 Z0.023137
G1 X11.1 Z0.000000
G1 X20.1 Z0.000000
G1 X20.2 Z0.100000
G1 X24.8 Z0.100000
G1 X24.9 Z0.004314
G1 X25.0 Z0.000000
G1 X29.4 Z0.000000
G1 X29.5 Z0.042353
G1 X29.6 Z0.100000
G1 X34.1 Z0.100000
G1 X34.2 Z0.036863
G1 X34.3 Z0.000000
G1 X38.8 Z0.000000
G1 X38.9 Z0.008627
G1 X39.0 Z0.093725
G1 X39.1 Z0.100000
G1 X43.6 Z0.100000
G1 X43.7 Z0.000000
G1 X44.0
G0 X44.0 Y16.9 Z0 
G1 X43.7 Z0.017255
G1 X43.6 Z0.100000
G1 X39.0 Z0.098824
G1 X38.9 Z0.000000
G1 X34.2 Z0.100000
G1 X29.5 Z0.055686
G1 X29.4 Z0.000000
G1 X24.9 Z0.078824
G1 X24.8 Z0.100000
G1 X20.2 Z0.054902
G1 X20.1 Z0.000000
G1 X11.1 Z0.100000
G1 X6.4 Z0.021569
G1 X6.3 Z0.000000
G1 X6.0
G0 X6.1 Y17.0 Z0 
G1 X6.4 Z0.100000
G1 X11.0 Z0.100000
G1 X11.1 Z0.003529
G1 X11.2 Z0.000000
G1 X20.0 Z0.000000
G1 X20.1 Z0.097647
G1 X20.2 Z0.100000
G1 X24.6 Z0.100000
G1 X24.7 Z0.099608
G1 X24.8 Z0.023137
G1 X24.9 Z0.000000
G1 X29.3 Z0.000000
G1 X29.4 Z0.097647
G1 X29.5 Z0.100000
G1 X34.0 Z0.100000
G1 X34.1 Z0.066275
G1 X34.2 Z0.000000
G1 X38.8 Z0.000000
G1 X38.9 Z0.100000
G1 X43.5 Z0.100000
G1 X43.6 Z0.000000
G1 X43.9
G0 X43.9 Y17.1 Z0 
G1 X43.6 Z0.043529
G1 X43.5 Z0.100000
G1 X38.9 Z0.085098
G1 X38.8 Z0.002353
G1 X38.7 Z0.000000
G1 X34.1 Z0.100000
G1 X29.4 Z0.025490
G1 X29.3 Z0.000000
G1 X24.8 Z0.011765
G1 X24.7 Z0.100000
G1 X20.1 Z0.024706
G1 X20.0 Z0.000000
G1 X11.3 Z0.009020
G1 X11.2 Z0.095294
G1 X11.1 Z0.100000
G1 X6.5 Z0.051765
G1 X6.4 Z0.000000
G1 X6.1
G0 X6.1 Y17.2 Z0 
G1 X6.4 Z0.004314
G1 X6.5 Z0.090196
G1 X6.6 Z0.100000
G1 X11.1 Z0.100000
G1 X11.2 Z0.060000
G1 X11.3 Z0.000000
G1 X19.8 Z0.000000
G1 X19.9 Z0.001176
G1 X20.0 Z0.080000
G1 X20.1 Z0.100000
G1 X24.6 Z0.100000
G1 X24.7 Z0.000000
G1 X29.1 Z0.000000
G1 X29.2 Z0.001176
G1 X29.3 Z0.080000
G1 X29.4 Z0.100000
G1 X33.9 Z0.100000
G1 X34.0 Z0.091373
G1 X34.1 Z0.000000
G1 X38.6 Z0.000000
G1 X38.7 Z0.045490
G1 X38.8 Z0.100000
G1 X43.3 Z0.100000
G1 X43.4 Z0.086275
G1 X43.5 Z0.002353
G1 X43.6 Z0.000000
G1 X43.9
G0 X43.7 Y17.3 Z0 
G1 X43.4 Z0.100000
G1 X38.7 Z0.000000
G1 X34.1 Z0.001176
G1 X34.0 Z0.081176
G1 X33.9 Z0.100000
G1 X29.3 Z0.090196
G1 X29.2 Z0.000000
G1 X24.7 Z0.037255
G1 X24.6 Z0.100000
G1 X20.0 Z0.090196
G1 X19.9 Z0.000000
G1 X11.3 Z0.100000
G1 X6.6 Z0.001176
G1 X6.5 Z0.000000
G1 X6.2
G0 X6.3 Y17.4 Z0 
G1 X6.6 Z0.068235
G1 X6.7 Z0.100000
G1 X11.2 Z0.100000
G1 X11.3 Z0.084314
G1 X11.4 Z0.000000
G1 X19.7 Z0.000000
G1 X19.8 Z0.010980
G1 X19.9 Z0.100000
G1 X24.5 Z0.100000
G1 X24.6 Z0.000000
G1 X29.0 Z0.000000
G1 X29.1 Z0.010980
G1 X29.2 Z0.100000
G1 X33.8 Z0.100000
G1 X33.9 Z0.000000
G1 X38.5 Z0.000000
G1 X38.6 Z0.072549
G1 X38.7 Z0.100000
G1 X43.2 Z0.100000
G1 X43.3 Z0.059216
G1 X43.4 Z0.000000
G1 X43.7
G0 X43.7 Y17.5 Z0 
G1 X43.4 Z0.009020
G1 X43.3 Z0.095294
G1 X43.2 Z0.100000
G1 X38.6 Z0.000000
G1 X33.9 Z0.097647
G1 X33.8 Z0.100000
G1 X29.2 Z0.066275
G1 X29.1 Z0.000000
G1 X24.6 Z0.067059
G1 X24.5 Z0.100000
G1 X19.9 Z0.066275
G1 X19.8 Z0.000000
G1 X11.4 Z0.100000
G1 X6.8 Z0.097647
G1 X6.7 Z0.012941
G1 X6.6 Z0.000000
G1 X6.3
G0 X6.4 Y17.6 Z0 
G1 X6.7 Z0.004706
G1 X6.8 Z0.100000
G1 X11.3 Z0.100000
G1 X11.4 Z0.055686
G1 X11.5 Z0.000000
G1 X19.6 Z0.000000
G1 X19.7 Z0.078824
G1 X19.8 Z0.100000
G1 X24.3 Z0.100000
G1 X24.4 Z0.052941
G1 X24.5 Z0.000000
G1 X28.9 Z0.000000
G1 X29.0 Z0.000392
G1 X29.1 Z0.100000
G1 X33.6 Z0.100000
G1 X33.7 Z0.092549
G1 X33.8 Z0.006667
G1 X33.9 Z0.000000
G1 X38.4 Z0.000000
G1 X38.5 Z0.044314
G1 X38.6 Z0.100000
G1 X43.1 Z0.100000
G1 X43.2 Z0.002353
G1 X43.3 Z0.000000
G1 X43.6
G0 X43.5 Y17.7 Z0 
G1 X43.2 Z0.100000
G1 X38.6 Z0.092549
G1 X38.5 Z0.006667
G1 X38.4 Z0.000000
G1 X33.8 Z0.041176
G1 X33.7 Z0.100000
G1 X29.1 Z0.036078
G1 X29.0 Z0.000000
G1 X24.5 Z0.005882
G1 X24.4 Z0.100000
G1 X19.7 Z0.000000
G1 X11.6 Z0.014902
G1 X11.5 Z0.097647
G1 X11.4 Z0.100000
G1 X6.8 Z0.000000
G1 X6.5
G0 X6.5 Y17.8 Z0 
G1 X6.8 Z0.025490
G1 X6.9 Z0.100000
G1 X11.5 Z0.100000
G1 X11.6 Z0.000000
G1 X19.5 Z0.000000
G1 X19.6 Z0.049412
G1 X19.7 Z0.100000
G1 X24.2 Z0.100000
G1 X24.3 Z0.081176
G1 X24.4 Z0.000000
G1 X28.8 Z0.000000
G1 X28.9 Z0.049412
G1 X29.0 Z0.100000
G1 X33.6 Z0.100000
G1 X33.7 Z0.000000
G1 X38.3 Z0.000000
G1 X38.4 Z0.097647
G1 X38.5 Z0.100000
G1 X43.0 Z0.100000
G1 X43.1 Z0.020000
G1 X43.2 Z0.000000
G1 X43.5
G0 X43.4 Y17.9 Z0 
G1 X43.1 Z0.095294
G1 X43.0 Z0.100000
G1 X38.4 Z0.029412
G1 X38.3 Z0.000000
G1 X33.7 Z0.016863
G1 X33.6 Z0.100000
G1 X28.9 Z0.000000
G1 X24.3 Z0.068627
G1 X24.2 Z0.100000
G1 X19.6 Z0.000000
G1 X11.7 Z0.038824
G1 X11.6 Z0.100000
G1 X7.0 Z0.097647
G1 X6.9 Z0.000000
G1 X6.6
G0 X6.6 Y18.0 Z0 
G1 X6.9 Z0.056078
G1 X7.0 Z0.100000
G1 X11.5 Z0.100000
G1 X11.6 Z0.091373
G1 X11.7 Z0.005490
G1 X11.8 Z0.000000
G1 X19.4 Z0.000000
G1 X19.5 Z0.019216
G1 X19.6 Z0.100000
G1 X24.1 Z0.100000
G1 X24.2 Z0.014902
G1 X24.3 Z0.000000
G1 X28.7 Z0.000000
G1 X28.8 Z0.019216
G1 X28.9 Z0.100000
G1 X33.5 Z0.100000
G1 X33.6 Z0.000000
G1 X38.1 Z0.000000
G1 X38.2 Z0.001176
G1 X38.3 Z0.083137
G1 X38.4 Z0.100000
G1 X42.9 Z0.100000
G1 X43.0 Z0.048627
G1 X43.1 Z0.000000
G1 X43.4
G0 X43.3 Y18.1 Z0 
G1 X43.0 Z0.034902
G1 X42.9 Z0.100000
G1 X38.3 Z0.092549
G1 X38.2 Z0.000000
G1 X33.6 Z0.043529
G1 X33.5 Z0.100000
G1 X28.8 Z0.032941
G1 X28.7 Z0.000000
G1 X24.2 Z0.092549
G1 X24.1 Z0.100000
G1 X19.5 Z0.032941
G1 X19.4 Z0.000000
G1 X11.8 Z0.096863
G1 X11.7 Z0.100000
G1 X7.1 Z0.043137
G1 X7.0 Z0.000000
G1 X6.7
G0 X6.7 Y18.2 Z0 
G1 X7.0 Z0.001176
G1 X7.1 Z0.100000
G1 X11.7 Z0.100000
G1 X11.8 Z0.000000
G1 X19.3 Z0.000000
G1 X19.4 Z0.085882
G1 X19.5 Z0.100000
G1 X24.0 Z0.100000
G1 X24.1 Z0.041176
G1 X24.2 Z0.000000
G1 X28.6 Z0.000000
G1 X28.7 Z0.085882
G1 X28.8 Z0.100000
G1 X33.3 Z0.100000
G1 X33.4 Z0.084314
G1 X33.5 Z0.001569
G1 X33.6 Z0.000000
G1 X38.1 Z0.000000
G1 X38.2 Z0.100000
G1 X42.8 Z0.100000
G1 X42.9 Z0.000392
G1 X43.0 Z0.000000
G1 X43.3
G0 X43.2 Y18.3 Z0 
G1 X42.9 Z0.064314
G1 X42.8 Z0.100000
G1 X38.2 Z0.070588
G1 X38.1 Z0.000000
G1 X33.4 Z0.100000
G1 X28.7 Z0.007843
G1 X28.6 Z0.000000
G1 X24.1 Z0.100000
G1 X19.4 Z0.008627
G1 X19.3 Z0.000000
G1 X11.9 Z0.078824
G1 X11.8 Z0.100000
G1 X7.2 Z0.071765
G1 X7.1 Z0.000000
G1 X6.8
G0 X6.9 Y18.4 Z0 
G1 X7.2 Z0.058824
G1 X7.3 Z0.100000
G1 X11.8 Z0.100000
G1 X11.9 Z0.003529
G1 X12.0 Z0.000000
G1 X19.1 Z0.000000
G1 X19.2 Z0.016863
G1 X19.3 Z0.098431
G1 X19.4 Z0.100000
G1 X23.8 Z0.100000
G1 X23.9 Z0.098431
G1 X24.0 Z0.016863
G1 X24.1 Z0.000000
G1 X28.5 Z0.000000
G1 X28.6 Z0.098431
G1 X28.7 Z0.100000
G1 X33.2 Z0.100000
G1 X33.3 Z0.058824
G1 X33.4 Z0.000000
G1 X37.9 Z0.000000
G1 X38.0 Z0.001176
G1 X38.1 Z0.100000
G1 X42.6 Z0.100000
G1 X42.7 Z0.050588
G1 X42.8 Z0.000000
G1 X43.1
G0 X43.1 Y18.5 Z0 
G1 X42.8 Z0.004314
G1 X42.7 Z0.100000
G1 X38.1 Z0.041961
G1 X38.0 Z0.000000
G1 X33.4 Z0.009020
G1 X33.3 Z0.095294
G1 X33.2 Z0.100000
G1 X28.6 Z0.000000
G1 X24.0 Z0.057647
G1 X23.9 Z0.100000
G1 X19.3 Z0.073333
G1 X19.2 Z0.000000
G1 X12.0 Z0.048235
G1 X11.9 Z0.100000
G1 X7.3 Z0.007843
G1 X7.2 Z0.000000
G1 X6.9
G0 X7.0 Y18.6 Z0 
G1 X7.3 Z0.085098
G1 X7.4 Z0.100000
G1 X11.9 Z0.100000
G1 X12.0 Z0.061176
G1 X12.1 Z0.000000
G1 X19.0 Z0.000000
G1 X19.1 Z0.001569
G1 X19.2 Z0.100000
G1 X23.8 Z0.100000
G1 X23.9 Z0.000000
G1 X28.3 Z0.000000
G1 X28.4 Z0.001176
G1 X28.5 Z0.083137
G1 X28.6 Z0.100000
G1 X33.1 Z0.100000
G1 X33.2 Z0.002353
G1 X33.3 Z0.000000
G1 X37.8 Z0.000000
G1 X37.9 Z0.055686
G1 X38.0 Z0.100000
G1 X42.5 Z0.100000
G1 X42.6 Z0.080784
G1 X42.7 Z0.000000
G1 X43.0
G0 X43.0 Y18.7 Z0 
G1 X42.7 Z0.023529
G1 X42.6 Z0.100000
G1 X38.0 Z0.097647
G1 X37.9 Z0.000000
G1 X33.2 Z0.100000
G1 X28.5 Z0.043137
G1 X28.4 Z0.000000
G1 X23.9 Z0.085882
G1 X23.8 Z0.100000
G1 X19.2 Z0.044314
G1 X19.1 Z0.000000
G1 X12.1 Z0.098824
G1 X12.0 Z0.100000
G1 X7.4 Z0.031765
G1 X7.3 Z0.000000
G1 X7.0
G0 X7.1 Y18.8 Z0 
G1 X7.4 Z0.098824
G1 X7.5 Z0.100000
G1 X12.0 Z0.100000
G1 X12.1 Z0.030588
G1 X12.2 Z0.000000
G1 X19.0 Z0.000000
G1 X19.1 Z0.100000
G1 X23.6 Z0.100000
G1 X23.7 Z0.073725
G1 X23.8 Z0.000000
G1 X28.3 Z0.000000
G1 X28.4 Z0.100000
G1 X33.0 Z0.100000
G1 X33.1 Z0.020000
G1 X33.2 Z0.000000
G1 X37.7 Z0.000000
G1 X37.8 Z0.025490
G1 X37.9 Z0.100000
G1 X42.4 Z0.100000
G1 X42.5 Z0.097647
G1 X42.6 Z0.000000
G1 X42.9
G0 X42.9 Y18.9 Z0 
G1 X42.6 Z0.005490
G1 X42.5 Z0.091373
G1 X42.4 Z0.100000
G1 X37.8 Z0.040392
G1 X37.7 Z0.000000
G1 X33.1 Z0.095294
G1 X33.0 Z0.100000
G1 X28.4 Z0.070196
G1 X28.3 Z0.000000
G1 X23.7 Z0.100000
G1 X19.1 Z0.070588
G1 X19.0 Z0.000000
G1 X12.3 Z0.043529
G1 X12.2 Z0.100000
G1 X7.6 Z0.094510
G1 X7.5 Z0.008627
G1 X7.4 Z0.000000
G1 X7.1
G0 X7.2 Y19.0 Z0 
G1 X7.5 Z0.047451
G1 X7.6 Z0.100000
G1 X12.1 Z0.100000
G1 X12.2 Z0.093333
G1 X12.3 Z0.000000
G1 X18.8 Z0.000000
G1 X18.9 Z0.026275
G1 X19.0 Z0.100000
G1 X23.5 Z0.100000
G1 X23.6 Z0.095294
G1 X23.7 Z0.000000
G1 X28.1 Z0.000000
G1 X28.2 Z0.025490
G1 X28.3 Z0.100000
G1 X32.9 Z0.100000
G1 X33.0 Z0.046667
G1 X33.1 Z0.000000
G1 X37.6 Z0.000000
G1 X37.7 Z0.090196
G1 X37.8 Z0.100000
G1 X42.3 Z0.100000
G1 X42.4 Z0.038824
G1 X42.5 Z0.000000
G1 X42.8
G0 X42.7 Y19.1 Z0 
G1 X42.4 Z0.100000
G1 X37.7 Z0.012941
G1 X37.6 Z0.000000
G1 X33.0 Z0.033725
G1 X32.9 Z0.100000
G1 X28.2 Z0.000000
G1 X23.7 Z0.002353
G1 X23.6 Z0.100000
G1 X18.9 Z0.000000
G1 X12.4 Z0.016863
G1 X12.3 Z0.100000
G1 X7.6 Z0.000000
G1 X7.3
G0 X7.3 Y19.2 Z0 
G1 X7.6 Z0.076471
G1 X7.7 Z0.100000
G1 X12.2 Z0.100000
G1 X12.3 Z0.070196
G1 X12.4 Z0.000000
G1 X18.7 Z0.000000
G1 X18.8 Z0.005490
G1 X18.9 Z0.100000
G1 X23.5 Z0.100000
G1 X23.6 Z0.000000
G1 X28.0 Z0.000000
G1 X28.1 Z0.004706
G1 X28.2 Z0.100000
G1 X32.8 Z0.100000
G1 X32.9 Z0.000392
G1 X33.0 Z0.000000
G1 X37.5 Z0.000000
G1 X37.6 Z0.068235
G1 X37.7 Z0.100000
G1 X42.2 Z0.100000
G1 X42.3 Z0.068235
G1 X42.4 Z0.000000
G1 X42.7
G0 X42.6 Y19.3 Z0 
G1 X42.3 Z0.054902
G1 X42.2 Z0.100000
G1 X37.6 Z0.001176
G1 X37.5 Z0.000000
G1 X32.9 Z0.063137
G1 X32.8 Z0.100000
G1 X28.2 Z0.096863
G1 X28.1 Z0.000000
G1 X23.6 Z0.020000
G1 X23.5 Z0.098824
G1 X23.4 Z0.100000
G1 X18.9 Z0.097647
G1 X18.8 Z0.012941
G1 X18.7 Z0.000000
G1 X12.5 Z0.001176
G1 X12.4 Z0.100000
G1 X7.8 Z0.063137
G1 X7.7 Z0.000000
G1 X7.4
G0 X7.5 Y19.4 Z0 
G1 X7.8 Z0.100000
G1 X12.3 Z0.100000
G1 X12.4 Z0.091373
G1 X12.5 Z0.005882
G1 X12.6 Z0.000000
G1 X18.6 Z0.000000
G1 X18.7 Z0.100000
G1 X23.3 Z0.100000
G1 X23.4 Z0.009020
G1 X23.5 Z0.000000
G1 X27.9 Z0.000000
G1 X28.0 Z0.022353
G1 X28.1 Z0.100000
G1 X32.6 Z0.100000
G1 X32.7 Z0.049412
G1 X32.8 Z0.000000
G1 X37.3 Z0.000000
G1 X37.4 Z0.004706
G1 X37.5 Z0.090196
G1 X37.6 Z0.100000
G1 X42.1 Z0.100000
G1 X42.2 Z0.000000
G1 X42.5
G0 X42.5 Y19.5 Z0 
G1 X42.2 Z0.083922
G1 X42.1 Z0.100000
G1 X37.5 Z0.052941
G1 X37.4 Z0.000000
G1 X32.8 Z0.004314
G1 X32.7 Z0.100000
G1 X28.1 Z0.078824
G1 X28.0 Z0.000392
G1 X27.9 Z0.000000
G1 X23.4 Z0.100000
G1 X18.7 Z0.001176
G1 X18.6 Z0.000000
G1 X12.6 Z0.052549
G1 X12.5 Z0.100000
G1 X7.9 Z0.088235
G1 X7.8 Z0.000000
G1 X7.5
G0 X7.5 Y19.6 Z0 
G1 X7.8 Z0.000392
G1 X7.9 Z0.100000
G1 X12.5 Z0.100000
G1 X12.6 Z0.000000
G1 X18.5 Z0.000000
G1 X18.6 Z0.090196
G1 X18.7 Z0.100000
G1 X23.2 Z0.100000
G1 X23.3 Z0.033725
G1 X23.4 Z0.000000
G1 X27.8 Z0.000000
G1 X27.9 Z0.088235
G1 X28.0 Z0.100000
G1 X32.5 Z0.100000
G1 X32.6 Z0.080000
G1 X32.7 Z0.000000
G1 X37.3 Z0.000000
G1 X37.4 Z0.100000
G1 X42.0 Z0.100000
G1 X42.1 Z0.000000
G1 X42.4
G0 X42.4 Y19.7 Z0 
G1 X42.1 Z0.098431
G1 X42.0 Z0.100000
G1 X37.4 Z0.022353
G1 X37.3 Z0.000000
G1 X32.7 Z0.023137
G1 X32.6 Z0.100000
G1 X27.9 Z0.000000
G1 X23.4 Z0.000392
G1 X23.3 Z0.077647
G1 X23.2 Z0.100000
G1 X18.6 Z0.000000
G1 X12.7 Z0.023137
G1 X12.6 Z0.100000
G1 X8.0 Z0.099608
G1 X7.9 Z0.000000
G1 X7.6
G0 X7.6 Y19.8 Z0 
G1 X7.9 Z0.010980
G1 X8.0 Z0.095686
G1 X8.1 Z0.100000
G1 X12.6 Z0.100000
G1 X12.7 Z0.035686
G1 X12.8 Z0.000000
G1 X18.4 Z0.000000
G1 X18.5 Z0.065490
G1 X18.6 Z0.100000
G1 X23.1 Z0.100000
G1 X23.2 Z0.000000
G1 X27.7 Z0.000000
G1 X27.8 Z0.063137
G1 X27.9 Z0.100000
G1 X32.4 Z0.100000
G1 X32.5 Z0.096863
G1 X32.6 Z0.000000
G1 X37.1 Z0.000000
G1 X37.2 Z0.038824
G1 X37.3 Z0.100000
G1 X41.8 Z0.100000
G1 X41.9 Z0.093333
G1 X42.0 Z0.007451
G1 X42.1 Z0.000000
G1 X42.4
G0 X42.3 Y19.9 Z0 
G1 X42.0 Z0.002353
G1 X41.9 Z0.100000
G1 X37.2 Z0.000000
G1 X32.6 Z0.005490
G1 X32.5 Z0.090588
G1 X32.4 Z0.100000
G1 X27.8 Z0.075686
G1 X27.7 Z0.000000
G1 X23.2 Z0.049412
G1 X23.1 Z0.100000
G1 X18.5 Z0.076471
G1 X18.4 Z0.000000
G1 X12.8 Z0.100000
G1 X8.1 Z0.004314
G1 X8.0 Z0.000000
G1 X7.7
G0 X7.8 Y20.0 Z0 
G1 X8.1 Z0.100000
G1 X12.7 Z0.100000
G1 X12.8 Z0.010980
G1 X12.9 Z0.000000
G1 X18.3 Z0.000000
G1 X18.4 Z0.100000
G1 X23.0 Z0.100000
G1 X23.1 Z0.004314
G1 X23.2 Z0.000000
G1 X27.6 Z0.000000
G1 X27.7 Z0.100000
G1 X32.3 Z0.100000
G1 X32.4 Z0.038039
G1 X32.5 Z0.000000
G1 X37.0 Z0.000000
G1 X37.1 Z0.010980
G1 X37.2 Z0.100000
G1 X41.8 Z0.100000
G1 X41.9 Z0.000000
G1 X42.2
G0 X42.2 Y20.1 Z0 
G1 X41.9 Z0.018039
G1 X41.8 Z0.098824
G1 X41.7 Z0.100000
G1 X37.2 Z0.099608
G1 X37.1 Z0.000000
G1 X32.4 Z0.100000
G1 X27.7 Z0.046667
G1 X27.6 Z0.000000
G1 X23.1 Z0.080000
G1 X23.0 Z0.100000
G1 X18.4 Z0.049412
G1 X18.3 Z0.000000
G1 X12.9 Z0.098824
G1 X12.8 Z0.100000
G1 X8.2 Z0.024706
G1 X8.1 Z0.000000
G1 X7.8
G0 X7.9 Y20.2 Z0 
G1 X8.2 Z0.068235
G1 X8.3 Z0.100000
G1 X12.8 Z0.100000
G1 X12.9 Z0.000000
G1 X18.2 Z0.000000
G1 X18.3 Z0.095294
G1 X18.4 Z0.100000
G1 X22.9 Z0.100000
G1 X23.0 Z0.023137
G1 X23.1 Z0.000000
G1 X27.5 Z0.000000
G1 X27.6 Z0.093725
G1 X27.7 Z0.100000
G1 X32.2 Z0.100000
G1 X32.3 Z0.067451
G1 X32.4 Z0.000000
G1 X36.9 Z0.000000
G1 X37.0 Z0.000392
G1 X37.1 Z0.100000
G1 X41.6 Z0.100000
G1 X41.7 Z0.059216
G1 X41.8 Z0.000000
G1 X42.1
G0 X42.0 Y20.3 Z0 
G1 X41.7 Z0.100000
G1 X37.1 Z0.089020
G1 X37.0 Z0.003529
G1 X36.9 Z0.000000
G1 X32.3 Z0.053725
G1 X32.2 Z0.100000
G1 X27.6 Z0.016078
G1 X27.5 Z0.000000
G1 X23.0 Z0.012157
G1 X22.9 Z0.100000
G1 X18.3 Z0.000000
G1 X13.1 Z0.002353
G1 X13.0 Z0.087059
G1 X12.9 Z0.100000
G1 X8.3 Z0.000000
G1 X8.0
G0 X8.0 Y20.4 Z0 
G1 X8.3 Z0.041176
G1 X8.4 Z0.100000
G1 X12.9 Z0.100000
G1 X13.0 Z0.093725
G1 X13.1 Z0.000000
G1 X18.2 Z0.000000
G1 X18.3 Z0.039216
G1 X18.4 Z0.100000
G1 X22.7 Z0.100000
G1 X22.8 Z0.090588
G1 X22.9 Z0.000000
G1 X27.3 Z0.000000
G1 X27.4 Z0.029804
G1 X27.5 Z0.100000
G1 X32.1 Z0.100000
G1 X32.2 Z0.000000
G1 X36.8 Z0.000000
G1 X36.9 Z0.095686
G1 X37.0 Z0.100000
G1 X41.5 Z0.100000
G1 X41.6 Z0.031765
G1 X41.7 Z0.000000
G1 X42.0
G0 X42.0 Y20.5 Z0 
G1 X41.7 Z0.000392
G1 X41.6 Z0.100000
G1 X36.9 Z0.000000
G1 X32.2 Z0.083922
G1 X32.1 Z0.100000
G1 X27.5 Z0.083137
G1 X27.4 Z0.000000
G1 X22.9 Z0.038824
G1 X22.8 Z0.100000
G1 X18.4 Z0.001176
G1 X18.3 Z0.000000
G1 X13.1 Z0.100000
G1 X8.4 Z0.001176
G1 X8.3 Z0.000000
G1 X8.0
G0 X8.1 Y20.6 Z0 
G1 X8.4 Z0.070588
G1 X8.5 Z0.100000
G1 X13.0 Z0.100000
G1 X13.1 Z0.070588
G1 X13.2 Z0.000000
G1 X18.3 Z0.000000
G1 X18.4 Z0.068235
G1 X18.5 Z0.100000
G1 X22.6 Z0.100000
G1 X22.7 Z0.026275
G1 X22.8 Z0.000000
G1 X27.2 Z0.000000
G1 X27.3 Z0.006667
G1 X27.4 Z0.100000
G1 X32.0 Z0.100000
G1 X32.1 Z0.000000
G1 X36.6 Z0.000000
G1 X36.7 Z0.000392
G1 X36.8 Z0.076471
G1 X36.9 Z0.100000
G1 X41.4 Z0.100000
G1 X41.5 Z0.061176
G1 X41.6 Z0.000000
G1 X41.9
G0 X41.9 Y20.7 Z0 
G1 X41.6 Z0.009020
G1 X41.5 Z0.095294
G1 X41.4 Z0.100000
G1 X36.8 Z0.036078
G1 X36.7 Z0.000000
G1 X32.1 Z0.097647
G1 X32.0 Z0.100000
G1 X27.4 Z0.056078
G1 X27.3 Z0.000000
G1 X22.7 Z0.100000
G1 X18.6 Z0.097647
G1 X18.5 Z0.012941
G1 X18.4 Z0.000000
G1 X13.3 Z0.027843
G1 X13.2 Z0.100000
G1 X8.6 Z0.097647
G1 X8.5 Z0.015294
G1 X8.4 Z0.000000
G1 X8.1
G0 X8.2 Y20.8 Z0 
G1 X8.5 Z0.006667
G1 X8.6 Z0.100000
G1 X13.2 Z0.100000
G1 X13.3 Z0.000000
G1 X18.4 Z0.000000
G1 X18.5 Z0.004706
G1 X18.6 Z0.100000
G1 X22.5 Z0.100000
G1 X22.6 Z0.053725
G1 X22.7 Z0.000000
G1 X27.1 Z0.000000
G1 X27.2 Z0.070196
G1 X27.3 Z0.100000
G1 X31.8 Z0.100000
G1 X31.9 Z0.092549
G1 X32.0 Z0.007451
G1 X32.1 Z0.000000
G1 X36.6 Z0.000000
G1 X36.7 Z0.100000
G1 X41.3 Z0.100000
G1 X41.4 Z0.003529
G1 X41.5 Z0.000000
G1 X41.8
G0 X41.7 Y20.9 Z0 
G1 X41.4 Z0.078039
G1 X41.3 Z0.100000
G1 X36.7 Z0.063922
G1 X36.6 Z0.000000
G1 X32.0 Z0.001569
G1 X31.9 Z0.100000
G1 X27.2 Z0.001176
G1 X27.1 Z0.000000
G1 X22.6 Z0.100000
G1 X18.7 Z0.081961
G1 X18.6 Z0.000000
G1 X13.4 Z0.053725
G1 X13.3 Z0.100000
G1 X8.7 Z0.083922
G1 X8.6 Z0.000000
G1 X8.3
G0 X8.3 Y21.0 Z0 
G1 X8.6 Z0.029804
G1 X8.7 Z0.100000
G1 X13.2 Z0.100000
G1 X13.3 Z0.097647
G1 X13.4 Z0.000000
G1 X18.5 Z0.000000
G1 X18.6 Z0.025490
G1 X18.7 Z0.100000
G1 X22.4 Z0.100000
G1 X22.5 Z0.083922
G1 X22.6 Z0.000000
G1 X27.0 Z0.000000
G1 X27.1 Z0.040000
G1 X27.2 Z0.100000
G1 X31.8 Z0.100000
G1 X31.9 Z0.000000
G1 X36.5 Z0.000000
G1 X36.6 Z0.098824
G1 X36.7 Z0.100000
G1 X41.1 Z0.100000
G1 X41.2 Z0.099608
G1 X41.3 Z0.023137
G1 X41.4 Z0.000000
G1 X41.7
G0 X41.6 Y21.1 Z0 
G1 X41.3 Z0.011765
G1 X41.2 Z0.100000
G1 X36.6 Z0.034902
G1 X36.5 Z0.000000
G1 X31.9 Z0.017255
G1 X31.8 Z0.098824
G1 X31.7 Z0.100000
G1 X27.1 Z0.000000
G1 X22.5 Z0.070196
G1 X22.4 Z0.100000
G1 X18.8 Z0.097647
G1 X18.7 Z0.000000
G1 X13.5 Z0.024314
G1 X13.4 Z0.100000
G1 X8.8 Z0.016078
G1 X8.7 Z0.000000
G1 X8.4
G0 X8.5 Y21.2 Z0 
G1 X8.8 Z0.100000
G1 X13.3 Z0.100000
G1 X13.4 Z0.080784
G1 X13.5 Z0.001176
G1 X13.6 Z0.000000
G1 X18.6 Z0.000000
G1 X18.7 Z0.054902
G1 X18.8 Z0.100000
G1 X22.3 Z0.100000
G1 X22.4 Z0.014902
G1 X22.5 Z0.000000
G1 X26.9 Z0.000000
G1 X27.0 Z0.012157
G1 X27.1 Z0.100000
G1 X31.6 Z0.100000
G1 X31.7 Z0.057647
G1 X31.8 Z0.000000
G1 X36.3 Z0.000000
G1 X36.4 Z0.003529
G1 X36.5 Z0.087451
G1 X36.6 Z0.100000
G1 X41.1 Z0.100000
G1 X41.2 Z0.000000
G1 X41.5
G0 X41.5 Y21.3 Z0 
G1 X41.2 Z0.036863
G1 X41.1 Z0.100000
G1 X36.5 Z0.095294
G1 X36.4 Z0.000000
G1 X31.7 Z0.100000
G1 X27.1 Z0.099608
G1 X27.0 Z0.022353
G1 X26.9 Z0.000000
G1 X22.4 Z0.093333
G1 X22.3 Z0.100000
G1 X18.9 Z0.041176
G1 X18.8 Z0.000000
G1 X13.6 Z0.089412
G1 X13.5 Z0.100000
G1 X8.9 Z0.045490
G1 X8.8 Z0.000000
G1 X8.5
G0 X8.6 Y21.4 Z0 
G1 X8.9 Z0.100000
G1 X13.5 Z0.100000
G1 X13.6 Z0.011765
G1 X13.7 Z0.000000
G1 X18.8 Z0.000000
G1 X18.9 Z0.100000
G1 X22.1 Z0.100000
G1 X22.2 Z0.084314
G1 X22.3 Z0.001569
G1 X22.4 Z0.000000
G1 X26.8 Z0.000000
G1 X26.9 Z0.100000
G1 X31.5 Z0.100000
G1 X31.6 Z0.030588
G1 X31.7 Z0.000000
G1 X36.2 Z0.000000
G1 X36.3 Z0.019216
G1 X36.4 Z0.100000
G1 X41.0 Z0.100000
G1 X41.1 Z0.000000
G1 X41.4
G0 X41.4 Y21.5 Z0 
G1 X41.1 Z0.066275
G1 X41.0 Z0.100000
G1 X36.4 Z0.075686
G1 X36.3 Z0.000000
G1 X31.6 Z0.100000
G1 X26.9 Z0.003529
G1 X26.8 Z0.000000
G1 X22.3 Z0.027843
G1 X22.2 Z0.100000
G1 X19.0 Z0.070196
G1 X18.9 Z0.000000
G1 X13.7 Z0.062353
G1 X13.6 Z0.100000
G1 X9.0 Z0.073725
G1 X8.9 Z0.000000
G1 X8.6
G0 X8.7 Y21.6 Z0 
G1 X9.0 Z0.061961
G1 X9.1 Z0.100000
G1 X13.6 Z0.100000
G1 X13.7 Z0.076863
G1 X13.8 Z0.000000
G1 X18.9 Z0.000000
G1 X19.0 Z0.055686
G1 X19.1 Z0.100000
G1 X22.0 Z0.100000
G1 X22.1 Z0.098824
G1 X22.2 Z0.000000
G1 X26.6 Z0.000000
G1 X26.7 Z0.010588
G1 X26.8 Z0.095686
G1 X26.9 Z0.100000
G1 X31.4 Z0.100000
G1 X31.5 Z0.060000
G1 X31.6 Z0.000000
G1 X36.1 Z0.000000
G1 X36.2 Z0.086275
G1 X36.3 Z0.100000
G1 X40.8 Z0.100000
G1 X40.9 Z0.052549
G1 X41.0 Z0.000000
G1 X41.3
G0 X41.3 Y21.7 Z0 
G1 X41.0 Z0.005490
G1 X40.9 Z0.100000
G1 X36.2 Z0.000000
G1 X31.6 Z0.009020
G1 X31.5 Z0.095294
G1 X31.4 Z0.100000
G1 X26.8 Z0.063137
G1 X26.7 Z0.000000
G1 X22.2 Z0.057647
G1 X22.1 Z0.100000
G1 X19.1 Z0.005882
G1 X19.0 Z0.000000
G1 X13.8 Z0.100000
G1 X9.1 Z0.009020
G1 X9.0 Z0.000000
G1 X8.7
G0 X8.8 Y21.8 Z0 
G1 X9.1 Z0.087451
G1 X9.2 Z0.100000
G1 X13.7 Z0.100000
G1 X13.8 Z0.045490
G1 X13.9 Z0.000000
G1 X19.0 Z0.000000
G1 X19.1 Z0.081961
G1 X19.2 Z0.100000
G1 X22.0 Z0.100000
G1 X22.1 Z0.000000
G1 X26.6 Z0.000000
G1 X26.7 Z0.100000
G1 X31.3 Z0.100000
G1 X31.4 Z0.002745
G1 X31.5 Z0.000000
G1 X36.0 Z0.000000
G1 X36.1 Z0.061176
G1 X36.2 Z0.100000
G1 X40.7 Z0.100000
G1 X40.8 Z0.081176
G1 X40.9 Z0.000000
G1 X41.2
G0 X41.1 Y21.9 Z0 
G1 X40.8 Z0.068235
G1 X40.7 Z0.100000
G1 X36.1 Z0.000000
G1 X31.4 Z0.076863
G1 X31.3 Z0.100000
G1 X26.7 Z0.085882
G1 X26.6 Z0.000000
G1 X22.1 Z0.030588
G1 X22.0 Z0.100000
G1 X19.2 Z0.000000
G1 X13.9 Z0.100000
G1 X9.3 Z0.076471
G1 X9.2 Z0.000392
G1 X9.1 Z0.000000
G1 X8.8
G0 X8.9 Y22.0 Z0 
G1 X9.2 Z0.021176
G1 X9.3 Z0.100000
G1 X13.8 Z0.100000
G1 X13.9 Z0.017255
G1 X14.0 Z0.000000
G1 X19.1 Z0.000000
G1 X19.2 Z0.097647
G1 X19.3 Z0.100000
G1 X21.8 Z0.100000
G1 X21.9 Z0.074510
G1 X22.0 Z0.000000
G1 X26.5 Z0.000000
G1 X26.6 Z0.100000
G1 X31.1 Z0.100000
G1 X31.2 Z0.098824
G1 X31.3 Z0.020000
G1 X31.4 Z0.000000
G1 X35.9 Z0.000000
G1 X36.0 Z0.032549
G1 X36.1 Z0.100000
G1 X40.6 Z0.100000
G1 X40.7 Z0.014118
G1 X40.8 Z0.000000
G1 X41.1
G0 X41.0 Y22.1 Z0 
G1 X40.7 Z0.092549
G1 X40.6 Z0.100000
G1 X36.0 Z0.046275
G1 X35.9 Z0.000000
G1 X31.3 Z0.009804
G1 X31.2 Z0.100000
G1 X26.6 Z0.060000
G1 X26.5 Z0.000000
G1 X21.9 Z0.100000
G1 X19.4 Z0.092157
G1 X19.3 Z0.006667
G1 X19.2 Z0.000000
G1 X14.1 Z0.027843
G1 X14.0 Z0.100000
G1 X9.4 Z0.095686
G1 X9.3 Z0.000000
G1 X9.0
G0 X9.0 Y22.2 Z0 
G1 X9.3 Z0.050588
G1 X9.4 Z0.100000
G1 X13.9 Z0.100000
G1 X14.0 Z0.083922
G1 X14.1 Z0.000000
G1 X19.2 Z0.000000
G1 X19.3 Z0.042353
G1 X19.4 Z0.100000
G1 X21.7 Z0.100000
G1 X21.8 Z0.095294
G1 X21.9 Z0.000000
G1 X26.3 Z0.000000
G1 X26.4 Z0.016078
G1 X26.5 Z0.098431
G1 X26.6 Z0.100000
G1 X31.1 Z0.100000
G1 X31.2 Z0.000000
G1 X35.8 Z0.000000
G1 X35.9 Z0.093725
G1 X36.0 Z0.100000
G1 X40.5 Z0.100000
G1 X40.6 Z0.041176
G1 X40.7 Z0.000000
G1 X41.0
G0 X40.9 Y22.3 Z0 
G1 X40.6 Z0.100000
G1 X35.9 Z0.016863
G1 X35.8 Z0.000000
G1 X31.2 Z0.034118
G1 X31.1 Z0.100000
G1 X26.4 Z0.000000
G1 X21.9 Z0.002745
G1 X21.8 Z0.087059
G1 X21.7 Z0.100000
G1 X19.4 Z0.000000
G1 X14.2 Z0.006667
G1 X14.1 Z0.100000
G1 X9.4 Z0.000000
G1 X9.1
G0 X9.1 Y22.4 Z0 
G1 X9.4 Z0.022353
G1 X9.5 Z0.099608
G1 X9.6 Z0.100000
G1 X14.0 Z0.100000
G1 X14.1 Z0.097647
G1 X14.2 Z0.014118
G1 X14.3 Z0.000000
G1 X19.3 Z0.000000
G1 X19.4 Z0.016078
G1 X19.5 Z0.097647
G1 X19.6 Z0.100000
G1 X21.6 Z0.100000
G1 X21.7 Z0.000392
G1 X21.8 Z0.000000
G1 X26.2 Z0.000000
G1 X26.3 Z0.043529
G1 X26.4 Z0.100000
G1 X30.9 Z0.100000
G1 X31.0 Z0.099608
G1 X31.1 Z0.000000
G1 X35.6 Z0.000000
G1 X35.7 Z0.030980
G1 X35.8 Z0.100000
G1 X40.3 Z0.100000
G1 X40.4 Z0.098431
G1 X40.5 Z0.016863
G1 X40.6 Z0.000000
G1 X40.9
G0 X40.8 Y22.5 Z0 
G1 X40.5 Z0.056863
G1 X40.4 Z0.100000
G1 X35.8 Z0.085098
G1 X35.7 Z0.000000
G1 X31.1 Z0.063922
G1 X31.0 Z0.100000
G1 X26.4 Z0.092549
G1 X26.3 Z0.006667
G1 X26.2 Z0.000000
G1 X21.7 Z0.098824
G1 X21.6 Z0.100000
G1 X19.6 Z0.057647
G1 X19.5 Z0.000000
G1 X14.3 Z0.068235
G1 X14.2 Z0.100000
G1 X9.6 Z0.066275
G1 X9.5 Z0.000000
G1 X9.2
G0 X9.3 Y22.6 Z0 
G1 X9.6 Z0.100000
G1 X14.2 Z0.100000
G1 X14.3 Z0.001176
G1 X14.4 Z0.000000
G1 X19.5 Z0.000000
G1 X19.6 Z0.100000
G1 X21.5 Z0.100000
G1 X21.6 Z0.009804
G1 X21.7 Z0.000000
G1 X26.1 Z0.000000
G1 X26.2 Z0.097647
G1 X26.3 Z0.100000
G1 X30.8 Z0.100000
G1 X30.9 Z0.049804
G1 X31.0 Z0.000000
G1 X35.5 Z0.000000
G1 X35.6 Z0.006667
G1 X35.7 Z0.100000
G1 X40.3 Z0.100000
G1 X40.4 Z0.000000
G1 X40.7
G0 X40.7 Y22.7 Z0 
G1 X40.4 Z0.084314
G1 X40.3 Z0.100000
G1 X35.7 Z0.058824
G1 X35.6 Z0.000000
G1 X31.0 Z0.004314
G1 X30.9 Z0.100000
G1 X26.2 Z0.000000
G1 X21.6 Z0.100000
G1 X19.7 Z0.083137
G1 X19.6 Z0.000000
G1 X14.4 Z0.037255
G1 X14.3 Z0.100000
G1 X9.7 Z0.090196
G1 X9.6 Z0.000000
G1 X9.3
G0 X9.3 Y22.8 Z0 
G1 X9.6 Z0.001176
G1 X9.7 Z0.080000
G1 X9.8 Z0.100000
G1 X14.3 Z0.100000
G1 X14.4 Z0.000000
G1 X19.6 Z0.000000
G1 X19.7 Z0.100000
G1 X21.4 Z0.100000
G1 X21.5 Z0.034902
G1 X21.6 Z0.000000
G1 X26.0 Z0.000000
G1 X26.1 Z0.081961
G1 X26.2 Z0.100000
G1 X30.7 Z0.100000
G1 X30.8 Z0.080784
G1 X30.9 Z0.000000
G1 X35.5 Z0.000000
G1 X35.6 Z0.100000
G1 X40.1 Z0.100000
G1 X40.2 Z0.073725
G1 X40.3 Z0.000000
G1 X40.6
G0 X40.5 Y22.9 Z0 
G1 X40.2 Z0.100000
G1 X35.6 Z0.083922
G1 X35.5 Z0.001176
G1 X35.4 Z0.000000
G1 X30.8 Z0.066275
G1 X30.7 Z0.100000
G1 X26.1 Z0.004706
G1 X26.0 Z0.000000
G1 X21.5 Z0.023137
G1 X21.4 Z0.100000
G1 X19.8 Z0.058039
G1 X19.7 Z0.000000
G1 X14.5 Z0.063922
G1 X14.4 Z0.100000
G1 X9.8 Z0.000000
G1 X9.5
G0 X9.5 Y23.0 Z0 
G1 X9.8 Z0.097647
G1 X9.9 Z0.100000
G1 X14.3 Z0.100000
G1 X14.4 Z0.099608
G1 X14.5 Z0.021176
G1 X14.6 Z0.000000
G1 X19.6 Z0.000000
G1 X19.7 Z0.006667
G1 X19.8 Z0.092549
G1 X19.9 Z0.100000
G1 X21.3 Z0.100000
G1 X21.4 Z0.000000
G1 X25.9 Z0.000000
G1 X26.0 Z0.052941
G1 X26.1 Z0.100000
G1 X30.6 Z0.100000
G1 X30.7 Z0.013725
G1 X30.8 Z0.000000
G1 X35.3 Z0.000000
G1 X35.4 Z0.043529
G1 X35.5 Z0.100000
G1 X40.0 Z0.100000
G1 X40.1 Z0.095294
G1 X40.2 Z0.000000
G1 X40.5
G0 X40.5 Y23.1 Z0 
G1 X40.2 Z0.002353
G1 X40.1 Z0.100000
G1 X35.4 Z0.000000
G1 X30.7 Z0.091373
G1 X30.6 Z0.100000
G1 X26.0 Z0.067059
G1 X25.9 Z0.000000
G1 X21.4 Z0.050588
G1 X21.3 Z0.100000
G1 X19.9 Z0.001569
G1 X19.8 Z0.000000
G1 X14.6 Z0.100000
G1 X9.9 Z0.005882
G1 X9.8 Z0.000000
G1 X9.5
G0 X9.6 Y23.2 Z0 
G1 X9.9 Z0.100000
G1 X14.5 Z0.100000
G1 X14.6 Z0.002745
G1 X14.7 Z0.000000
G1 X19.8 Z0.000000
G1 X19.9 Z0.100000
G1 X21.1 Z0.100000
G1 X21.2 Z0.089412
G1 X21.3 Z0.004314
G1 X21.4 Z0.000000
G1 X25.8 Z0.000000
G1 X25.9 Z0.099608
G1 X26.0 Z0.100000
G1 X30.5 Z0.100000
G1 X30.6 Z0.038824
G1 X30.7 Z0.000000
G1 X35.2 Z0.000000
G1 X35.3 Z0.016078
G1 X35.4 Z0.100000
G1 X40.0 Z0.100000
G1 X40.1 Z0.000000
G1 X40.4
G0 X40.4 Y23.3 Z0 
G1 X40.1 Z0.020000
G1 X40.0 Z0.098824
G1 X39.9 Z0.100000
G1 X35.3 Z0.027843
G1 X35.2 Z0.000000
G1 X30.6 Z0.100000
G1 X25.9 Z0.036863
G1 X25.8 Z0.000000
G1 X21.3 Z0.001176
G1 X21.2 Z0.100000
G1 X20.1 Z0.098431
G1 X20.0 Z0.016078
G1 X19.9 Z0.000000
G1 X14.8 Z0.009020
G1 X14.7 Z0.095294
G1 X14.6 Z0.100000
G1 X10.0 Z0.026275
G1 X9.9 Z0.000000
G1 X9.6
G0 X9.7 Y23.4 Z0 
G1 X10.0 Z0.015294
G1 X10.1 Z0.100000
G1 X14.6 Z0.100000
G1 X14.7 Z0.098824
G1 X14.8 Z0.000000
G1 X19.9 Z0.000000
G1 X20.0 Z0.007843
G1 X20.1 Z0.100000
G1 X21.0 Z0.100000
G1 X21.1 Z0.066275
G1 X21.2 Z0.000000
G1 X25.6 Z0.000000
G1 X25.7 Z0.049804
G1 X25.8 Z0.100000
G1 X30.3 Z0.100000
G1 X30.4 Z0.097647
G1 X30.5 Z0.014118
G1 X30.6 Z0.000000
G1 X35.1 Z0.000000
G1 X35.2 Z0.100000
G1 X39.8 Z0.100000
G1 X39.9 Z0.009020
G1 X40.0 Z0.000000
G1 X40.3
G0 X40.2 Y23.5 Z0 
G1 X39.9 Z0.100000
G1 X35.2 Z0.006667
G1 X35.1 Z0.000000
G1 X30.5 Z0.054510
G1 X30.4 Z0.100000
G1 X25.8 Z0.095686
G1 X25.7 Z0.000000
G1 X21.2 Z0.013725
G1 X21.1 Z0.100000
G1 X20.1 Z0.000000
G1 X14.8 Z0.100000
G1 X10.1 Z0.000000
G1 X9.8
G0 X9.8 Y23.6 Z0 
G1 X10.1 Z0.044314
G1 X10.2 Z0.100000
G1 X14.7 Z0.100000
G1 X14.8 Z0.084314
G1 X14.9 Z0.000000
G1 X20.0 Z0.000000
G1 X20.1 Z0.030980
G1 X20.2 Z0.100000
G1 X20.9 Z0.100000
G1 X21.0 Z0.091373
G1 X21.1 Z0.000000
G1 X25.5 Z0.000000
G1 X25.6 Z0.019216
G1 X25.7 Z0.100000
G1 X30.3 Z0.100000
G1 X30.4 Z0.000000
G1 X35.0 Z0.000000
G1 X35.1 Z0.097647
G1 X35.2 Z0.100000
G1 X39.7 Z0.100000
G1 X39.8 Z0.033725
G1 X39.9 Z0.000000
G1 X40.2
G0 X40.2 Y23.7 Z0 
G1 X39.9 Z0.000392
G1 X39.8 Z0.077647
G1 X39.7 Z0.100000
G1 X35.1 Z0.000000
G1 X30.4 Z0.083922
G1 X30.3 Z0.100000
G1 X25.7 Z0.076471
G1 X25.6 Z0.000000
G1 X21.1 Z0.038824
G1 X21.0 Z0.100000
G1 X20.2 Z0.000000
G1 X14.9 Z0.100000
G1 X10.3 Z0.085098
G1 X10.2 Z0.001569
G1 X10.1 Z0.000000
G1 X9.8
G0 X10.0 Y23.8 Z0 
G1 X10.3 Z0.100000
G1 X14.8 Z0.100000
G1 X14.9 Z0.055686
G1 X15.0 Z0.000000
G1 X20.1 Z0.000000
G1 X20.2 Z0.060000
G1 X20.3 Z0.100000
G1 X20.8 Z0.100000
G1 X20.9 Z0.026667
G1 X21.0 Z0.000000
G1 X25.4 Z0.000000
G1 X25.5 Z0.002353
G1 X25.6 Z0.100000
G1 X30.1 Z0.100000
G1 X30.2 Z0.070196
G1 X30.3 Z0.000000
G1 X34.8 Z0.000000
G1 X34.9 Z0.001176
G1 X35.0 Z0.081961
G1 X35.1 Z0.100000
G1 X39.6 Z0.100000
G1 X39.7 Z0.000000
G1 X40.0
G0 X40.0 Y23.9 Z0 
G1 X39.7 Z0.049804
G1 X39.6 Z0.100000
G1 X35.0 Z0.092157
G1 X34.9 Z0.000000
G1 X30.2 Z0.100000
G1 X25.6 Z0.093725
G1 X25.5 Z0.008627
G1 X25.4 Z0.000000
G1 X20.9 Z0.097647
G1 X20.8 Z0.100000
G1 X20.4 Z0.046275
G1 X20.3 Z0.000000
G1 X15.1 Z0.068235
G1 X15.0 Z0.100000
G1 X10.4 Z0.060000
G1 X10.3 Z0.000000
G1 X10.0
G0 X10.0 Y24.0 Z0 
G1 X10.3 Z0.008627
G1 X10.4 Z0.100000
G1 X15.0 Z0.100000
G1 X15.1 Z0.000000
G1 X20.2 Z0.000000
G1 X20.3 Z0.002353
G1 X20.4 Z0.100000
G1 X20.7 Z0.100000
G1 X20.8 Z0.054510
G1 X20.9 Z0.000000
G1 X25.3 Z0.000000
G1 X25.4 Z0.060000
G1 X25.5 Z0.100000
G1 X30.0 Z0.100000
G1 X30.1 Z0.093333
G1 X30.2 Z0.000000
G1 X34.8 Z0.000000
G1 X34.9 Z0.100000
G1 X39.5 Z0.100000
G1 X39.6 Z0.004314
G1 X39.7 Z0.000000
G1 X40.0
G0 X39.9 Y24.1 Z0 
G1 X39.6 Z0.080000
G1 X39.5 Z0.100000
G1 X34.9 Z0.069412
G1 X34.8 Z0.000000
G1 X30.2 Z0.001569
G1 X30.1 Z0.100000
G1 X25.4 Z0.000000
G1 X20.8 Z0.041176
G1 X20.7 Z0.100000
G1 X20.5 Z0.073333
G1 X20.4 Z0.000000
G1 X15.2 Z0.038824
G1 X15.1 Z0.100000
G1 X10.5 Z0.085882
G1 X10.4 Z0.000000
G1 X10.1
G0 X10.1 Y24.2 Z0 
G1 X10.4 Z0.032941
G1 X10.5 Z0.100000
G1 X15.0 Z0.100000
G1 X15.1 Z0.090588
G1 X15.2 Z0.005490
G1 X15.3 Z0.000000
G1 X20.3 Z0.000000
G1 X20.4 Z0.018039
G1 X20.5 Z0.098824
G1 X20.6 Z0.100000
G1 X20.7 Z0.001176
G1 X20.8 Z0.000000
G1 X25.2 Z0.000000
G1 X25.3 Z0.029804
G1 X25.4 Z0.100000
G1 X30.0 Z0.100000
G1 X30.1 Z0.000000
G1 X34.6 Z0.000000
G1 X34.7 Z0.025490
G1 X34.8 Z0.100000
G1 X39.4 Z0.100000
G1 X39.5 Z0.023529
G1 X39.6 Z0.000000
G1 X39.9
G0 X39.8 Y24.3 Z0 
G1 X39.5 Z0.012157
G1 X39.4 Z0.100000
G1 X34.7 Z0.000000
G1 X30.1 Z0.017255
G1 X30.0 Z0.098824
G1 X29.9 Z0.100000
G1 X25.3 Z0.043529
G1 X25.2 Z0.000000
G1 X20.7 Z0.070588
G1 X20.6 Z0.008627
G1 X20.5 Z0.000000
G1 X15.3 Z0.096471
G1 X15.2 Z0.100000
G1 X10.6 Z0.019216
G1 X10.5 Z0.000000
G1 X10.2
G0 X10.3 Y24.4 Z0 
G1 X10.6 Z0.095294
G1 X10.7 Z0.100000
G1 X15.2 Z0.100000
G1 X15.3 Z0.023137
G1 X15.4 Z0.000000
G1 X25.1 Z0.000000
G1 X25.2 Z0.100000
G1 X29.8 Z0.100000
G1 X29.9 Z0.009020
G1 X30.0 Z0.000000
G1 X34.5 Z0.000000
G1 X34.6 Z0.054510
G1 X34.7 Z0.100000
G1 X39.2 Z0.100000
G1 X39.3 Z0.090588
G1 X39.4 Z0.000000
G1 X39.7
G0 X39.7 Y24.5 Z0 
G1 X39.4 Z0.038824
G1 X39.3 Z0.100000
G1 X34.7 Z0.097647
G1 X34.6 Z0.000000
G1 X29.9 Z0.100000
G1 X25.2 Z0.014902
G1 X25.1 Z0.000000
G1 X15.4 Z0.078039
G1 X15.3 Z0.100000
G1 X10.7 Z0.049412
G1 X10.6 Z0.000000
G1 X10.3
G0 X10.4 Y24.6 Z0 
G1 X10.7 Z0.035686
G1 X10.8 Z0.100000
G1 X15.3 Z0.100000
G1 X15.4 Z0.003529
G1 X15.5 Z0.000000
G1 X25.0 Z0.000000
G1 X25.1 Z0.100000
G1 X29.7 Z0.100000
G1 X29.8 Z0.030980
G1 X29.9 Z0.000000
G1 X34.4 Z0.000000
G1 X34.5 Z0.024706
G1 X34.6 Z0.100000
G1 X39.1 Z0.100000
G1 X39.2 Z0.026667
G1 X39.3 Z0.000000
G1 X39.6
G0 X39.5 Y24.7 Z0 
G1 X39.2 Z0.100000
G1 X34.6 Z0.080000
G1 X34.5 Z0.001176
G1 X34.4 Z0.000000
G1 X29.8 Z0.074902
G1 X29.7 Z0.100000
G1 X25.1 Z0.001176
G1 X25.0 Z0.000000
G1 X15.5 Z0.046667
G1 X15.4 Z0.100000
G1 X10.8 Z0.000392
G1 X10.7 Z0.000000
G1 X10.4
G0 X10.5 Y24.8 Z0 
G1 X10.8 Z0.064314
G1 X10.9 Z0.100000
G1 X15.4 Z0.100000
G1 X15.5 Z0.060000
G1 X15.6 Z0.000000
G1 X24.8 Z0.000000
G1 X24.9 Z0.004706
G1 X25.0 Z0.090196
G1 X25.1 Z0.100000
G1 X29.6 Z0.100000
G1 X29.7 Z0.000000
G1 X34.3 Z0.000000
G1 X34.4 Z0.090196
G1 X34.5 Z0.100000
G1 X39.0 Z0.100000
G1 X39.1 Z0.054510
G1 X39.2 Z0.000000
G1 X39.5
G0 X39.4 Y24.9 Z0 
G1 X39.1 Z0.100000
G1 X34.4 Z0.012157
G1 X34.3 Z0.000000
G1 X29.7 Z0.046667
G1 X29.6 Z0.100000
G1 X25.0 Z0.096863
G1 X24.9 Z0.000000
G1 X15.6 Z0.100000
G1 X10.9 Z0.000000
G1 X10.6
G0 X10.6 Y25.0 Z0 
G1 X10.9 Z0.089020
G1 X11.0 Z0.100000
G1 X15.5 Z0.100000
G1 X15.6 Z0.029804
G1 X15.7 Z0.000000
G1 X24.8 Z0.000000
G1 X24.9 Z0.100000
G1 X29.5 Z0.100000
G1 X29.6 Z0.002745
G1 X29.7 Z0.000000
G1 X34.2 Z0.000000
G1 X34.3 Z0.066275
G1 X34.4 Z0.100000
G1 X38.9 Z0.100000
G1 X39.0 Z0.083922
G1 X39.1 Z0.000000
G1 X39.4
G0 X39.3 Y25.1 Z0 
G1 X39.0 Z0.070196
G1 X38.9 Z0.100000
G1 X34.3 Z0.078824
G1 X34.2 Z0.000000
G1 X29.6 Z0.077647
G1 X29.5 Z0.100000
G1 X24.9 Z0.078824
G1 X24.8 Z0.000392
G1 X24.7 Z0.000000
G1 X15.8 Z0.043137
G1 X15.7 Z0.100000
G1 X11.1 Z0.078824
G1 X11.0 Z0.001176
G1 X10.9 Z0.000000
G1 X10.6
G0 X10.7 Y25.2 Z0 
G1 X11.0 Z0.022353
G1 X11.1 Z0.100000
G1 X15.6 Z0.100000
G1 X15.7 Z0.093333
G1 X15.8 Z0.000000
G1 X24.6 Z0.000000
G1 X24.7 Z0.036863
G1 X24.8 Z0.100000
G1 X29.3 Z0.100000
G1 X29.4 Z0.099608
G1 X29.5 Z0.020392
G1 X29.6 Z0.000000
G1 X34.1 Z0.000000
G1 X34.2 Z0.100000
G1 X38.8 Z0.100000
G1 X38.9 Z0.016863
G1 X39.0 Z0.000000
G1 X39.3
G0 X39.2 Y25.3 Z0 
G1 X38.9 Z0.093333
G1 X38.8 Z0.100000
G1 X34.2 Z0.051765
G1 X34.1 Z0.000000
G1 X29.5 Z0.010980
G1 X29.4 Z0.100000
G1 X24.7 Z0.000000
G1 X15.9 Z0.014902
G1 X15.8 Z0.100000
G1 X11.2 Z0.096863
G1 X11.1 Z0.000000
G1 X10.8
G0 X10.8 Y25.4 Z0 
G1 X11.1 Z0.004706
G1 X11.2 Z0.090196
G1 X11.3 Z0.100000
G1 X15.8 Z0.100000
G1 X15.9 Z0.000000
G1 X24.5 Z0.000000
G1 X24.6 Z0.063922
G1 X24.7 Z0.100000
G1 X29.2 Z0.100000
G1 X29.3 Z0.089412
G1 X29.4 Z0.000000
G1 X34.0 Z0.000000
G1 X34.1 Z0.100000
G1 X38.6 Z0.100000
G1 X38.7 Z0.084314
G1 X38.8 Z0.001569
G1 X38.9 Z0.000000
G1 X39.2
G0 X39.1 Y25.5 Z0 
G1 X38.8 Z0.029412
G1 X38.7 Z0.100000
G1 X34.1 Z0.022353
G1 X34.0 Z0.000000
G1 X29.4 Z0.035686
G1 X29.3 Z0.100000
G1 X24.7 Z0.098824
G1 X24.6 Z0.000000
G1 X16.0 Z0.001176
G1 X15.9 Z0.100000
G1 X11.3 Z0.040000
G1 X11.2 Z0.000000
G1 X10.9
G0 X11.0 Y25.6 Z0 
G1 X11.3 Z0.100000
G1 X15.8 Z0.100000
G1 X15.9 Z0.091373
G1 X16.0 Z0.005490
G1 X16.1 Z0.000000
G1 X24.4 Z0.000000
G1 X24.5 Z0.033725
G1 X24.6 Z0.100000
G1 X29.1 Z0.100000
G1 X29.2 Z0.023137
G1 X29.3 Z0.000000
G1 X33.8 Z0.000000
G1 X33.9 Z0.036863
G1 X34.0 Z0.100000
G1 X38.5 Z0.100000
G1 X38.6 Z0.098824
G1 X38.7 Z0.000000
G1 X39.0
G0 X39.0 Y25.7 Z0 
G1 X38.7 Z0.058824
G1 X38.6 Z0.100000
G1 X34.0 Z0.088235
G1 X33.9 Z0.000000
G1 X29.2 Z0.100000
G1 X24.6 Z0.086275
G1 X24.5 Z0.002353
G1 X24.4 Z0.000000
G1 X16.1 Z0.051765
G1 X16.0 Z0.100000
G1 X11.4 Z0.069412
G1 X11.3 Z0.000000
G1 X11.0
G0 X11.1 Y25.8 Z0 
G1 X11.4 Z0.100000
G1 X16.0 Z0.100000
G1 X16.1 Z0.000000
G1 X24.3 Z0.000000
G1 X24.4 Z0.093725
G1 X24.5 Z0.100000
G1 X29.0 Z0.100000
G1 X29.1 Z0.050588
G1 X29.2 Z0.000000
G1 X33.7 Z0.000000
G1 X33.8 Z0.010588
G1 X33.9 Z0.100000
G1 X38.5 Z0.100000
G1 X38.6 Z0.000000
G1 X38.9
G0 X38.9 Y25.9 Z0 
G1 X38.6 Z0.031765
G1 X38.5 Z0.100000
G1 X33.9 Z0.099608
G1 X33.8 Z0.021176
G1 X33.7 Z0.000000
G1 X29.1 Z0.100000
G1 X24.4 Z0.016078
G1 X24.3 Z0.000000
G1 X16.3 Z0.000392
G1 X16.2 Z0.078824
G1 X16.1 Z0.100000
G1 X11.5 Z0.041961
G1 X11.4 Z0.000000
G1 X11.1
G0 X11.1 Y26.0 Z0 
G1 X11.4 Z0.001176
G1 X11.5 Z0.082745
G1 X11.6 Z0.100000
G1 X16.1 Z0.100000
G1 X16.2 Z0.034902
G1 X16.3 Z0.000000
G1 X24.2 Z0.000000
G1 X24.3 Z0.072549
G1 X24.4 Z0.100000
G1 X28.9 Z0.100000
G1 X29.0 Z0.080784
G1 X29.1 Z0.000000
G1 X33.6 Z0.000000
G1 X33.7 Z0.076471
G1 X33.8 Z0.100000
G1 X38.3 Z0.100000
G1 X38.4 Z0.074902
G1 X38.5 Z0.000000
G1 X38.8
G0 X38.7 Y26.1 Z0 
G1 X38.4 Z0.100000
G1 X33.7 Z0.003529
G1 X33.6 Z0.000000
G1 X29.0 Z0.067059
G1 X28.9 Z0.100000
G1 X24.3 Z0.085098
G1 X24.2 Z0.000000
G1 X16.3 Z0.100000
G1 X11.6 Z0.000000
G1 X11.3
G0 X11.3 Y26.2 Z0 
G1 X11.6 Z0.097647
G1 X11.7 Z0.100000
G1 X16.2 Z0.100000
G1 X16.3 Z0.009020
G1 X16.4 Z0.000000
G1 X24.1 Z0.000000
G1 X24.2 Z0.100000
G1 X28.8 Z0.100000
G1 X28.9 Z0.014118
G1 X29.0 Z0.000000
G1 X33.5 Z0.000000
G1 X33.6 Z0.049412
G1 X33.7 Z0.100000
G1 X38.2 Z0.100000
G1 X38.3 Z0.095294
G1 X38.4 Z0.000000
G1 X38.7
G0 X38.7 Y26.3 Z0 
G1 X38.4 Z0.003529
G1 X38.3 Z0.089020
G1 X38.2 Z0.100000
G1 X33.6 Z0.000000
G1 X28.9 Z0.091373
G1 X28.8 Z0.100000
G1 X24.2 Z0.057647
G1 X24.1 Z0.000000
G1 X16.4 Z0.098824
G1 X16.3 Z0.100000
G1 X11.8 Z0.092549
G1 X11.7 Z0.006667
G1 X11.6 Z0.000000
G1 X11.3
G0 X11.4 Y26.4 Z0 
G1 X11.7 Z0.002353
G1 X11.8 Z0.100000
G1 X16.3 Z0.100000
G1 X16.4 Z0.030588
G1 X16.5 Z0.000000
G1 X24.0 Z0.000000
G1 X24.1 Z0.100000
G1 X28.6 Z0.100000
G1 X28.7 Z0.083137
G1 X28.8 Z0.001176
G1 X28.9 Z0.000000
G1 X33.4 Z0.000000
G1 X33.5 Z0.076471
G1 X33.6 Z0.100000
G1 X38.1 Z0.100000
G1 X38.2 Z0.000392
G1 X38.3 Z0.000000
G1 X38.6
G0 X38.5 Y26.5 Z0 
G1 X38.2 Z0.099608
G1 X38.1 Z0.100000
G1 X33.5 Z0.033725
G1 X33.4 Z0.000000
G1 X28.8 Z0.026667
G1 X28.7 Z0.100000
G1 X24.1 Z0.025490
G1 X24.0 Z0.000000
G1 X16.6 Z0.002353
G1 X16.5 Z0.086275
G1 X16.4 Z0.100000
G1 X11.8 Z0.000000
G1 X11.5
G0 X11.5 Y26.6 Z0 
G1 X11.8 Z0.018039
G1 X11.9 Z0.100000
G1 X16.4 Z0.100000
G1 X16.5 Z0.093333
G1 X16.6 Z0.000000
G1 X23.8 Z0.000000
G1 X23.9 Z0.040392
G1 X24.0 Z0.100000
G1 X28.5 Z0.100000
G1 X28.6 Z0.097647
G1 X28.7 Z0.000000
G1 X33.3 Z0.000000
G1 X33.4 Z0.100000
G1 X38.0 Z0.100000
G1 X38.1 Z0.011765
G1 X38.2 Z0.000000
G1 X38.5
G0 X38.4 Y26.7 Z0 
G1 X38.1 Z0.100000
G1 X33.4 Z0.009020
G1 X33.3 Z0.000000
G1 X28.7 Z0.054902
G1 X28.6 Z0.100000
G1 X24.0 Z0.090196
G1 X23.9 Z0.000000
G1 X16.6 Z0.100000
G1 X11.9 Z0.000000
G1 X11.6
G0 X11.6 Y26.8 Z0 
G1 X11.9 Z0.046667
G1 X12.0 Z0.100000
G1 X16.5 Z0.100000
G1 X16.6 Z0.070196
G1 X16.7 Z0.000000
G1 X23.7 Z0.000000
G1 X23.8 Z0.012157
G1 X23.9 Z0.100000
G1 X28.5 Z0.100000
G1 X28.6 Z0.000000
G1 X33.1 Z0.000000
G1 X33.2 Z0.019216
G1 X33.3 Z0.098824
G1 X33.4 Z0.100000
G1 X37.9 Z0.100000
G1 X38.0 Z0.036078
G1 X38.1 Z0.000000
G1 X38.4
G0 X38.3 Y26.9 Z0 
G1 X38.0 Z0.023137
G1 X37.9 Z0.100000
G1 X33.2 Z0.000000
G1 X28.6 Z0.027843
G1 X28.5 Z0.100000
G1 X23.9 Z0.099608
G1 X23.8 Z0.022353
G1 X23.7 Z0.000000
G1 X16.8 Z0.083922
G1 X16.7 Z0.100000
G1 X12.1 Z0.032941
G1 X12.0 Z0.000000
G1 X11.7
G0 X11.8 Y27.0 Z0 
G1 X12.1 Z0.100000
G1 X16.7 Z0.100000
G1 X16.8 Z0.000000
G1 X23.6 Z0.000000
G1 X23.7 Z0.078824
G1 X23.8 Z0.100000
G1 X28.3 Z0.100000
G1 X28.4 Z0.071373
G1 X28.5 Z0.000000
G1 X33.0 Z0.000000
G1 X33.1 Z0.002353
G1 X33.2 Z0.100000
G1 X37.8 Z0.100000
G1 X37.9 Z0.000000
G1 X38.2
G0 X38.2 Y27.1 Z0 
G1 X37.9 Z0.051765
G1 X37.8 Z0.100000
G1 X33.2 Z0.093725
G1 X33.1 Z0.000000
G1 X28.4 Z0.100000
G1 X23.7 Z0.003529
G1 X23.6 Z0.000000
G1 X16.9 Z0.052549
G1 X16.8 Z0.100000
G1 X12.2 Z0.063137
G1 X12.1 Z0.000000
G1 X11.8
G0 X11.8 Y27.2 Z0 
G1 X12.1 Z0.010588
G1 X12.2 Z0.095686
G1 X12.3 Z0.100000
G1 X16.7 Z0.100000
G1 X16.8 Z0.097647
G1 X16.9 Z0.000000
G1 X23.5 Z0.000000
G1 X23.6 Z0.050588
G1 X23.7 Z0.100000
G1 X28.2 Z0.100000
G1 X28.3 Z0.093333
G1 X28.4 Z0.000000
G1 X33.0 Z0.000000
G1 X33.1 Z0.100000
G1 X37.6 Z0.100000
G1 X37.7 Z0.090588
G1 X37.8 Z0.005490
G1 X37.9 Z0.000000
G1 X38.2
G0 X38.1 Y27.3 Z0 
G1 X37.8 Z0.001176
G1 X37.7 Z0.100000
G1 X33.1 Z0.073333
G1 X33.0 Z0.000000
G1 X28.4 Z0.002353
G1 X28.3 Z0.086275
G1 X28.2 Z0.100000
G1 X23.6 Z0.000000
G1 X17.0 Z0.023529
G1 X16.9 Z0.100000
G1 X12.3 Z0.003529
G1 X12.2 Z0.000000
G1 X11.9
G0 X12.0 Y27.4 Z0 
G1 X12.3 Z0.076471
G1 X12.4 Z0.100000
G1 X16.9 Z0.100000
G1 X17.0 Z0.036078
G1 X17.1 Z0.000000
G1 X23.4 Z0.000000
G1 X23.5 Z0.076471
G1 X23.6 Z0.100000
G1 X28.1 Z0.100000
G1 X28.2 Z0.000000
G1 X32.8 Z0.000000
G1 X32.9 Z0.085098
G1 X33.0 Z0.100000
G1 X37.5 Z0.100000
G1 X37.6 Z0.068235
G1 X37.7 Z0.000000
G1 X38.0
G0 X38.0 Y27.5 Z0 
G1 X37.7 Z0.014118
G1 X37.6 Z0.100000
G1 X32.9 Z0.000000
G1 X28.2 Z0.098824
G1 X28.1 Z0.100000
G1 X23.5 Z0.033725
G1 X23.4 Z0.000000
G1 X17.1 Z0.089412
G1 X17.0 Z0.100000
G1 X12.4 Z0.021569
G1 X12.3 Z0.000000
G1 X12.0
G0 X12.1 Y27.6 Z0 
G1 X12.4 Z0.095686
G1 X12.5 Z0.100000
G1 X17.0 Z0.100000
G1 X17.1 Z0.010980
G1 X17.2 Z0.000000
G1 X23.3 Z0.000000
G1 X23.4 Z0.100000
G1 X28.0 Z0.100000
G1 X28.1 Z0.009020
G1 X28.2 Z0.000000
G1 X32.7 Z0.000000
G1 X32.8 Z0.059216
G1 X32.9 Z0.100000
G1 X37.4 Z0.100000
G1 X37.5 Z0.092157
G1 X37.6 Z0.000000
G1 X37.9
G0 X37.9 Y27.7 Z0 
G1 X37.6 Z0.040392
G1 X37.5 Z0.100000
G1 X32.9 Z0.098431
G1 X32.8 Z0.016078
G1 X32.7 Z0.000000
G1 X28.1 Z0.100000
G1 X23.4 Z0.008627
G1 X23.3 Z0.000000
G1 X17.2 Z0.062353
G1 X17.1 Z0.100000
G1 X12.5 Z0.051765
G1 X12.4 Z0.000000
G1 X12.1
G0 X12.2 Y27.8 Z0 
G1 X12.5 Z0.038824
G1 X12.6 Z0.100000
G1 X17.1 Z0.100000
G1 X17.2 Z0.074902
G1 X17.3 Z0.000000
G1 X23.1 Z0.000000
G1 X23.2 Z0.018039
G1 X23.3 Z0.098824
G1 X23.4 Z0.100000
G1 X27.9 Z0.100000
G1 X28.0 Z0.031765
G1 X28.1 Z0.000000
G1 X32.6 Z0.000000
G1 X32.7 Z0.100000
G1 X37.3 Z0.100000
G1 X37.4 Z0.027451
G1 X37.5 Z0.000000
G1 X37.8
G0 X37.7 Y27.9 Z0 
G1 X37.4 Z0.098431
G1 X37.3 Z0.100000
G1 X32.7 Z0.044314
G1 X32.6 Z0.000000
G1 X28.0 Z0.020000
G1 X27.9 Z0.100000
G1 X23.2 Z0.000000
G1 X17.4 Z0.002353
G1 X17.3 Z0.100000
G1 X12.7 Z0.099608
G1 X12.6 Z0.000000
G1 X12.3
G0 X12.3 Y28.0 Z0 
G1 X12.6 Z0.068235
G1 X12.7 Z0.100000
G1 X17.2 Z0.100000
G1 X17.3 Z0.045098
G1 X17.4 Z0.000000
G1 X23.0 Z0.000000
G1 X23.1 Z0.001569
G1 X23.2 Z0.100000
G1 X27.8 Z0.100000
G1 X27.9 Z0.000000
G1 X32.5 Z0.000000
G1 X32.6 Z0.092549
G1 X32.7 Z0.100000
G1 X37.2 Z0.100000
G1 X37.3 Z0.056078
G1 X37.4 Z0.000000
G1 X37.7
G0 X37.6 Y28.1 Z0 
G1 X37.3 Z0.042353
G1 X37.2 Z0.100000
G1 X32.6 Z0.016078
G1 X32.5 Z0.000000
G1 X27.9 Z0.048235
G1 X27.8 Z0.100000
G1 X23.2 Z0.092549
G1 X23.1 Z0.000000
G1 X17.4 Z0.100000
G1 X12.8 Z0.054510
G1 X12.7 Z0.000000
G1 X12.4
G0 X12.4 Y28.2 Z0 
G1 X12.7 Z0.004706
G1 X12.8 Z0.100000
G1 X17.3 Z0.100000
G1 X17.4 Z0.017255
G1 X17.5 Z0.000000
G1 X23.0 Z0.000000
G1 X23.1 Z0.100000
G1 X27.6 Z0.100000
G1 X27.7 Z0.089020
G1 X27.8 Z0.003529
G1 X27.9 Z0.000000
G1 X32.4 Z0.000000
G1 X32.5 Z0.071373
G1 X32.6 Z0.100000
G1 X37.1 Z0.100000
G1 X37.2 Z0.001569
G1 X37.3 Z0.000000
G1 X37.6
G0 X37.5 Y28.3 Z0 
G1 X37.2 Z0.073725
G1 X37.1 Z0.100000
G1 X32.5 Z0.083137
G1 X32.4 Z0.000000
G1 X27.8 Z0.000392
G1 X27.7 Z0.100000
G1 X23.1 Z0.070588
G1 X23.0 Z0.000000
G1 X17.6 Z0.027843
G1 X17.5 Z0.100000
G1 X12.9 Z0.081961
G1 X12.8 Z0.000000
G1 X12.5
G0 X12.6 Y28.4 Z0 
G1 X12.9 Z0.100000
G1 X17.5 Z0.100000
G1 X17.6 Z0.000000
G1 X22.8 Z0.000000
G1 X22.9 Z0.081961
G1 X23.0 Z0.100000
G1 X27.5 Z0.100000
G1 X27.6 Z0.063137
G1 X27.7 Z0.000000
G1 X32.2 Z0.000000
G1 X32.3 Z0.006667
G1 X32.4 Z0.100000
G1 X37.0 Z0.100000
G1 X37.1 Z0.000000
G1 X37.4
G0 X37.4 Y28.5 Z0 
G1 X37.1 Z0.094510
G1 X37.0 Z0.100000
G1 X32.4 Z0.057647
G1 X32.3 Z0.000000
G1 X27.7 Z0.011765
G1 X27.6 Z0.100000
G1 X22.9 Z0.000000
G1 X17.7 Z0.005882
G1 X17.6 Z0.100000
G1 X13.0 Z0.097647
G1 X12.9 Z0.000000
G1 X12.6
G0 X12.6 Y28.6 Z0 
G1 X12.9 Z0.006667
G1 X13.0 Z0.092549
G1 X13.1 Z0.100000
G1 X17.5 Z0.100000
G1 X17.6 Z0.097647
G1 X17.7 Z0.014118
G1 X17.8 Z0.000000
G1 X22.7 Z0.000000
G1 X22.8 Z0.054510
G1 X22.9 Z0.100000
G1 X27.4 Z0.100000
G1 X27.5 Z0.089412
G1 X27.6 Z0.000000
G1 X32.1 Z0.000000
G1 X32.2 Z0.070588
G1 X32.3 Z0.100000
G1 X36.8 Z0.100000
G1 X36.9 Z0.087059
G1 X37.0 Z0.002353
G1 X37.1 Z0.000000
G1 X37.4
G0 X37.3 Y28.7 Z0 
G1 X37.0 Z0.030980
G1 X36.9 Z0.100000
G1 X32.2 Z0.000000
G1 X27.6 Z0.036078
G1 X27.5 Z0.100000
G1 X22.9 Z0.097647
G1 X22.8 Z0.012157
G1 X22.7 Z0.000000
G1 X17.8 Z0.067059
G1 X17.7 Z0.100000
G1 X13.1 Z0.043137
G1 X13.0 Z0.000000
G1 X12.7
G0 X12.8 Y28.8 Z0 
G1 X13.1 Z0.100000
G1 X17.7 Z0.100000
G1 X17.8 Z0.001176
G1 X17.9 Z0.000000
G1 X22.6 Z0.000000
G1 X22.7 Z0.099608
G1 X22.8 Z0.100000
G1 X27.3 Z0.100000
G1 X27.4 Z0.023529
G1 X27.5 Z0.000000
G1 X32.0 Z0.000000
G1 X32.1 Z0.041961
G1 X32.2 Z0.100000
G1 X36.7 Z0.100000
G1 X36.8 Z0.098824
G1 X36.9 Z0.000000
G1 X37.2
G0 X37.2 Y28.9 Z0 
G1 X36.9 Z0.009020
G1 X36.8 Z0.095294
G1 X36.7 Z0.100000
G1 X32.1 Z0.000000
G1 X27.4 Z0.096863
G1 X27.3 Z0.100000
G1 X22.7 Z0.036863
G1 X22.6 Z0.000000
G1 X17.9 Z0.089412
G1 X17.8 Z0.100000
G1 X13.3 Z0.098431
G1 X13.2 Z0.016078
G1 X13.1 Z0.000000
G1 X12.8
G0 X12.9 Y29.0 Z0 
G1 X13.2 Z0.058824
G1 X13.3 Z0.100000
G1 X17.8 Z0.100000
G1 X17.9 Z0.000000
G1 X22.5 Z0.000000
G1 X22.6 Z0.089020
G1 X22.7 Z0.100000
G1 X27.2 Z0.100000
G1 X27.3 Z0.051765
G1 X27.4 Z0.000000
G1 X31.9 Z0.000000
G1 X32.0 Z0.013725
G1 X32.1 Z0.100000
G1 X36.6 Z0.100000
G1 X36.7 Z0.046667
G1 X36.8 Z0.000000
G1 X37.1
G0 X37.0 Y29.1 Z0 
G1 X36.7 Z0.100000
G1 X32.0 Z0.025490
G1 X31.9 Z0.000000
G1 X27.4 Z0.097647
G1 X27.3 Z0.100000
G1 X22.6 Z0.010588
G1 X22.5 Z0.000000
G1 X18.0 Z0.063137
G1 X17.9 Z0.100000
G1 X13.3 Z0.000000
G1 X13.0
G0 X13.0 Y29.2 Z0 
G1 X13.3 Z0.085098
G1 X13.4 Z0.100000
G1 X17.8 Z0.100000
G1 X17.9 Z0.099608
G1 X18.0 Z0.020392
G1 X18.1 Z0.000000
G1 X22.4 Z0.000000
G1 X22.5 Z0.064314
G1 X22.6 Z0.100000
G1 X27.3 Z0.100000
G1 X27.4 Z0.000000
G1 X31.8 Z0.000000
G1 X31.9 Z0.081961
G1 X32.0 Z0.100000
G1 X36.5 Z0.100000
G1 X36.6 Z0.077647
G1 X36.7 Z0.000000
G1 X37.0
G0 X36.9 Y29.3 Z0 
G1 X36.6 Z0.100000
G1 X31.9 Z0.004706
G1 X31.8 Z0.000000
G1 X27.6 Z0.001176
G1 X27.5 Z0.080784
G1 X27.4 Z0.100000
G1 X22.5 Z0.076471
G1 X22.4 Z0.000000
G1 X18.1 Z0.100000
G1 X13.4 Z0.000000
G1 X13.1
G0 X13.1 Y29.4 Z0 
G1 X13.4 Z0.061176
G1 X13.5 Z0.100000
G1 X18.0 Z0.100000
G1 X18.1 Z0.045490
G1 X18.2 Z0.000000
G1 X22.2 Z0.000000
G1 X22.3 Z0.002745
G1 X22.4 Z0.100000
G1 X27.4 Z0.100000
G1 X27.5 Z0.090588
G1 X27.6 Z0.000000
G1 X31.6 Z0.000000
G1 X31.7 Z0.012941
G1 X31.8 Z0.097647
G1 X31.9 Z0.100000
G1 X36.4 Z0.100000
G1 X36.5 Z0.049412
G1 X36.6 Z0.000000
G1 X36.9
G0 X36.9 Y29.5 Z0 
G1 X36.6 Z0.004314
G1 X36.5 Z0.089412
G1 X36.4 Z0.100000
G1 X31.8 Z0.068235
G1 X31.7 Z0.000000
G1 X27.6 Z0.100000
G1 X22.4 Z0.046667
G1 X22.3 Z0.000000
G1 X18.3 Z0.009020
G1 X18.2 Z0.095294
G1 X18.1 Z0.100000
G1 X13.6 Z0.094510
G1 X13.5 Z0.008627
G1 X13.4 Z0.000000
G1 X13.1
G0 X13.2 Y29.6 Z0 
G1 X13.5 Z0.002745
G1 X13.6 Z0.100000
G1 X18.1 Z0.100000
G1 X18.2 Z0.098824
G1 X18.3 Z0.000000
G1 X22.1 Z0.000000
G1 X22.2 Z0.060784
G1 X22.3 Z0.100000
G1 X27.5 Z0.100000
G1 X27.6 Z0.064314
G1 X27.7 Z0.000000
G1 X31.5 Z0.000000
G1 X31.6 Z0.001176
G1 X31.7 Z0.100000
G1 X36.3 Z0.100000
G1 X36.4 Z0.000392
G1 X36.5 Z0.000000
G1 X36.8
G0 X36.7 Y29.7 Z0 
G1 X36.4 Z0.099608
G1 X36.3 Z0.100000
G1 X31.7 Z0.040000
G1 X31.6 Z0.000000
G1 X27.7 Z0.099608
G1 X27.6 Z0.100000
G1 X22.3 Z0.098824
G1 X22.2 Z0.000000
G1 X18.3 Z0.100000
G1 X13.6 Z0.000000
G1 X13.3
G0 X13.3 Y29.8 Z0 
G1 X13.6 Z0.020000
G1 X13.7 Z0.098824
G1 X13.8 Z0.100000
G1 X18.2 Z0.100000
G1 X18.3 Z0.084314
G1 X18.4 Z0.000000
G1 X22.0 Z0.000000
G1 X22.1 Z0.030588
G1 X22.2 Z0.100000
G1 X27.6 Z0.100000
G1 X27.7 Z0.034902
G1 X27.8 Z0.000000
G1 X31.5 Z0.000000
G1 X31.6 Z0.100000
G1 X36.1 Z0.100000
G1 X36.2 Z0.096863
G1 X36.3 Z0.011765
G1 X36.4 Z0.000000
G1 X36.7
G0 X36.6 Y29.9 Z0 
G1 X36.3 Z0.005490
G1 X36.2 Z0.100000
G1 X31.6 Z0.067451
G1 X31.5 Z0.000000
G1 X27.9 Z0.048235
G1 X27.8 Z0.100000
G1 X22.1 Z0.000000
G1 X18.5 Z0.006667
G1 X18.4 Z0.100000
G1 X13.8 Z0.010588
G1 X13.7 Z0.000000
G1 X13.4
G0 X13.5 Y30.0 Z0 
G1 X13.8 Z0.100000
G1 X18.3 Z0.100000
G1 X18.4 Z0.054902
G1 X18.5 Z0.000000
G1 X21.9 Z0.000000
G1 X22.0 Z0.006667
G1 X22.1 Z0.100000
G1 X27.7 Z0.100000
G1 X27.8 Z0.095294
G1 X27.9 Z0.000000
G1 X31.3 Z0.000000
G1 X31.4 Z0.023137
G1 X31.5 Z0.099608
G1 X31.6 Z0.100000
G1 X36.1 Z0.100000
G1 X36.2 Z0.000000
G1 X36.5
G0 X36.5 Y30.1 Z0 
G1 X36.2 Z0.024706
G1 X36.1 Z0.100000
G1 X31.4 Z0.000000
G1 X28.0 Z0.020000
G1 X27.9 Z0.100000
G1 X22.1 Z0.097647
G1 X22.0 Z0.015294
G1 X21.9 Z0.000000
G1 X18.6 Z0.068235
G1 X18.5 Z0.100000
G1 X13.9 Z0.036078
G1 X13.8 Z0.000000
G1 X13.5
G0 X13.5 Y30.2 Z0 
G1 X13.8 Z0.000392
G1 X13.9 Z0.100000
G1 X18.5 Z0.100000
G1 X18.6 Z0.000000
G1 X21.8 Z0.000000
G1 X21.9 Z0.070588
G1 X22.0 Z0.100000
G1 X27.8 Z0.100000
G1 X27.9 Z0.076471
G1 X28.0 Z0.000392
G1 X28.1 Z0.000000
G1 X31.2 Z0.000000
G1 X31.3 Z0.004314
G1 X31.4 Z0.100000
G1 X36.0 Z0.100000
G1 X36.1 Z0.000000
G1 X36.4
G0 X36.4 Y30.3 Z0 
G1 X36.1 Z0.053725
G1 X36.0 Z0.100000
G1 X31.4 Z0.095686
G1 X31.3 Z0.010980
G1 X31.2 Z0.000000
G1 X28.1 Z0.087059
G1 X28.0 Z0.100000
G1 X21.9 Z0.001176
G1 X21.8 Z0.000000
G1 X18.7 Z0.037255
G1 X18.6 Z0.100000
G1 X14.0 Z0.065490
G1 X13.9 Z0.000000
G1 X13.6
G0 X13.7 Y30.4 Z0 
G1 X14.0 Z0.051765
G1 X14.1 Z0.100000
G1 X18.6 Z0.100000
G1 X18.7 Z0.000000
G1 X21.6 Z0.000000
G1 X21.7 Z0.004706
G1 X21.8 Z0.090196
G1 X21.9 Z0.100000
G1 X28.0 Z0.100000
G1 X28.1 Z0.009020
G1 X28.2 Z0.000000
G1 X31.1 Z0.000000
G1 X31.2 Z0.099608
G1 X31.3 Z0.100000
G1 X35.8 Z0.100000
G1 X35.9 Z0.040392
G1 X36.0 Z0.000000
G1 X36.3
G0 X36.3 Y30.5 Z0 
G1 X36.0 Z0.001176
G1 X35.9 Z0.100000
G1 X31.2 Z0.001176
G1 X31.1 Z0.000000
G1 X28.2 Z0.059216
G1 X28.1 Z0.100000
G1 X21.8 Z0.054510
G1 X21.7 Z0.000000
G1 X18.8 Z0.011765
G1 X18.7 Z0.100000
G1 X14.1 Z0.004314
G1 X14.0 Z0.000000
G1 X13.7
G0 X13.8 Y30.6 Z0 
G1 X14.1 Z0.080000
G1 X14.2 Z0.100000
G1 X18.6 Z0.100000
G1 X18.7 Z0.099608
G1 X18.8 Z0.021176
G1 X18.9 Z0.000000
G1 X21.6 Z0.000000
G1 X21.7 Z0.100000
G1 X28.1 Z0.100000
G1 X28.2 Z0.000000
G1 X31.0 Z0.000000
G1 X31.1 Z0.089020
G1 X31.2 Z0.100000
G1 X35.7 Z0.100000
G1 X35.8 Z0.070196
G1 X35.9 Z0.000000
G1 X36.2
G0 X36.2 Y30.7 Z0 
G1 X35.9 Z0.014902
G1 X35.8 Z0.097647
G1 X35.7 Z0.100000
G1 X31.1 Z0.000000
G1 X28.3 Z0.029804
G1 X28.2 Z0.100000
G1 X21.7 Z0.022353
G1 X21.6 Z0.000000
G1 X18.9 Z0.077647
G1 X18.8 Z0.100000
G1 X14.2 Z0.024706
G1 X14.1 Z0.000000
G1 X13.8
G0 X13.9 Y30.8 Z0 
G1 X14.2 Z0.012941
G1 X14.3 Z0.100000
G1 X18.8 Z0.100000
G1 X18.9 Z0.002745
G1 X19.0 Z0.000000
G1 X21.5 Z0.000000
G1 X21.6 Z0.100000
G1 X28.2 Z0.100000
G1 X28.3 Z0.043137
G1 X28.4 Z0.000000
G1 X30.9 Z0.000000
G1 X31.0 Z0.065098
G1 X31.1 Z0.100000
G1 X35.6 Z0.100000
G1 X35.7 Z0.007451
G1 X35.8 Z0.000000
G1 X36.1
G0 X36.0 Y30.9 Z0 
G1 X35.7 Z0.084314
G1 X35.6 Z0.100000
G1 X31.0 Z0.076471
G1 X30.9 Z0.000000
G1 X28.4 Z0.100000
G1 X21.6 Z0.050588
G1 X21.5 Z0.000000
G1 X19.1 Z0.009020
G1 X19.0 Z0.095294
G1 X18.9 Z0.100000
G1 X14.4 Z0.090588
G1 X14.3 Z0.000000
G1 X14.0
G0 X14.0 Y31.0 Z0 
G1 X14.3 Z0.041176
G1 X14.4 Z0.100000
G1 X18.9 Z0.100000
G1 X19.0 Z0.059216
G1 X19.1 Z0.000000
G1 X21.3 Z0.000000
G1 X21.4 Z0.010588
G1 X21.5 Z0.095686
G1 X21.6 Z0.100000
G1 X28.3 Z0.100000
G1 X28.4 Z0.016863
G1 X28.5 Z0.000000
G1 X30.8 Z0.000000
G1 X30.9 Z0.100000
G1 X35.5 Z0.100000
G1 X35.6 Z0.027843
G1 X35.7 Z0.000000
G1 X36.0
G0 X35.9 Y31.1 Z0 
G1 X35.6 Z0.098824
G1 X35.5 Z0.100000
G1 X30.9 Z0.049804
G1 X30.8 Z0.000000
G1 X28.6 Z0.027843
G1 X28.5 Z0.100000
G1 X21.5 Z0.099608
G1 X21.4 Z0.000000
G1 X19.1 Z0.100000
G1 X14.4 Z0.000000
G1 X14.1
G0 X14.1 Y31.2 Z0 
G1 X14.4 Z0.070588
G1 X14.5 Z0.100000
G1 X19.0 Z0.100000
G1 X19.1 Z0.029412
G1 X19.2 Z0.000000
G1 X21.2 Z0.000000
G1 X21.3 Z0.000392
G1 X21.4 Z0.100000
G1 X28.4 Z0.100000
G1 X28.5 Z0.083922
G1 X28.6 Z0.000000
G1 X30.6 Z0.000000
G1 X30.7 Z0.010588
G1 X30.8 Z0.095686
G1 X30.9 Z0.100000
G1 X35.4 Z0.100000
G1 X35.5 Z0.057647
G1 X35.6 Z0.000000
G1 X35.9
G0 X35.8 Y31.3 Z0 
G1 X35.5 Z0.044314
G1 X35.4 Z0.100000
G1 X30.8 Z0.098824
G1 X30.7 Z0.000000
G1 X28.7 Z0.005882
G1 X28.6 Z0.100000
G1 X21.4 Z0.087059
G1 X21.3 Z0.002745
G1 X21.2 Z0.000000
G1 X19.2 Z0.100000
G1 X14.6 Z0.057647
G1 X14.5 Z0.000000
G1 X14.2
G0 X14.3 Y31.4 Z0 
G1 X14.6 Z0.100000
G1 X19.1 Z0.100000
G1 X19.2 Z0.055686
G1 X19.3 Z0.000000
G1 X21.1 Z0.000000
G1 X21.2 Z0.094510
G1 X21.3 Z0.100000
G1 X28.5 Z0.100000
G1 X28.6 Z0.097647
G1 X28.7 Z0.000000
G1 X30.5 Z0.000000
G1 X30.6 Z0.034902
G1 X30.7 Z0.100000
G1 X35.3 Z0.100000
G1 X35.4 Z0.000000
G1 X35.7
G0 X35.7 Y31.5 Z0 
G1 X35.4 Z0.074510
G1 X35.3 Z0.100000
G1 X30.7 Z0.087451
G1 X30.6 Z0.000000
G1 X28.7 Z0.100000
G1 X21.2 Z0.000000
G1 X19.4 Z0.014902
G1 X19.3 Z0.097647
G1 X19.2 Z0.100000
G1 X14.7 Z0.083137
G1 X14.6 Z0.000000
G1 X14.3
G0 X14.4 Y31.6 Z0 
G1 X14.7 Z0.071765
G1 X14.8 Z0.100000
G1 X19.3 Z0.100000
G1 X19.4 Z0.000000
G1 X21.0 Z0.000000
G1 X21.1 Z0.073333
G1 X21.2 Z0.100000
G1 X28.6 Z0.100000
G1 X28.7 Z0.081176
G1 X28.8 Z0.001176
G1 X28.9 Z0.000000
G1 X30.4 Z0.000000
G1 X30.5 Z0.009020
G1 X30.6 Z0.100000
G1 X35.1 Z0.100000
G1 X35.2 Z0.060000
G1 X35.3 Z0.000000
G1 X35.6
G0 X35.5 Y31.7 Z0 
G1 X35.2 Z0.100000
G1 X30.6 Z0.098824
G1 X30.5 Z0.019216
G1 X30.4 Z0.000000
G1 X28.9 Z0.090588
G1 X28.8 Z0.100000
G1 X21.1 Z0.001569
G1 X21.0 Z0.000000
G1 X19.5 Z0.038824
G1 X19.4 Z0.100000
G1 X14.8 Z0.000000
G1 X14.5
G0 X14.5 Y31.8 Z0 
G1 X14.8 Z0.093725
G1 X14.9 Z0.100000
G1 X19.3 Z0.100000
G1 X19.4 Z0.090588
G1 X19.5 Z0.005490
G1 X19.6 Z0.000000
G1 X20.9 Z0.000000
G1 X21.0 Z0.044314
G1 X21.1 Z0.100000
G1 X28.8 Z0.100000
G1 X28.9 Z0.000000
G1 X30.3 Z0.000000
G1 X30.4 Z0.075686
G1 X30.5 Z0.100000
G1 X35.0 Z0.100000
G1 X35.1 Z0.087059
G1 X35.2 Z0.000000
G1 X35.5
G0 X35.5 Y31.9 Z0 
G1 X35.2 Z0.000392
G1 X35.1 Z0.100000
G1 X30.4 Z0.002353
G1 X30.3 Z0.000000
G1 X29.0 Z0.065098
G1 X28.9 Z0.100000
G1 X21.0 Z0.057647
G1 X20.9 Z0.000000
G1 X19.6 Z0.096471
G1 X19.5 Z0.100000
G1 X14.9 Z0.002353
G1 X14.8 Z0.000000
G1 X14.5
G0 X14.6 Y32.0 Z0 
G1 X14.9 Z0.100000
G1 X19.5 Z0.100000
G1 X19.6 Z0.000000
G1 X20.8 Z0.000000
G1 X20.9 Z0.097647
G1 X21.0 Z0.100000
G1 X28.8 Z0.100000
G1 X28.9 Z0.099608
G1 X29.0 Z0.023137
G1 X29.1 Z0.000000
G1 X30.2 Z0.000000
G1 X30.3 Z0.047451
G1 X30.4 Z0.100000
G1 X34.9 Z0.100000
G1 X35.0 Z0.098824
G1 X35.1 Z0.000000
G1 X35.4
G0 X35.4 Y32.1 Z0 
G1 X35.1 Z0.010980
G1 X35.0 Z0.095686
G1 X34.9 Z0.100000
G1 X30.3 Z0.061176
G1 X30.2 Z0.000000
G1 X29.1 Z0.100000
G1 X20.9 Z0.026275
G1 X20.8 Z0.000000
G1 X19.7 Z0.078039
G1 X19.6 Z0.100000
G1 X15.1 Z0.098824
G1 X15.0 Z0.018431
G1 X14.9 Z0.000000
G1 X14.6
G0 X14.7 Y32.2 Z0 
G1 X15.0 Z0.009020
G1 X15.1 Z0.100000
G1 X19.6 Z0.100000
G1 X19.7 Z0.003529
G1 X19.8 Z0.000000
G1 X20.6 Z0.000000
G1 X20.7 Z0.041176
G1 X20.8 Z0.100000
G1 X29.0 Z0.100000
G1 X29.1 Z0.049412
G1 X29.2 Z0.000000
G1 X30.1 Z0.000000
G1 X30.2 Z0.100000
G1 X34.8 Z0.100000
G1 X34.9 Z0.004314
G1 X35.0 Z0.000000
G1 X35.3
G0 X35.2 Y32.3 Z0 
G1 X34.9 Z0.100000
G1 X30.2 Z0.032549
G1 X30.1 Z0.000000
G1 X29.2 Z0.095686
G1 X29.1 Z0.100000
G1 X20.8 Z0.090588
G1 X20.7 Z0.000000
G1 X19.8 Z0.046667
G1 X19.7 Z0.100000
G1 X15.1 Z0.000000
G1 X14.8
G0 X14.8 Y32.4 Z0 
G1 X15.1 Z0.034118
G1 X15.2 Z0.100000
G1 X19.7 Z0.100000
G1 X19.8 Z0.060784
G1 X19.9 Z0.000000
G1 X20.5 Z0.000000
G1 X20.6 Z0.012941
G1 X20.7 Z0.100000
G1 X29.1 Z0.100000
G1 X29.2 Z0.020392
G1 X29.3 Z0.000000
G1 X30.0 Z0.000000
G1 X30.1 Z0.100000
G1 X34.6 Z0.100000
G1 X34.7 Z0.099608
G1 X34.8 Z0.023137
G1 X34.9 Z0.000000
G1 X35.2
G0 X35.1 Y32.5 Z0 
G1 X34.8 Z0.065098
G1 X34.7 Z0.100000
G1 X30.1 Z0.008627
G1 X30.0 Z0.000000
G1 X29.4 Z0.000392
G1 X29.3 Z0.076863
G1 X29.2 Z0.100000
G1 X20.7 Z0.068235
G1 X20.6 Z0.000000
G1 X19.9 Z0.098824
G1 X19.8 Z0.100000
G1 X15.3 Z0.076471
G1 X15.2 Z0.000392
G1 X15.1 Z0.000000
G1 X14.8
G0 X15.0 Y32.6 Z0 
G1 X15.3 Z0.100000
G1 X19.8 Z0.100000
G1 X19.9 Z0.029804
G1 X20.0 Z0.000000
G1 X20.4 Z0.000000
G1 X20.5 Z0.001176
G1 X20.6 Z0.100000
G1 X29.2 Z0.100000
G1 X29.3 Z0.087059
G1 X29.4 Z0.000000
G1 X29.8 Z0.000000
G1 X29.9 Z0.018039
G1 X30.0 Z0.098824
G1 X30.1 Z0.100000
G1 X34.6 Z0.100000
G1 X34.7 Z0.000000
G1 X35.0
G0 X35.0 Y32.7 Z0 
G1 X34.7 Z0.037255
G1 X34.6 Z0.100000
G1 X29.9 Z0.000000
G1 X29.5 Z0.009020
G1 X29.4 Z0.100000
G1 X20.6 Z0.089412
G1 X20.5 Z0.004314
G1 X20.4 Z0.000000
G1 X20.1 Z0.043529
G1 X20.0 Z0.100000
G1 X15.4 Z0.050588
G1 X15.3 Z0.000000
G1 X15.0
G0 X15.0 Y32.8 Z0 
G1 X15.3 Z0.003529
G1 X15.4 Z0.100000
G1 X19.9 Z0.100000
G1 X20.0 Z0.093333
G1 X20.1 Z0.000000
G1 X20.3 Z0.000000
G1 X20.4 Z0.051373
G1 X20.5 Z0.100000
G1 X29.3 Z0.100000
G1 X29.4 Z0.060000
G1 X29.5 Z0.000000
G1 X29.7 Z0.000000
G1 X29.8 Z0.002353
G1 X29.9 Z0.100000
G1 X34.5 Z0.100000
G1 X34.6 Z0.001176
G1 X34.7 Z0.000000
G1 X35.0
G0 X34.9 Y32.9 Z0 
G1 X34.6 Z0.067059
G1 X34.5 Z0.100000
G1 X29.9 Z0.093725
G1 X29.8 Z0.007843
G1 X29.7 Z0.000000
G1 X29.6 Z0.074510
G1 X29.5 Z0.100000
G1 X20.4 Z0.000000
G1 X20.2 Z0.016078
G1 X20.1 Z0.100000
G1 X15.5 Z0.078824
G1 X15.4 Z0.000000
G1 X15.1
G0 X15.1 Y33.0 Z0 
G1 X15.4 Z0.022353
G1 X15.5 Z0.099608
G1 X15.6 Z0.100000
G1 X20.0 Z0.100000
G1 X20.1 Z0.070196
G1 X20.2 Z0.000000
G1 X20.3 Z0.021176
G1 X20.4 Z0.100000
G1 X29.5 Z0.100000
G1 X29.6 Z0.000000
G1 X29.7 Z0.058824
G1 X29.8 Z0.100000
G1 X34.3 Z0.100000
G1 X34.4 Z0.097647
G1 X34.5 Z0.014118
G1 X34.6 Z0.000000
G1 X34.9
G0 X34.8 Y33.1 Z0 
G1 X34.5 Z0.005882
G1 X34.4 Z0.100000
G1 X29.7 Z0.043529
G1 X29.6 Z0.100000
G1 X20.3 Z0.035686
G1 X20.2 Z0.100000
G1 X15.6 Z0.012157
G1 X15.5 Z0.000000
G1 X15.2
G0 X15.3 Y33.2 Z0 
G1 X15.6 Z0.090196
G1 X15.7 Z0.100000
G1 X24.8 Z0.100000
G1 X24.9 Z0.003529
G1 X25.0 Z0.063137
G1 X25.1 Z0.100000
G1 X34.2 Z0.100000
G1 X34.3 Z0.083922
G1 X34.4 Z0.000000
G1 X34.7
G0 X34.7 Y33.3 Z0 
G1 X34.4 Z0.027451
G1 X34.3 Z0.100000
G1 X25.1 Z0.010588
G1 X25.0 Z0.000000
G1 X24.9 Z0.100000
G1 X15.7 Z0.038824
G1 X15.6 Z0.000000
G1 X15.3
G0 X15.4 Y33.4 Z0 
G1 X15.7 Z0.025490
G1 X15.8 Z0.100000
G1 X24.6 Z0.100000
G1 X24.7 Z0.099608
G1 X24.8 Z0.023137
G1 X24.9 Z0.000000
G1 X25.0 Z0.000000
G1 X25.1 Z0.087059
G1 X25.2 Z0.100000
G1 X34.1 Z0.100000
G1 X34.2 Z0.014902
G1 X34.3 Z0.000000
G1 X34.6
G0 X34.5 Y33.5 Z0 
G1 X34.2 Z0.100000
G1 X25.2 Z0.033725
G1 X25.1 Z0.000000
G1 X24.8 Z0.065490
G1 X24.7 Z0.100000
G1 X15.8 Z0.000000
G1 X15.5
G0 X15.5 Y33.6 Z0 
G1 X15.8 Z0.054902
G1 X15.9 Z0.100000
G1 X24.6 Z0.100000
G1 X24.7 Z0.000000
G1 X25.1 Z0.000000
G1 X25.2 Z0.098824
G1 X25.3 Z0.100000
G1 X34.0 Z0.100000
G1 X34.1 Z0.041961
G1 X34.2 Z0.000000
G1 X34.5
G0 X34.4 Y33.7 Z0 
G1 X34.1 Z0.100000
G1 X25.4 Z0.094510
G1 X25.3 Z0.009020
G1 X25.2 Z0.000000
G1 X24.7 Z0.038824
G1 X24.6 Z0.100000
G1 X15.9 Z0.000000
G1 X15.6
G0 X15.6 Y33.8 Z0 
G1 X15.9 Z0.082745
G1 X16.0 Z0.100000
G1 X24.5 Z0.100000
G1 X24.6 Z0.001176
G1 X24.7 Z0.000000
G1 X25.2 Z0.000000
G1 X25.3 Z0.047451
G1 X25.4 Z0.100000
G1 X33.9 Z0.100000
G1 X34.0 Z0.073725
G1 X34.1 Z0.000000
G1 X34.4
G0 X34.3 Y33.9 Z0 
G1 X34.0 Z0.057647
G1 X33.9 Z0.100000
G1 X25.4 Z0.000000
G1 X24.6 Z0.068627
G1 X24.5 Z0.100000
G1 X16.1 Z0.071373
G1 X16.0 Z0.000000
G1 X15.7
G0 X15.7 Y34.0 Z0 
G1 X16.0 Z0.015294
G1 X16.1 Z0.100000
G1 X24.3 Z0.100000
G1 X24.4 Z0.097647
G1 X24.5 Z0.014902
G1 X24.6 Z0.000000
G1 X25.3 Z0.000000
G1 X25.4 Z0.074902
G1 X25.5 Z0.100000
G1 X33.8 Z0.100000
G1 X33.9 Z0.007451
G1 X34.0 Z0.000000
G1 X34.3
G0 X34.2 Y34.1 Z0 
G1 X33.9 Z0.086275
G1 X33.8 Z0.100000
G1 X25.6 Z0.061176
G1 X25.5 Z0.000000
G1 X24.5 Z0.007451
G1 X24.4 Z0.100000
G1 X16.2 Z0.092549
G1 X16.1 Z0.000000
G1 X15.8
G0 X15.8 Y34.2 Z0 
G1 X16.1 Z0.001569
G1 X16.2 Z0.085098
G1 X16.3 Z0.100000
G1 X24.2 Z0.100000
G1 X24.3 Z0.084314
G1 X24.4 Z0.000000
G1 X25.5 Z0.000000
G1 X25.6 Z0.100000
G1 X33.6 Z0.100000
G1 X33.7 Z0.074510
G1 X33.8 Z0.000000
G1 X34.1
G0 X34.1 Y34.3 Z0 
G1 X33.8 Z0.020000
G1 X33.7 Z0.100000
G1 X25.7 Z0.085098
G1 X25.6 Z0.000000
G1 X24.4 Z0.029412
G1 X24.3 Z0.100000
G1 X16.3 Z0.030588
G1 X16.2 Z0.000000
G1 X15.9
G0 X16.0 Y34.4 Z0 
G1 X16.3 Z0.098431
G1 X16.4 Z0.100000
G1 X24.1 Z0.100000
G1 X24.2 Z0.017255
G1 X24.3 Z0.000000
G1 X25.6 Z0.000000
G1 X25.7 Z0.100000
G1 X33.5 Z0.100000
G1 X33.6 Z0.095294
G1 X33.7 Z0.000000
G1 X34.0
G0 X34.0 Y34.5 Z0 
G1 X33.7 Z0.046667
G1 X33.6 Z0.100000
G1 X25.8 Z0.098824
G1 X25.7 Z0.000000
G1 X24.2 Z0.100000
G1 X16.4 Z0.060000
G1 X16.3 Z0.000000
G1 X16.0
G0 X16.1 Y34.6 Z0 
G1 X16.4 Z0.100000
G1 X24.0 Z0.100000
G1 X24.1 Z0.046275
G1 X24.2 Z0.000000
G1 X25.6 Z0.000000
G1 X25.7 Z0.008627
G1 X25.8 Z0.093725
G1 X25.9 Z0.100000
G1 X33.5 Z0.100000
G1 X33.6 Z0.000000
G1 X33.9
G0 X33.9 Y34.7 Z0 
G1 X33.6 Z0.020392
G1 X33.5 Z0.098824
G1 X33.4 Z0.100000
G1 X25.9 Z0.002353
G1 X25.8 Z0.000000
G1 X24.1 Z0.100000
G1 X16.5 Z0.032941
G1 X16.4 Z0.000000
G1 X16.1
G0 X16.2 Y34.8 Z0 
G1 X16.5 Z0.075686
G1 X16.6 Z0.100000
G1 X23.9 Z0.100000
G1 X24.0 Z0.077647
G1 X24.1 Z0.000000
G1 X25.8 Z0.000000
G1 X25.9 Z0.100000
G1 X33.3 Z0.100000
G1 X33.4 Z0.062353
G1 X33.5 Z0.000000
G1 X33.8
G0 X33.7 Y34.9 Z0 
G1 X33.4 Z0.100000
G1 X26.1 Z0.098431
G1 X26.0 Z0.016078
G1 X25.9 Z0.000000
G1 X24.0 Z0.063137
G1 X23.9 Z0.100000
G1 X16.6 Z0.000000
G1 X16.3
G0 X16.3 Y35.0 Z0 
G1 X16.6 Z0.095294
G1 X16.7 Z0.100000
G1 X23.8 Z0.100000
G1 X23.9 Z0.011765
G1 X24.0 Z0.000000
G1 X25.9 Z0.000000
G1 X26.0 Z0.059216
G1 X26.1 Z0.100000
G1 X33.2 Z0.100000
G1 X33.3 Z0.089020
G1 X33.4 Z0.000000
G1 X33.7
G0 X33.7 Y35.1 Z0 
G1 X33.4 Z0.000392
G1 X33.3 Z0.078824
G1 X33.2 Z0.100000
G1 X26.1 Z0.000000
G1 X23.9 Z0.089412
G1 X23.8 Z0.100000
G1 X16.8 Z0.087451
G1 X16.7 Z0.003529
G1 X16.6 Z0.000000
G1 X16.3
G0 X16.4 Y35.2 Z0 
G1 X16.7 Z0.000392
G1 X16.8 Z0.100000
G1 X23.6 Z0.100000
G1 X23.7 Z0.080784
G1 X23.8 Z0.001176
G1 X23.9 Z0.000000
G1 X26.0 Z0.000000
G1 X26.1 Z0.030588
G1 X26.2 Z0.100000
G1 X33.1 Z0.100000
G1 X33.2 Z0.000000
G1 X33.5
G0 X33.5 Y35.3 Z0 
G1 X33.2 Z0.096471
G1 X33.1 Z0.100000
G1 X26.2 Z0.000000
G1 X23.8 Z0.023529
G1 X23.7 Z0.100000
G1 X16.9 Z0.099608
G1 X16.8 Z0.000000
G1 X16.5
G0 X16.5 Y35.4 Z0 
G1 X16.8 Z0.010980
G1 X16.9 Z0.100000
G1 X23.5 Z0.100000
G1 X23.6 Z0.097647
G1 X23.7 Z0.000000
G1 X26.1 Z0.000000
G1 X26.2 Z0.058039
G1 X26.3 Z0.100000
G1 X33.0 Z0.100000
G1 X33.1 Z0.004706
G1 X33.2 Z0.000000
G1 X33.5
G0 X33.4 Y35.5 Z0 
G1 X33.1 Z0.100000
G1 X26.4 Z0.092549
G1 X26.3 Z0.006667
G1 X26.2 Z0.000000
G1 X23.7 Z0.053725
G1 X23.6 Z0.100000
G1 X16.9 Z0.000000
G1 X16.6
G0 X16.6 Y35.6 Z0 
G1 X16.9 Z0.037255
G1 X17.0 Z0.100000
G1 X23.5 Z0.100000
G1 X23.6 Z0.000000
G1 X26.2 Z0.000000
G1 X26.3 Z0.001176
G1 X26.4 Z0.100000
G1 X32.9 Z0.100000
G1 X33.0 Z0.024314
G1 X33.1 Z0.000000
G1 X33.4
G0 X33.3 Y35.7 Z0 
G1 X33.0 Z0.014118
G1 X32.9 Z0.100000
G1 X26.5 Z0.071373
G1 X26.4 Z0.000000
G1 X23.6 Z0.027843
G1 X23.5 Z0.100000
G1 X17.1 Z0.022353
G1 X17.0 Z0.000000
G1 X16.7
G0 X16.8 Y35.8 Z0 
G1 X17.1 Z0.100000
G1 X23.3 Z0.100000
G1 X23.4 Z0.070588
G1 X23.5 Z0.000000
G1 X26.3 Z0.000000
G1 X26.4 Z0.016078
G1 X26.5 Z0.097647
G1 X26.6 Z0.100000
G1 X32.8 Z0.100000
G1 X32.9 Z0.000000
G1 X33.2
G0 X33.2 Y35.9 Z0 
G1 X32.9 Z0.039216
G1 X32.8 Z0.100000
G1 X26.6 Z0.006667
G1 X26.5 Z0.000000
G1 X23.4 Z0.100000
G1 X17.2 Z0.052941
G1 X17.1 Z0.000000
G1 X16.8
G0 X16.8 Y36.0 Z0 
G1 X17.1 Z0.004706
G1 X17.2 Z0.090196
G1 X17.3 Z0.100000
G1 X23.2 Z0.100000
G1 X23.3 Z0.093333
G1 X23.4 Z0.000000
G1 X26.5 Z0.000000
G1 X26.6 Z0.100000
G1 X32.6 Z0.100000
G1 X32.7 Z0.081176
G1 X32.8 Z0.001176
G1 X32.9 Z0.000000
G1 X33.2
G0 X33.0 Y36.1 Z0 
G1 X32.7 Z0.100000
G1 X26.7 Z0.026667
G1 X26.6 Z0.000000
G1 X23.4 Z0.002353
G1 X23.3 Z0.086275
G1 X23.2 Z0.100000
G1 X17.3 Z0.001176
G1 X17.2 Z0.000000
G1 X16.9
G0 X17.0 Y36.2 Z0 
G1 X17.3 Z0.069412
G1 X17.4 Z0.100000
G1 X23.1 Z0.100000
G1 X23.2 Z0.000000
G1 X26.6 Z0.000000
G1 X26.7 Z0.097647
G1 X26.8 Z0.100000
G1 X32.5 Z0.100000
G1 X32.6 Z0.054902
G1 X32.7 Z0.000000
G1 X33.0
G0 X33.0 Y36.3 Z0 
G1 X32.7 Z0.006667
G1 X32.6 Z0.100000
G1 X26.8 Z0.056078
G1 X26.7 Z0.000000
G1 X23.2 Z0.098824
G1 X23.1 Z0.100000
G1 X17.4 Z0.013725
G1 X17.3 Z0.000000
G1 X17.0
G0 X17.1 Y36.4 Z0 
G1 X17.4 Z0.092157
G1 X17.5 Z0.100000
G1 X23.0 Z0.100000
G1 X23.1 Z0.009020
G1 X23.2 Z0.000000
G1 X26.7 Z0.000000
G1 X26.8 Z0.041961
G1 X26.9 Z0.100000
G1 X32.4 Z0.100000
G1 X32.5 Z0.083922
G1 X32.6 Z0.000000
G1 X32.9
G0 X32.9 Y36.5 Z0 
G1 X32.6 Z0.027843
G1 X32.5 Z0.100000
G1 X26.9 Z0.001176
G1 X26.8 Z0.000000
G1 X23.1 Z0.100000
G1 X17.5 Z0.041961
G1 X17.4 Z0.000000
G1 X17.1
G0 X17.2 Y36.6 Z0 
G1 X17.5 Z0.027843
G1 X17.6 Z0.100000
G1 X22.9 Z0.100000
G1 X23.0 Z0.034118
G1 X23.1 Z0.000000
G1 X26.8 Z0.000000
G1 X26.9 Z0.070196
G1 X27.0 Z0.100000
G1 X32.3 Z0.100000
G1 X32.4 Z0.017255
G1 X32.5 Z0.000000
G1 X32.8
G0 X32.7 Y36.7 Z0 
G1 X32.4 Z0.093333
G1 X32.3 Z0.100000
G1 X27.1 Z0.055686
G1 X27.0 Z0.000000
G1 X23.0 Z0.023137
G1 X22.9 Z0.100000
G1 X17.7 Z0.097647
G1 X17.6 Z0.000000
G1 X17.3
G0 X17.3 Y36.8 Z0 
G1 X17.6 Z0.057647
G1 X17.7 Z0.100000
G1 X22.8 Z0.100000
G1 X22.9 Z0.000000
G1 X26.9 Z0.000000
G1 X27.0 Z0.005882
G1 X27.1 Z0.100000
G1 X32.2 Z0.100000
G1 X32.3 Z0.043529
G1 X32.4 Z0.000000
G1 X32.7
G0 X32.6 Y36.9 Z0 
G1 X32.3 Z0.029804
G1 X32.2 Z0.100000
G1 X27.2 Z0.081961
G1 X27.1 Z0.000000
G1 X22.9 Z0.051373
G1 X22.8 Z0.100000
G1 X17.8 Z0.044314
G1 X17.7 Z0.000000
G1 X17.4
G0 X17.4 Y37.0 Z0 
G1 X17.7 Z0.002353
G1 X17.8 Z0.100000
G1 X22.6 Z0.100000
G1 X22.7 Z0.090588
G1 X22.8 Z0.005490
G1 X22.9 Z0.000000
G1 X27.0 Z0.000000
G1 X27.1 Z0.025490
G1 X27.2 Z0.100000
G1 X32.1 Z0.100000
G1 X32.2 Z0.000000
G1 X32.5
G0 X32.5 Y37.1 Z0 
G1 X32.2 Z0.060000
G1 X32.1 Z0.100000
G1 X27.3 Z0.097647
G1 X27.2 Z0.000000
G1 X22.8 Z0.001176
G1 X22.7 Z0.100000
G1 X17.9 Z0.073333
G1 X17.8 Z0.000000
G1 X17.5
G0 X17.6 Y37.2 Z0 
G1 X17.9 Z0.100000
G1 X22.5 Z0.100000
G1 X22.6 Z0.068235
G1 X22.7 Z0.000000
G1 X27.1 Z0.000000
G1 X27.2 Z0.004706
G1 X27.3 Z0.090196
G1 X27.4 Z0.100000
G1 X32.0 Z0.100000
G1 X32.1 Z0.000000
G1 X32.4
G0 X32.4 Y37.3 Z0 
G1 X32.1 Z0.087059
G1 X32.0 Z0.100000
G1 X27.4 Z0.040000
G1 X27.3 Z0.000000
G1 X22.7 Z0.014118
G1 X22.6 Z0.100000
G1 X18.0 Z0.093725
G1 X17.9 Z0.000000
G1 X17.6
G0 X17.6 Y37.4 Z0 
G1 X17.9 Z0.002353
G1 X18.0 Z0.085882
G1 X18.1 Z0.100000
G1 X22.4 Z0.100000
G1 X22.5 Z0.092549
G1 X22.6 Z0.000000
G1 X27.3 Z0.000000
G1 X27.4 Z0.100000
G1 X31.8 Z0.100000
G1 X31.9 Z0.076863
G1 X32.0 Z0.000392
G1 X32.1 Z0.000000
G1 X32.4
G0 X32.3 Y37.5 Z0 
G1 X32.0 Z0.020000
G1 X31.9 Z0.100000
G1 X27.5 Z0.068235
G1 X27.4 Z0.000000
G1 X22.6 Z0.041176
G1 X22.5 Z0.100000
G1 X18.1 Z0.032941
G1 X18.0 Z0.000000
G1 X17.7
G0 X17.8 Y37.6 Z0 
G1 X18.1 Z0.098824
G1 X18.2 Z0.100000
G1 X22.3 Z0.100000
G1 X22.4 Z0.027843
G1 X22.5 Z0.000000
G1 X27.4 Z0.000000
G1 X27.5 Z0.053725
G1 X27.6 Z0.100000
G1 X31.7 Z0.100000
G1 X31.8 Z0.095294
G1 X31.9 Z0.000000
G1 X32.2
G0 X32.2 Y37.7 Z0 
G1 X31.9 Z0.003529
G1 X31.8 Z0.089020
G1 X31.7 Z0.100000
G1 X27.6 Z0.000000
G1 X22.4 Z0.098824
G1 X22.3 Z0.100000
G1 X18.3 Z0.095686
G1 X18.2 Z0.010588
G1 X18.1 Z0.000000
G1 X17.8
G0 X17.9 Y37.8 Z0 
G1 X18.2 Z0.049412
G1 X18.3 Z0.100000
G1 X22.2 Z0.100000
G1 X22.3 Z0.058039
G1 X22.4 Z0.000000
G1 X27.5 Z0.000000
G1 X27.6 Z0.079608
G1 X27.7 Z0.100000
G1 X31.6 Z0.100000
G1 X31.7 Z0.034902
G1 X31.8 Z0.000000
G1 X32.1
G0 X32.0 Y37.9 Z0 
G1 X31.7 Z0.099608
G1 X31.6 Z0.100000
G1 X27.7 Z0.000000
G1 X22.3 Z0.045490
G1 X22.2 Z0.100000
G1 X18.3 Z0.000000
G1 X18.0
G0 X18.0 Y38.0 Z0 
G1 X18.3 Z0.076471
G1 X18.4 Z0.100000
G1 X22.1 Z0.100000
G1 X22.2 Z0.002353
G1 X22.3 Z0.000000
G1 X27.6 Z0.000000
G1 X27.7 Z0.096863
G1 X27.8 Z0.100000
G1 X31.5 Z0.100000
G1 X31.6 Z0.064314
G1 X31.7 Z0.000000
G1 X32.0
G0 X31.9 Y38.1 Z0 
G1 X31.6 Z0.100000
G1 X27.9 Z0.090196
G1 X27.8 Z0.004314
G1 X27.7 Z0.000000
G1 X22.2 Z0.076863
G1 X22.1 Z0.100000
G1 X18.4 Z0.000000
G1 X18.1
G0 X18.1 Y38.2 Z0 
G1 X18.4 Z0.051765
G1 X18.5 Z0.100000
G1 X22.0 Z0.100000
G1 X22.1 Z0.000000
G1 X27.7 Z0.000000
G1 X27.8 Z0.001176
G1 X27.9 Z0.100000
G1 X31.4 Z0.100000
G1 X31.5 Z0.036863
G1 X31.6 Z0.000000
G1 X31.9
G0 X31.9 Y38.3 Z0 
G1 X31.6 Z0.001176
G1 X31.5 Z0.080784
G1 X31.4 Z0.100000
G1 X28.0 Z0.099608
G1 X27.9 Z0.000000
G1 X22.1 Z0.095686
G1 X22.0 Z0.100000
G1 X18.6 Z0.089412
G1 X18.5 Z0.004314
G1 X18.4 Z0.000000
G1 X18.1
G0 X18.2 Y38.4 Z0 
G1 X18.5 Z0.001176
G1 X18.6 Z0.100000
G1 X21.8 Z0.100000
G1 X21.9 Z0.089412
G1 X22.0 Z0.004314
G1 X22.1 Z0.000000
G1 X27.8 Z0.000000
G1 X27.9 Z0.010980
G1 X28.0 Z0.095686
G1 X28.1 Z0.100000
G1 X31.3 Z0.100000
G1 X31.4 Z0.000000
G1 X31.7
G0 X31.7 Y38.5 Z0 
G1 X31.4 Z0.097647
G1 X31.3 Z0.100000
G1 X28.1 Z0.051765
G1 X28.0 Z0.000000
G1 X22.0 Z0.035686
G1 X21.9 Z0.100000
G1 X18.7 Z0.099608
G1 X18.6 Z0.000000
G1 X18.3
G0 X18.3 Y38.6 Z0 
G1 X18.6 Z0.012941
G1 X18.7 Z0.100000
G1 X21.8 Z0.100000
G1 X21.9 Z0.000000
G1 X28.0 Z0.000000
G1 X28.1 Z0.100000
G1 X31.1 Z0.100000
G1 X31.2 Z0.091373
G1 X31.3 Z0.005882
G1 X31.4 Z0.000000
G1 X31.7
G0 X31.6 Y38.7 Z0 
G1 X31.3 Z0.001176
G1 X31.2 Z0.100000
G1 X28.2 Z0.022353
G1 X28.1 Z0.000000
G1 X21.9 Z0.013725
G1 X21.8 Z0.097647
G1 X21.7 Z0.100000
G1 X18.8 Z0.090196
G1 X18.7 Z0.000000
G1 X18.4
G0 X18.4 Y38.8 Z0 
G1 X18.7 Z0.040392
G1 X18.8 Z0.100000
G1 X21.6 Z0.100000
G1 X21.7 Z0.052549
G1 X21.8 Z0.000000
G1 X28.1 Z0.000000
G1 X28.2 Z0.100000
G1 X31.1 Z0.100000
G1 X31.2 Z0.000000
G1 X31.5
G0 X31.5 Y38.9 Z0 
G1 X31.2 Z0.014902
G1 X31.1 Z0.100000
G1 X28.3 Z0.050588
G1 X28.2 Z0.000000
G1 X21.7 Z0.100000
G1 X18.9 Z0.025490
G1 X18.8 Z0.000000
G1 X18.5
G0 X18.6 Y39.0 Z0 
G1 X18.9 Z0.100000
G1 X21.5 Z0.100000
G1 X21.6 Z0.081176
G1 X21.7 Z0.000000
G1 X28.1 Z0.000000
G1 X28.2 Z0.003529
G1 X28.3 Z0.088235
G1 X28.4 Z0.100000
G1 X31.0 Z0.100000
G1 X31.1 Z0.000000
G1 X31.4
G0 X31.4 Y39.1 Z0 
G1 X31.1 Z0.041176
G1 X31.0 Z0.100000
G1 X28.4 Z0.000392
G1 X28.3 Z0.000000
G1 X21.6 Z0.100000
G1 X19.0 Z0.056078
G1 X18.9 Z0.000000
G1 X18.6
G0 X18.7 Y39.2 Z0 
G1 X19.0 Z0.042353
G1 X19.1 Z0.100000
G1 X21.4 Z0.100000
G1 X21.5 Z0.056078
G1 X21.6 Z0.000000
G1 X28.3 Z0.000000
G1 X28.4 Z0.064314
G1 X28.5 Z0.100000
G1 X30.8 Z0.100000
G1 X30.9 Z0.027843
G1 X31.0 Z0.000000
G1 X31.3
G0 X31.2 Y39.3 Z0 
G1 X30.9 Z0.100000
G1 X28.6 Z0.095686
G1 X28.5 Z0.010588
G1 X28.4 Z0.000000
G1 X21.6 Z0.007451
G1 X21.5 Z0.093333
G1 X21.4 Z0.100000
G1 X19.1 Z0.001176
G1 X19.0 Z0.000000
G1 X18.7
G0 X18.8 Y39.4 Z0 
G1 X19.1 Z0.071765
G1 X19.2 Z0.100000
G1 X21.3 Z0.100000
G1 X21.4 Z0.001569
G1 X21.5 Z0.000000
G1 X28.4 Z0.000000
G1 X28.5 Z0.003529
G1 X28.6 Z0.100000
G1 X30.7 Z0.100000
G1 X30.8 Z0.057647
G1 X30.9 Z0.000000
G1 X31.2
G0 X31.2 Y39.5 Z0 
G1 X30.9 Z0.007451
G1 X30.8 Z0.093333
G1 X30.7 Z0.100000
G1 X28.6 Z0.000000
G1 X21.4 Z0.100000
G1 X19.2 Z0.016078
G1 X19.1 Z0.000000
G1 X18.8
G0 X18.9 Y39.6 Z0 
G1 X19.2 Z0.092549
G1 X19.3 Z0.100000
G1 X21.1 Z0.100000
G1 X21.2 Z0.098824
G1 X21.3 Z0.018039
G1 X21.4 Z0.000000
G1 X28.5 Z0.000000
G1 X28.6 Z0.020000
G1 X28.7 Z0.100000
G1 X30.6 Z0.100000
G1 X30.7 Z0.002353
