( imgcode generated code )
( developed by M. "Vidmo" Widomski )
(  github.com/vidmo91 )
(  hackaday.io/vidmo91 )
 
F3000
M92 
G64 P0.1 

M3 
(line16)
G1 X1.6 Y5.9 Z0 
G1 Y8.4 Z0.000000
G1 Y8.5 Z0.006627
G1 Y8.6 Z0.007647
G1 Y8.7 Z0.002000
G1 Y8.8 Z0.000000
G1 Y11.3 Z0 
(line17)
G1 X1.7 Y11.5 Z0 
G1 Y9.0 Z0.000000
G1 Y8.9 Z0.000353
G1 Y8.8 Z0.009569
G1 Y8.7 Z0.010000
G1 Y8.5 Z0.006627
G1 Y8.4 Z0.000000
G1 Y5.9 Z0 
(line18)
G1 X1.8 Y5.9 Z0 
G1 Y8.4 Z0.000000
G1 Y8.5 Z0.006627
G1 Y8.6 Z0.010000
G1 Y8.8 Z0.010000
G1 Y8.9 Z0.008824
G1 Y9.0 Z0.003608
G1 Y9.1 Z0.000000
G1 Y11.6 Z0 
(line19)
G1 X1.9 Y11.8 Z0 
G1 Y9.3 Z0.000000
G1 Y9.2 Z0.006627
G1 Y9.1 Z0.009961
G1 Y9.0 Z0.010000
G1 Y8.5 Z0.006627
G1 Y8.4 Z0.000000
G1 Y5.9 Z0 
(line20)
G1 X2.0 Y5.9 Z0 
G1 Y8.4 Z0.000000
G1 Y8.5 Z0.006627
G1 Y8.6 Z0.010000
G1 Y9.2 Z0.010000
G1 Y9.3 Z0.005255
G1 Y9.4 Z0.000000
G1 Y11.9 Z0 
(line21)
G1 X2.1 Y12.1 Z0 
G1 Y9.6 Z0.000000
G1 Y9.5 Z0.008000
G1 Y9.4 Z0.010000
G1 Y8.5 Z0.006627
G1 Y8.4 Z0.000000
G1 Y5.9 Z0 
(line22)
G1 X2.2 Y5.9 Z0 
G1 Y8.4 Z0.000000
G1 Y8.5 Z0.006627
G1 Y8.6 Z0.010000
G1 Y9.6 Z0.010000
G1 Y9.7 Z0.009765
G1 Y9.8 Z0.000549
G1 Y9.9 Z0.000000
G1 Y12.4 Z0 
(line23)
G1 X2.3 Y12.5 Z0 
G1 Y10.0 Z0.000000
G1 Y9.9 Z0.000118
G1 Y9.8 Z0.009059
G1 Y9.7 Z0.010000
G1 Y8.5 Z0.006627
G1 Y8.4 Z0.000000
G1 Y5.9 Z0 
(line24)
G1 X2.4 Y5.9 Z0 
G1 Y8.4 Z0.000000
G1 Y8.5 Z0.006627
G1 Y8.6 Z0.010000
G1 Y10.0 Z0.010000
G1 Y10.1 Z0.001529
G1 Y10.2 Z0.000000
G1 Y12.7 Z0 
(line25)
G1 X2.5 Y12.8 Z0 
G1 Y10.3 Z0.000000
G1 Y10.2 Z0.005765
G1 Y10.1 Z0.009765
G1 Y10.0 Z0.010000
G1 Y8.5 Z0.006627
G1 Y8.4 Z0.000000
G1 Y5.9 Z0 
(line26)
G1 X2.6 Y5.9 Z0 
G1 Y8.4 Z0.000000
G1 Y8.5 Z0.006627
G1 Y8.6 Z0.010000
G1 Y10.3 Z0.010000
G1 Y10.4 Z0.002980
G1 Y10.5 Z0.000000
G1 Y13.0 Z0 
(line27)
G1 X2.7 Y13.3 Z0 
G1 Y10.8 Z0.000000
G1 Y10.7 Z0.000784
G1 Y10.6 Z0.005922
G1 Y10.5 Z0.010000
G1 Y8.5 Z0.006627
G1 Y8.4 Z0.000000
G1 Y5.9 Z0 
(line28)
G1 X2.8 Y5.9 Z0 
G1 Y8.4 Z0.000000
G1 Y8.5 Z0.006627
G1 Y8.6 Z0.010000
G1 Y10.6 Z0.010000
G1 Y10.7 Z0.009373
G1 Y10.8 Z0.000235
G1 Y10.9 Z0.000000
G1 Y13.4 Z0 
(line29)
G1 X2.9 Y13.6 Z0 
G1 Y11.1 Z0.000000
G1 Y11.0 Z0.001843
G1 Y10.9 Z0.007490
G1 Y10.8 Z0.010000
G1 Y8.5 Z0.006627
G1 Y8.4 Z0.000000
G1 Y5.9 Z0 
(line30)
G1 X3.0 Y5.9 Z0 
G1 Y8.4 Z0.000000
G1 Y8.5 Z0.006627
G1 Y8.6 Z0.010000
G1 Y10.9 Z0.010000
G1 Y11.0 Z0.009882
G1 Y11.1 Z0.000902
G1 Y11.2 Z0.000000
G1 Y13.7 Z0 
(line31)
G1 X3.1 Y13.9 Z0 
G1 Y11.4 Z0.000000
G1 Y11.3 Z0.003490
G1 Y11.2 Z0.010000
G1 Y8.5 Z0.006627
G1 Y8.4 Z0.000000
G1 Y5.9 Z0 
(line32)
G1 X3.2 Y5.9 Z0 
G1 Y8.4 Z0.000000
G1 Y8.5 Z0.006627
G1 Y8.6 Z0.010000
G1 Y11.3 Z0.010000
G1 Y11.4 Z0.009961
G1 Y11.5 Z0.006431
G1 Y11.6 Z0.000000
G1 Y14.1 Z0 
(line33)
G1 X3.3 Y14.3 Z0 
G1 Y11.8 Z0.000000
G1 Y11.7 Z0.000353
G1 Y11.6 Z0.005059
G1 Y11.5 Z0.010000
G1 Y8.5 Z0.006627
G1 Y8.4 Z0.000000
G1 Y5.9 Z0 
(line34)
G1 X3.4 Y5.9 Z0 
G1 Y8.4 Z0.000000
G1 Y8.5 Z0.006627
G1 Y8.6 Z0.010000
G1 Y11.7 Z0.010000
G1 Y11.8 Z0.007882
G1 Y11.9 Z0.000000
G1 Y14.4 Z0 
(line35)
G1 X3.5 Y14.6 Z0 
G1 Y12.1 Z0.000000
G1 Y12.0 Z0.001216
G1 Y11.9 Z0.006627
G1 Y11.8 Z0.010000
G1 Y8.5 Z0.006627
G1 Y8.4 Z0.000000
G1 Y5.9 Z0 
(line36)
G1 X3.6 Y5.9 Z0 
G1 Y8.4 Z0.000000
G1 Y8.5 Z0.006627
G1 Y8.6 Z0.010000
G1 Y12.0 Z0.010000
G1 Y12.1 Z0.009020
G1 Y12.2 Z0.003922
G1 Y12.3 Z0.000000
G1 Y14.8 Z0 
(line37)
G1 X3.7 Y15.0 Z0 
G1 Y12.5 Z0.000000
G1 Y12.4 Z0.001373
G1 Y12.3 Z0.010000
G1 Y8.5 Z0.006627
G1 Y8.4 Z0.000000
G1 Y5.9 Z0 
(line38)
G1 X3.8 Y5.9 Z0 
G1 Y8.4 Z0.000000
G1 Y8.5 Z0.006627
G1 Y8.6 Z0.010000
G1 Y12.3 Z0.010000
G1 Y12.4 Z0.009765
G1 Y12.5 Z0.005490
G1 Y12.6 Z0.000000
G1 Y15.1 Z0 
(line39)
G1 X3.9 Y15.3 Z0 
G1 Y12.8 Z0.000000
G1 Y12.7 Z0.008275
G1 Y12.6 Z0.010000
G1 Y8.5 Z0.006627
G1 Y8.4 Z0.000000
G1 Y5.9 Z0 
(line40)
G1 X4.0 Y5.9 Z0 
G1 Y8.4 Z0.000000
G1 Y8.5 Z0.006627
G1 Y8.6 Z0.010000
G1 Y12.7 Z0.010000
G1 Y12.8 Z0.007137
G1 Y12.9 Z0.000000
G1 Y15.4 Z0 
(line41)
G1 X4.1 Y15.7 Z0 
G1 Y13.2 Z0.000000
G1 Y13.1 Z0.000157
G1 Y13.0 Z0.009255
G1 Y12.9 Z0.010000
G1 Y8.5 Z0.006627
G1 Y8.4 Z0.000000
G1 Y5.9 Z0 
(line42)
G1 X4.2 Y5.9 Z0 
G1 Y8.4 Z0.000000
G1 Y8.5 Z0.006627
G1 Y8.6 Z0.010000
G1 Y13.2 Z0.010000
G1 Y13.3 Z0.001608
G1 Y13.4 Z0.000000
G1 Y15.9 Z0 
(line43)
G1 X4.3 Y16.0 Z0 
G1 Y13.5 Z0.000000
G1 Y13.4 Z0.000863
G1 Y13.3 Z0.009843
G1 Y13.2 Z0.010000
G1 Y8.5 Z0.006627
G1 Y8.4 Z0.000000
G1 Y5.9 Z0 
(line44)
G1 X4.4 Y5.9 Z0 
G1 Y8.4 Z0.000000
G1 Y8.5 Z0.006627
G1 Y8.6 Z0.010000
G1 Y13.5 Z0.010000
G1 Y13.6 Z0.003294
G1 Y13.7 Z0.000000
G1 Y16.2 Z0 
(line45)
G1 X4.5 Y16.3 Z0 
G1 Y13.8 Z0.000000
G1 Y13.7 Z0.007569
G1 Y13.6 Z0.010000
G1 Y8.5 Z0.006627
G1 Y8.4 Z0.000000
G1 Y5.9 Z0 
(line46)
G1 X4.6 Y5.9 Z0 
G1 Y8.4 Z0.000000
G1 Y8.5 Z0.006627
G1 Y8.6 Z0.010000
G1 Y13.8 Z0.010000
G1 Y13.9 Z0.004941
G1 Y14.0 Z0.000353
G1 Y14.1 Z0.000000
G1 Y16.6 Z0 
(line47)
G1 X4.7 Y16.8 Z0 
G1 Y14.3 Z0.000000
G1 Y14.2 Z0.002118
G1 Y14.1 Z0.007647
G1 Y14.0 Z0.010000
G1 Y8.5 Z0.006627
G1 Y8.4 Z0.000000
G1 Y5.9 Z0 
(line48)
G1 X4.8 Y5.9 Z0 
G1 Y8.4 Z0.000000
G1 Y8.5 Z0.006627
G1 Y8.6 Z0.010000
G1 Y14.1 Z0.010000
G1 Y14.2 Z0.009961
G1 Y14.3 Z0.001098
G1 Y14.4 Z0.000000
G1 Y16.9 Z0 
(line49)
G1 X4.9 Y17.1 Z0 
G1 Y14.6 Z0.000000
G1 Y14.5 Z0.003725
G1 Y14.4 Z0.008941
G1 Y14.3 Z0.010000
G1 Y8.5 Z0.006627
G1 Y8.4 Z0.000000
G1 Y5.9 Z0 
(line50)
G1 X5.0 Y5.9 Z0 
G1 Y8.4 Z0.000000
G1 Y8.5 Z0.006627
G1 Y8.6 Z0.010000
G1 Y14.5 Z0.010000
G1 Y14.6 Z0.002235
G1 Y14.7 Z0.000000
G1 Y17.2 Z0 
(line51)
G1 X5.1 Y17.4 Z0 
G1 Y14.9 Z0.000000
G1 Y14.8 Z0.005373
G1 Y14.7 Z0.010000
G1 Y8.5 Z0.006627
G1 Y8.4 Z0.000000
G1 Y5.9 Z0 
(line52)
G1 X5.2 Y5.9 Z0 
G1 Y8.4 Z0.000000
G1 Y8.5 Z0.006627
G1 Y8.6 Z0.010000
G1 Y14.8 Z0.010000
G1 Y14.9 Z0.004000
G1 Y15.0 Z0.000118
G1 Y15.1 Z0.000000
G1 Y17.6 Z0 
(line53)
G1 X5.3 Y17.8 Z0 
G1 Y15.3 Z0.000000
G1 Y15.2 Z0.001373
G1 Y15.1 Z0.007020
G1 Y15.0 Z0.010000
G1 Y8.5 Z0.006627
G1 Y8.4 Z0.000000
G1 Y5.9 Z0 
(line54)
G1 X5.4 Y5.9 Z0 
G1 Y8.4 Z0.000000
G1 Y8.5 Z0.006627
G1 Y8.6 Z0.010000
G1 Y15.2 Z0.010000
G1 Y15.3 Z0.009216
G1 Y15.4 Z0.000118
G1 Y15.5 Z0.000000
G1 Y18.0 Z0 
(line55)
G1 X5.5 Y18.1 Z0 
G1 Y15.6 Z0.000000
G1 Y15.5 Z0.002863
G1 Y15.4 Z0.008314
G1 Y15.3 Z0.010000
G1 Y8.5 Z0.006627
G1 Y8.4 Z0.000000
G1 Y5.9 Z0 
(line56)
G1 X5.6 Y5.9 Z0 
G1 Y8.4 Z0.000000
G1 Y8.5 Z0.006627
G1 Y8.6 Z0.010000
G1 Y15.5 Z0.010000
G1 Y15.6 Z0.009765
G1 Y15.7 Z0.005804
G1 Y15.8 Z0.000000
G1 Y18.3 Z0 
(line57)
G1 X5.7 Y18.4 Z0 
G1 Y15.9 Z0.000000
G1 Y15.8 Z0.004510
G1 Y15.7 Z0.010000
G1 Y8.5 Z0.006627
G1 Y8.4 Z0.000000
G1 Y5.9 Z0 
(line58)
G1 X5.8 Y5.9 Z0 
G1 Y8.4 Z0.000000
G1 Y8.5 Z0.006627
G1 Y8.6 Z0.010000
G1 Y15.9 Z0.010000
G1 Y16.0 Z0.007333
G1 Y16.1 Z0.000000
G1 Y18.6 Z0 
(line59)
G1 X5.9 Y18.9 Z0 
G1 Y16.4 Z0.000000
G1 Y16.3 Z0.000235
G1 Y16.2 Z0.009451
G1 Y16.1 Z0.010000
G1 Y8.5 Z0.006627
G1 Y8.4 Z0.000000
G1 Y5.9 Z0 
(line60)
G1 X6.0 Y5.9 Z0 
G1 Y8.4 Z0.000000
G1 Y8.5 Z0.006627
G1 Y8.6 Z0.010000
G1 Y16.2 Z0.010000
G1 Y16.3 Z0.008627
G1 Y16.4 Z0.000000
G1 Y18.9 Z0 
(line61)
G1 X6.1 Y19.2 Z0 
G1 Y16.7 Z0.000000
G1 Y16.6 Z0.001059
G1 Y16.5 Z0.009882
G1 Y16.4 Z0.010000
G1 Y8.5 Z0.006627
G1 Y8.4 Z0.000000
G1 Y5.9 Z0 
(line62)
G1 X6.2 Y5.9 Z0 
G1 Y8.4 Z0.000000
G1 Y8.5 Z0.006627
G1 Y8.6 Z0.010000
G1 Y16.5 Z0.010000
G1 Y16.6 Z0.009569
G1 Y16.7 Z0.004941
G1 Y16.8 Z0.000000
G1 Y19.3 Z0 
(line63)
G1 X6.3 Y19.5 Z0 
G1 Y17.0 Z0.000000
G1 Y16.9 Z0.002157
G1 Y16.8 Z0.010000
G1 Y8.5 Z0.006627
G1 Y8.4 Z0.000000
G1 Y5.9 Z0 
(line64)
G1 X6.4 Y5.9 Z0 
G1 Y8.4 Z0.000000
G1 Y8.5 Z0.006627
G1 Y8.6 Z0.010000
G1 Y17.0 Z0.010000
G1 Y17.1 Z0.005176
G1 Y17.2 Z0.000431
G1 Y17.3 Z0.000000
G1 Y19.8 Z0 
(line65)
G1 X6.5 Y19.9 Z0 
G1 Y17.4 Z0.000000
G1 Y17.3 Z0.000118
G1 Y17.2 Z0.009020
G1 Y17.1 Z0.010000
G1 Y8.5 Z0.006627
G1 Y8.4 Z0.000000
G1 Y5.9 Z0 
(line66)
G1 X6.6 Y5.9 Z0 
G1 Y8.4 Z0.000000
G1 Y8.5 Z0.006627
G1 Y8.6 Z0.010000
G1 Y17.3 Z0.010000
G1 Y17.4 Z0.006824
G1 Y17.5 Z0.001294
G1 Y17.6 Z0.000000
G1 Y20.1 Z0 
(line67)
G1 X6.7 Y20.2 Z0 
G1 Y17.7 Z0.000000
G1 Y17.6 Z0.000471
G1 Y17.5 Z0.009765
G1 Y17.4 Z0.010000
G1 Y8.5 Z0.006627
G1 Y8.4 Z0.000000
G1 Y5.9 Z0 
(line68)
G1 X6.8 Y5.9 Z0 
G1 Y8.4 Z0.000000
G1 Y8.5 Z0.006627
G1 Y8.6 Z0.010000
G1 Y17.7 Z0.010000
G1 Y17.8 Z0.002549
G1 Y17.9 Z0.000000
G1 Y20.4 Z0 
(line69)
G1 X6.9 Y20.6 Z0 
G1 Y18.1 Z0.000000
G1 Y18.0 Z0.005608
G1 Y17.9 Z0.009765
G1 Y17.8 Z0.010000
G1 Y8.5 Z0.006627
G1 Y8.4 Z0.000000
G1 Y5.9 Z0 
(line70)
G1 X7.0 Y5.9 Z0 
G1 Y8.4 Z0.000000
G1 Y8.5 Z0.006627
G1 Y8.6 Z0.010000
G1 Y18.0 Z0.010000
G1 Y18.1 Z0.004314
G1 Y18.2 Z0.000118
G1 Y18.3 Z0.000000
G1 Y20.8 Z0 
(line71)
G1 X7.1 Y20.9 Z0 
G1 Y18.4 Z0.000000
G1 Y18.3 Z0.007176
G1 Y18.2 Z0.010000
G1 Y8.5 Z0.006627
G1 Y8.4 Z0.000000
G1 Y5.9 Z0 
(line72)
G1 X7.2 Y5.9 Z0 
G1 Y8.4 Z0.000000
G1 Y8.5 Z0.006627
G1 Y8.6 Z0.010000
G1 Y18.3 Z0.010000
G1 Y18.4 Z0.005882
G1 Y18.5 Z0.000784
G1 Y18.6 Z0.000000
G1 Y21.1 Z0 
(line73)
G1 X7.3 Y21.3 Z0 
G1 Y18.8 Z0.000000
G1 Y18.7 Z0.003176
G1 Y18.6 Z0.008510
G1 Y18.5 Z0.010000
G1 Y8.5 Z0.006627
G1 Y8.4 Z0.000000
G1 Y5.9 Z0 
(line74)
G1 X7.4 Y5.9 Z0 
G1 Y8.4 Z0.000000
G1 Y8.5 Z0.006627
G1 Y8.6 Z0.010000
G1 Y18.7 Z0.010000
G1 Y18.8 Z0.009882
G1 Y18.9 Z0.000863
G1 Y19.0 Z0.000000
G1 Y21.5 Z0 
(line75)
G1 X7.5 Y21.6 Z0 
G1 Y19.1 Z0.000000
G1 Y19.0 Z0.004745
G1 Y18.9 Z0.009451
G1 Y18.8 Z0.010000
G1 Y8.5 Z0.006627
G1 Y8.4 Z0.000000
G1 Y5.9 Z0 
(line76)
G1 X7.6 Y5.9 Z0 
G1 Y8.4 Z0.000000
G1 Y8.5 Z0.006627
G1 Y8.6 Z0.010000
G1 Y19.1 Z0.010000
G1 Y19.2 Z0.007647
G1 Y19.3 Z0.000000
G1 Y21.8 Z0 
(line77)
G1 X7.7 Y21.9 Z0 
G1 Y19.4 Z0.000000
G1 Y19.3 Z0.006314
G1 Y19.2 Z0.010000
G1 Y8.5 Z0.006627
G1 Y8.4 Z0.000000
G1 Y5.9 Z0 
(line78)
G1 X7.8 Y5.9 Z0 
G1 Y8.4 Z0.000000
G1 Y8.5 Z0.006627
G1 Y8.6 Z0.010000
G1 Y19.4 Z0.010000
G1 Y19.5 Z0.008824
G1 Y19.6 Z0.000039
G1 Y19.7 Z0.000000
G1 Y22.2 Z0 
(line79)
G1 X7.9 Y22.4 Z0 
G1 Y19.9 Z0.000000
G1 Y19.8 Z0.001098
G1 Y19.7 Z0.009961
G1 Y19.6 Z0.010000
G1 Y8.5 Z0.006627
G1 Y8.4 Z0.000000
G1 Y5.9 Z0 
(line80)
G1 X8.0 Y5.9 Z0 
G1 Y8.4 Z0.000000
G1 Y8.5 Z0.006627
G1 Y8.6 Z0.010000
G1 Y19.7 Z0.010000
G1 Y19.8 Z0.009569
G1 Y19.9 Z0.000431
G1 Y20.0 Z0.000000
G1 Y22.5 Z0 
(line81)
G1 X8.1 Y22.7 Z0 
G1 Y20.2 Z0.000000
G1 Y20.1 Z0.002471
G1 Y20.0 Z0.010000
G1 Y8.5 Z0.006627
G1 Y8.4 Z0.000000
G1 Y5.9 Z0 
(line82)
G1 X8.2 Y5.9 Z0 
G1 Y8.4 Z0.000000
G1 Y8.5 Z0.006627
G1 Y8.6 Z0.010000
G1 Y20.1 Z0.010000
G1 Y20.2 Z0.006824
G1 Y20.3 Z0.000000
G1 Y22.8 Z0 
(line83)
G1 X8.3 Y23.1 Z0 
G1 Y20.6 Z0.000000
G1 Y20.5 Z0.000118
G1 Y20.4 Z0.004118
G1 Y20.3 Z0.010000
G1 Y12.1 Z0.008000
G1 Y12.0 Z0.010000
G1 Y8.5 Z0.006627
G1 Y8.4 Z0.000000
G1 Y5.9 Z0 
(line84)
G1 X8.4 Y5.9 Z0 
G1 Y8.4 Z0.000000
G1 Y8.5 Z0.006627
G1 Y8.6 Z0.010000
G1 Y12.0 Z0.010000
G1 Y12.1 Z0.000000
G1 Y12.2 Z0.000000
G1 Y12.3 Z0.004941
G1 Y12.4 Z0.010000
G1 Y20.5 Z0.010000
G1 Y20.6 Z0.007059
G1 Y20.7 Z0.001529
G1 Y20.8 Z0.000000
G1 Y23.3 Z0 
(line85)
G1 X8.5 Y23.4 Z0 
G1 Y20.9 Z0.000000
G1 Y20.8 Z0.000667
G1 Y20.7 Z0.009765
G1 Y20.6 Z0.010000
G1 Y12.5 Z0.009882
G1 Y12.4 Z0.006196
G1 Y12.3 Z0.000000
G1 Y12.0 Z0.010000
G1 Y8.5 Z0.006627
G1 Y8.4 Z0.000000
G1 Y5.9 Z0 
(line86)
G1 X8.6 Y5.9 Z0 
G1 Y8.4 Z0.000000
G1 Y8.5 Z0.006627
G1 Y8.6 Z0.010000
G1 Y12.0 Z0.010000
G1 Y12.1 Z0.000000
G1 Y12.5 Z0.000000
G1 Y12.6 Z0.003098
G1 Y12.7 Z0.008706
G1 Y12.8 Z0.010000
G1 Y20.8 Z0.010000
G1 Y20.9 Z0.008392
G1 Y21.0 Z0.002980
G1 Y21.1 Z0.000000
G1 Y23.6 Z0 
(line87)
G1 X8.7 Y23.7 Z0 
G1 Y21.2 Z0.000000
G1 Y21.1 Z0.001608
G1 Y21.0 Z0.010000
G1 Y12.8 Z0.009373
G1 Y12.7 Z0.000235
G1 Y12.6 Z0.000000
G1 Y12.0 Z0.010000
G1 Y8.5 Z0.006627
G1 Y8.4 Z0.000000
G1 Y5.9 Z0 
(line88)
G1 X8.8 Y5.9 Z0 
G1 Y8.4 Z0.000000
G1 Y8.5 Z0.006627
G1 Y8.6 Z0.010000
G1 Y12.0 Z0.010000
G1 Y12.1 Z0.000000
G1 Y12.8 Z0.000000
G1 Y12.9 Z0.001686
G1 Y13.0 Z0.007059
G1 Y13.1 Z0.010000
G1 Y21.2 Z0.010000
G1 Y21.3 Z0.004549
G1 Y21.4 Z0.000000
G1 Y23.9 Z0 
(line89)
G1 X8.9 Y24.1 Z0 
G1 Y21.6 Z0.000000
G1 Y21.5 Z0.007373
G1 Y21.4 Z0.010000
G1 Y13.2 Z0.004039
G1 Y13.1 Z0.000118
G1 Y13.0 Z0.000000
G1 Y12.0 Z0.010000
G1 Y8.5 Z0.006627
G1 Y8.4 Z0.000000
G1 Y5.9 Z0 
(line90)
G1 X9.0 Y5.9 Z0 
G1 Y8.4 Z0.000000
G1 Y8.5 Z0.006627
G1 Y8.6 Z0.010000
G1 Y12.0 Z0.010000
G1 Y12.1 Z0.000000
G1 Y13.2 Z0.000000
G1 Y13.3 Z0.005373
G1 Y13.4 Z0.010000
G1 Y21.5 Z0.010000
G1 Y21.6 Z0.006196
G1 Y21.7 Z0.000902
G1 Y21.8 Z0.000000
G1 Y24.3 Z0 
(line91)
G1 X9.1 Y24.5 Z0 
G1 Y22.0 Z0.000000
G1 Y21.9 Z0.000039
G1 Y21.8 Z0.008745
G1 Y21.7 Z0.010000
G1 Y13.5 Z0.002353
G1 Y13.4 Z0.000000
G1 Y12.0 Z0.010000
G1 Y8.5 Z0.006627
G1 Y8.4 Z0.000000
G1 Y5.9 Z0 
(line92)
G1 X9.2 Y5.9 Z0 
G1 Y8.4 Z0.000000
G1 Y8.5 Z0.006627
G1 Y8.6 Z0.010000
G1 Y12.0 Z0.010000
G1 Y12.1 Z0.000000
G1 Y13.5 Z0.000000
G1 Y13.6 Z0.003608
G1 Y13.7 Z0.008941
G1 Y13.8 Z0.010000
G1 Y21.8 Z0.010000
G1 Y21.9 Z0.007647
G1 Y22.0 Z0.002118
G1 Y22.1 Z0.000000
G1 Y24.6 Z0 
(line93)
G1 X9.3 Y24.8 Z0 
G1 Y22.3 Z0.000000
G1 Y22.2 Z0.005059
G1 Y22.1 Z0.009569
G1 Y22.0 Z0.010000
G1 Y13.9 Z0.009882
G1 Y13.8 Z0.001098
G1 Y13.7 Z0.000000
G1 Y12.0 Z0.010000
G1 Y8.5 Z0.007059
G1 Y8.4 Z0.000000
G1 Y5.9 Z0 
(line94)
G1 X9.4 Y5.9 Z0 
G1 Y8.4 Z0.000000
G1 Y8.5 Z0.007333
G1 Y8.6 Z0.010000
G1 Y12.0 Z0.010000
G1 Y12.1 Z0.000000
G1 Y13.9 Z0.000000
G1 Y14.0 Z0.000039
G1 Y14.1 Z0.008706
G1 Y14.2 Z0.010000
G1 Y22.3 Z0.010000
G1 Y22.4 Z0.002235
G1 Y22.5 Z0.000000
G1 Y25.0 Z0 
(line95)
G1 X9.5 Y25.1 Z0 
G1 Y22.6 Z0.000000
G1 Y22.5 Z0.006627
G1 Y22.4 Z0.009961
G1 Y22.3 Z0.010000
G1 Y14.2 Z0.004549
G1 Y14.1 Z0.000235
G1 Y14.0 Z0.000000
G1 Y12.0 Z0.010000
G1 Y8.5 Z0.007333
G1 Y8.4 Z0.000000
G1 Y5.9 Z0 
(line96)
G1 X9.6 Y5.9 Z0 
G1 Y8.4 Z0.000000
G1 Y8.5 Z0.007333
G1 Y8.6 Z0.010000
G1 Y12.0 Z0.010000
G1 Y12.1 Z0.000000
G1 Y14.3 Z0.000000
G1 Y14.4 Z0.007373
G1 Y14.5 Z0.010000
G1 Y22.6 Z0.010000
G1 Y22.7 Z0.009020
G1 Y22.8 Z0.000118
G1 Y22.9 Z0.000000
G1 Y25.4 Z0 
(line97)
G1 X9.7 Y25.4 Z0 
G1 Y22.9 Z0.000000
G1 Y22.8 Z0.008000
G1 Y22.7 Z0.010000
G1 Y14.5 Z0.002784
G1 Y14.4 Z0.000000
G1 Y12.0 Z0.010000
G1 Y8.5 Z0.007333
G1 Y8.4 Z0.000000
G1 Y5.9 Z0 
(line98)
G1 X9.8 Y5.9 Z0 
G1 Y8.4 Z0.000000
G1 Y8.5 Z0.007333
G1 Y8.6 Z0.010000
G1 Y12.0 Z0.010000
G1 Y12.1 Z0.000000
G1 Y14.6 Z0.000000
G1 Y14.7 Z0.000667
G1 Y14.8 Z0.009765
G1 Y14.9 Z0.010000
G1 Y22.9 Z0.010000
G1 Y23.0 Z0.009765
G1 Y23.1 Z0.000588
G1 Y23.2 Z0.000000
G1 Y25.7 Z0 
(line99)
G1 X9.9 Y25.9 Z0 
G1 Y23.4 Z0.000000
G1 Y23.3 Z0.002627
G1 Y23.2 Z0.010000
G1 Y15.0 Z0.008078
G1 Y14.9 Z0.002431
G1 Y14.8 Z0.000000
G1 Y12.0 Z0.010000
G1 Y8.5 Z0.007333
G1 Y8.4 Z0.000000
G1 Y5.9 Z0 
(line100)
G1 X10.0 Y5.9 Z0 
G1 Y8.4 Z0.000000
G1 Y8.5 Z0.007333
G1 Y8.6 Z0.010000
G1 Y12.0 Z0.010000
G1 Y12.1 Z0.000000
G1 Y14.9 Z0.000000
G1 Y15.0 Z0.000118
G1 Y15.1 Z0.008941
G1 Y15.2 Z0.010000
G1 Y23.3 Z0.010000
G1 Y23.4 Z0.001529
G1 Y23.5 Z0.000000
G1 Y26.0 Z0 
(line101)
G1 X10.1 Y26.3 Z0 
G1 Y23.8 Z0.000000
G1 Y23.7 Z0.000157
G1 Y23.6 Z0.004431
G1 Y23.5 Z0.010000
G1 Y15.3 Z0.006314
G1 Y15.2 Z0.000000
G1 Y12.0 Z0.010000
G1 Y8.5 Z0.007333
G1 Y8.4 Z0.000000
G1 Y5.9 Z0 
(line102)
G1 X10.2 Y5.9 Z0 
G1 Y8.4 Z0.000000
G1 Y8.5 Z0.007333
G1 Y8.6 Z0.010000
G1 Y12.0 Z0.010000
G1 Y12.1 Z0.000000
G1 Y15.3 Z0.000000
G1 Y15.4 Z0.007765
G1 Y15.5 Z0.010000
G1 Y23.6 Z0.010000
G1 Y23.7 Z0.008510
G1 Y23.8 Z0.000000
G1 Y26.3 Z0 
(line103)
G1 X10.3 Y26.6 Z0 
G1 Y24.1 Z0.000000
G1 Y24.0 Z0.000863
G1 Y23.9 Z0.006000
G1 Y23.8 Z0.010000
G1 Y15.7 Z0.009529
G1 Y15.6 Z0.004627
G1 Y15.5 Z0.000000
G1 Y12.0 Z0.010000
G1 Y8.5 Z0.007333
G1 Y8.4 Z0.000000
G1 Y5.9 Z0 
(line104)
G1 X10.4 Y5.9 Z0 
G1 Y8.4 Z0.000000
G1 Y8.5 Z0.007333
G1 Y8.6 Z0.010000
G1 Y12.0 Z0.010000
G1 Y12.1 Z0.000000
G1 Y15.7 Z0.000000
G1 Y15.8 Z0.001725
G1 Y15.9 Z0.010000
G1 Y24.0 Z0.010000
G1 Y24.1 Z0.008588
G1 Y24.2 Z0.003294
G1 Y24.3 Z0.000000
G1 Y26.8 Z0 
(line105)
G1 X10.5 Y26.9 Z0 
G1 Y24.4 Z0.000000
G1 Y24.3 Z0.001922
G1 Y24.2 Z0.010000
G1 Y16.0 Z0.008431
G1 Y15.9 Z0.002863
G1 Y15.8 Z0.000000
G1 Y12.0 Z0.010000
G1 Y8.5 Z0.007333
G1 Y8.4 Z0.000000
G1 Y5.9 Z0 
(line106)
G1 X10.6 Y5.9 Z0 
G1 Y8.4 Z0.000000
G1 Y8.5 Z0.007333
G1 Y8.6 Z0.010000
G1 Y12.0 Z0.010000
G1 Y12.1 Z0.000000
G1 Y16.0 Z0.000000
G1 Y16.1 Z0.000667
G1 Y16.2 Z0.005490
G1 Y16.3 Z0.010000
G1 Y24.3 Z0.010000
G1 Y24.4 Z0.009529
G1 Y24.5 Z0.004941
G1 Y24.6 Z0.000000
G1 Y27.1 Z0 
(line107)
G1 X10.7 Y27.3 Z0 
G1 Y24.8 Z0.000000
G1 Y24.7 Z0.000039
G1 Y24.6 Z0.003569
G1 Y24.5 Z0.010000
G1 Y16.3 Z0.006824
G1 Y16.2 Z0.000000
G1 Y12.0 Z0.010000
G1 Y8.5 Z0.007333
G1 Y8.4 Z0.000000
G1 Y5.9 Z0 
(line108)
G1 X10.8 Y5.9 Z0 
G1 Y8.4 Z0.000000
G1 Y8.5 Z0.007333
G1 Y8.6 Z0.010000
G1 Y12.0 Z0.010000
G1 Y12.1 Z0.000000
G1 Y16.3 Z0.000000
G1 Y16.4 Z0.000118
G1 Y16.5 Z0.003804
G1 Y16.6 Z0.010000
G1 Y24.7 Z0.010000
G1 Y24.8 Z0.006431
G1 Y24.9 Z0.000000
G1 Y27.4 Z0 
(line109)
G1 X10.9 Y27.7 Z0 
G1 Y25.2 Z0.000000
G1 Y25.1 Z0.000118
G1 Y25.0 Z0.008902
G1 Y24.9 Z0.010000
G1 Y16.8 Z0.009961
G1 Y16.7 Z0.001176
G1 Y16.6 Z0.000000
G1 Y12.0 Z0.010000
G1 Y8.5 Z0.007333
G1 Y8.4 Z0.000000
G1 Y5.9 Z0 
(line110)
G1 X11.0 Y5.9 Z0 
G1 Y8.4 Z0.000000
G1 Y8.5 Z0.007333
G1 Y8.6 Z0.010000
G1 Y12.0 Z0.010000
G1 Y12.1 Z0.000000
G1 Y16.7 Z0.000000
G1 Y16.8 Z0.002314
G1 Y16.9 Z0.010000
G1 Y25.0 Z0.010000
G1 Y25.1 Z0.007882
G1 Y25.2 Z0.002235
G1 Y25.3 Z0.000000
G1 Y27.8 Z0 
(line111)
G1 X11.1 Y28.0 Z0 
G1 Y25.5 Z0.000000
G1 Y25.4 Z0.000471
G1 Y25.3 Z0.009686
G1 Y25.2 Z0.010000
G1 Y17.1 Z0.009529
G1 Y17.0 Z0.000353
G1 Y16.9 Z0.000000
G1 Y12.0 Z0.010000
G1 Y8.5 Z0.007333
G1 Y8.4 Z0.000000
G1 Y5.9 Z0 
(line112)
G1 X11.2 Y5.9 Z0 
G1 Y8.4 Z0.000000
G1 Y8.5 Z0.007333
G1 Y8.6 Z0.010000
G1 Y12.0 Z0.010000
G1 Y12.1 Z0.000000
G1 Y17.0 Z0.000000
G1 Y17.1 Z0.000902
G1 Y17.2 Z0.006000
G1 Y17.3 Z0.010000
G1 Y25.3 Z0.010000
G1 Y25.4 Z0.009020
G1 Y25.5 Z0.004000
G1 Y25.6 Z0.000000
G1 Y28.1 Z0 
(line113)
G1 X11.3 Y28.3 Z0 
G1 Y25.8 Z0.000000
G1 Y25.7 Z0.006941
G1 Y25.6 Z0.010000
G1 Y17.4 Z0.008431
G1 Y17.3 Z0.000000
G1 Y12.0 Z0.010000
G1 Y8.5 Z0.007333
G1 Y8.4 Z0.000000
G1 Y5.9 Z0 
(line114)
G1 X11.4 Y5.9 Z0 
G1 Y8.4 Z0.000000
G1 Y8.5 Z0.007333
G1 Y8.6 Z0.010000
G1 Y12.0 Z0.010000
G1 Y12.1 Z0.000000
G1 Y17.5 Z0.000000
G1 Y17.6 Z0.005569
G1 Y17.7 Z0.009765
G1 Y17.8 Z0.010000
G1 Y25.8 Z0.010000
G1 Y25.9 Z0.004196
G1 Y26.0 Z0.000118
G1 Y26.1 Z0.000000
G1 Y28.6 Z0 
(line115)
G1 X11.5 Y28.6 Z0 
G1 Y26.1 Z0.000000
G1 Y26.0 Z0.008275
G1 Y25.9 Z0.010000
G1 Y17.7 Z0.001490
G1 Y17.6 Z0.000000
G1 Y12.0 Z0.010000
G1 Y8.5 Z0.007333
G1 Y8.4 Z0.000000
G1 Y5.9 Z0 
(line116)
G1 X11.6 Y5.9 Z0 
G1 Y8.4 Z0.000000
G1 Y8.5 Z0.007333
G1 Y8.6 Z0.010000
G1 Y12.0 Z0.010000
G1 Y12.1 Z0.000000
G1 Y17.8 Z0.000000
G1 Y17.9 Z0.003882
G1 Y18.0 Z0.009137
G1 Y18.1 Z0.010000
G1 Y26.1 Z0.010000
G1 Y26.2 Z0.009765
G1 Y26.3 Z0.000667
G1 Y26.4 Z0.000000
G1 Y28.9 Z0 
(line117)
G1 X11.7 Y29.0 Z0 
G1 Y26.5 Z0.000000
G1 Y26.4 Z0.000235
G1 Y26.3 Z0.009255
G1 Y26.2 Z0.010000
G1 Y18.1 Z0.009686
G1 Y18.0 Z0.000549
G1 Y17.9 Z0.000000
G1 Y12.0 Z0.010000
G1 Y8.5 Z0.007333
G1 Y8.4 Z0.000000
G1 Y5.9 Z0 
(line118)
G1 X11.8 Y5.9 Z0 
G1 Y8.4 Z0.000000
G1 Y8.5 Z0.007333
G1 Y8.6 Z0.010000
G1 Y12.0 Z0.010000
G1 Y12.1 Z0.000000
G1 Y18.2 Z0.000000
G1 Y18.3 Z0.007882
G1 Y18.4 Z0.010000
G1 Y26.5 Z0.010000
G1 Y26.6 Z0.001804
G1 Y26.7 Z0.000000
G1 Y29.2 Z0 
(line119)
G1 X11.9 Y29.4 Z0 
G1 Y26.9 Z0.000000
G1 Y26.8 Z0.004667
G1 Y26.7 Z0.010000
G1 Y18.5 Z0.004824
G1 Y18.4 Z0.000353
G1 Y18.3 Z0.000000
G1 Y12.0 Z0.010000
G1 Y8.5 Z0.007333
G1 Y8.4 Z0.000000
G1 Y5.9 Z0 
(line120)
G1 X12.0 Y5.9 Z0 
G1 Y8.4 Z0.000000
G1 Y8.5 Z0.007333
G1 Y8.6 Z0.010000
G1 Y12.0 Z0.010000
G1 Y12.1 Z0.000000
G1 Y18.5 Z0.000000
G1 Y18.6 Z0.006118
G1 Y18.7 Z0.009882
G1 Y18.8 Z0.010000
G1 Y26.8 Z0.010000
G1 Y26.9 Z0.003294
G1 Y27.0 Z0.000000
G1 Y29.5 Z0 
(line121)
G1 X12.1 Y29.8 Z0 
G1 Y27.3 Z0.000000
G1 Y27.2 Z0.001059
G1 Y27.1 Z0.006314
G1 Y27.0 Z0.010000
G1 Y18.8 Z0.003059
G1 Y18.7 Z0.000000
G1 Y12.0 Z0.010000
G1 Y8.5 Z0.007333
G1 Y8.4 Z0.000000
G1 Y5.9 Z0 
(line122)
G1 X12.2 Y5.9 Z0 
G1 Y8.4 Z0.000000
G1 Y8.5 Z0.007333
G1 Y8.6 Z0.010000
G1 Y12.0 Z0.010000
G1 Y12.1 Z0.000000
G1 Y18.8 Z0.000000
G1 Y18.9 Z0.004353
G1 Y19.0 Z0.009333
G1 Y19.1 Z0.010000
G1 Y27.1 Z0.010000
G1 Y27.2 Z0.009569
G1 Y27.3 Z0.000353
G1 Y27.4 Z0.000000
G1 Y29.9 Z0 
(line123)
G1 X12.3 Y30.1 Z0 
G1 Y27.6 Z0.000000
G1 Y27.5 Z0.002157
G1 Y27.4 Z0.007647
G1 Y27.3 Z0.010000
G1 Y19.2 Z0.007020
G1 Y19.1 Z0.001686
G1 Y19.0 Z0.000000
G1 Y12.0 Z0.010000
G1 Y8.5 Z0.007333
G1 Y8.4 Z0.000000
G1 Y5.9 Z0 
(line124)
G1 X12.4 Y5.9 Z0 
G1 Y8.4 Z0.000000
G1 Y8.5 Z0.007333
G1 Y8.6 Z0.010000
G1 Y12.0 Z0.010000
G1 Y12.1 Z0.000000
G1 Y19.2 Z0.000000
G1 Y19.3 Z0.000118
G1 Y19.4 Z0.009137
G1 Y19.5 Z0.010000
G1 Y27.5 Z0.010000
G1 Y27.6 Z0.009569
G1 Y27.7 Z0.005176
G1 Y27.8 Z0.000000
G1 Y30.3 Z0 
(line125)
G1 X12.5 Y30.4 Z0 
G1 Y27.9 Z0.000000
G1 Y27.8 Z0.003882
G1 Y27.7 Z0.010000
G1 Y19.5 Z0.005255
G1 Y19.4 Z0.000588
G1 Y19.3 Z0.000000
G1 Y12.0 Z0.010000
G1 Y8.5 Z0.007333
G1 Y8.4 Z0.000000
G1 Y5.9 Z0 
(line126)
G1 X12.6 Y5.9 Z0 
G1 Y8.4 Z0.000000
G1 Y8.5 Z0.007333
G1 Y8.6 Z0.010000
G1 Y12.0 Z0.010000
G1 Y12.1 Z0.000000
G1 Y19.6 Z0.000000
G1 Y19.7 Z0.002314
G1 Y19.8 Z0.010000
G1 Y27.8 Z0.010000
G1 Y27.9 Z0.009961
G1 Y28.0 Z0.006824
G1 Y28.1 Z0.000000
G1 Y30.6 Z0 
(line127)
G1 X12.7 Y30.8 Z0 
G1 Y28.3 Z0.000000
G1 Y28.2 Z0.000471
G1 Y28.1 Z0.005451
G1 Y28.0 Z0.010000
G1 Y19.8 Z0.003569
G1 Y19.7 Z0.000000
G1 Y12.0 Z0.010000
G1 Y8.5 Z0.007333
G1 Y8.4 Z0.000000
G1 Y5.9 Z0 
(line128)
G1 X12.8 Y5.9 Z0 
G1 Y8.4 Z0.000000
G1 Y8.5 Z0.007333
G1 Y8.6 Z0.010000
G1 Y12.0 Z0.010000
G1 Y12.1 Z0.000000
G1 Y19.9 Z0.000000
G1 Y20.0 Z0.001098
G1 Y20.1 Z0.009882
G1 Y20.2 Z0.010000
G1 Y28.2 Z0.010000
G1 Y28.3 Z0.008196
G1 Y28.4 Z0.000000
G1 Y30.9 Z0 
(line129)
G1 X12.9 Y31.2 Z0 
G1 Y28.7 Z0.000000
G1 Y28.6 Z0.000667
G1 Y28.5 Z0.009765
G1 Y28.4 Z0.010000
G1 Y20.3 Z0.008706
G1 Y20.2 Z0.000000
G1 Y12.0 Z0.010000
G1 Y8.5 Z0.007333
G1 Y8.4 Z0.000000
G1 Y5.9 Z0 
(line130)
G1 X13.0 Y5.9 Z0 
G1 Y8.4 Z0.000000
G1 Y8.5 Z0.007333
G1 Y8.6 Z0.010000
G1 Y12.0 Z0.010000
G1 Y12.1 Z0.000000
G1 Y20.2 Z0.000000
G1 Y20.3 Z0.000235
G1 Y20.4 Z0.009373
G1 Y20.5 Z0.010000
G1 Y28.5 Z0.010000
G1 Y28.6 Z0.009255
G1 Y28.7 Z0.004314
G1 Y28.8 Z0.000000
G1 Y31.3 Z0 
(line131)
G1 X13.1 Y31.5 Z0 
G1 Y29.0 Z0.000000
G1 Y28.9 Z0.001608
G1 Y28.8 Z0.010000
G1 Y20.6 Z0.007059
G1 Y20.5 Z0.000000
G1 Y12.0 Z0.010000
G1 Y8.5 Z0.007333
G1 Y8.4 Z0.000000
G1 Y5.9 Z0 
(line132)
G1 X13.2 Y5.9 Z0 
G1 Y8.4 Z0.000000
G1 Y8.5 Z0.007333
G1 Y8.6 Z0.010000
G1 Y12.0 Z0.010000
G1 Y12.1 Z0.000000
G1 Y20.6 Z0.000000
G1 Y20.7 Z0.002784
G1 Y20.8 Z0.010000
G1 Y28.8 Z0.010000
G1 Y28.9 Z0.009843
G1 Y29.0 Z0.005882
G1 Y29.1 Z0.000000
G1 Y31.6 Z0 
(line133)
G1 X13.3 Y31.8 Z0 
G1 Y29.3 Z0.000000
G1 Y29.2 Z0.008510
G1 Y29.1 Z0.010000
G1 Y21.0 Z0.009765
G1 Y20.9 Z0.005373
G1 Y20.8 Z0.000000
G1 Y12.0 Z0.010000
G1 Y8.5 Z0.007333
G1 Y8.4 Z0.000000
G1 Y5.9 Z0 
(line134)
G1 X13.4 Y5.9 Z0 
G1 Y8.4 Z0.000000
G1 Y8.5 Z0.007333
G1 Y8.6 Z0.010000
G1 Y12.0 Z0.010000
G1 Y12.1 Z0.000000
G1 Y21.0 Z0.000000
G1 Y21.1 Z0.002431
G1 Y21.2 Z0.008078
G1 Y21.3 Z0.010000
G1 Y29.3 Z0.010000
G1 Y29.4 Z0.006118
G1 Y29.5 Z0.000863
G1 Y29.6 Z0.000000
G1 Y32.1 Z0 
(line135)
G1 X13.5 Y32.2 Z0 
G1 Y29.7 Z0.000000
G1 Y29.6 Z0.000275
G1 Y29.5 Z0.009451
G1 Y29.4 Z0.010000
G1 Y21.3 Z0.008941
G1 Y21.2 Z0.000118
G1 Y21.1 Z0.000000
G1 Y12.0 Z0.010000
G1 Y8.5 Z0.007333
G1 Y8.4 Z0.000000
G1 Y5.9 Z0 
(line136)
G1 X13.6 Y5.9 Z0 
G1 Y8.4 Z0.000000
G1 Y8.5 Z0.007333
G1 Y8.6 Z0.010000
G1 Y12.0 Z0.010000
G1 Y12.1 Z0.000000
G1 Y21.3 Z0.000000
G1 Y21.4 Z0.001176
G1 Y21.5 Z0.006235
G1 Y21.6 Z0.010000
G1 Y29.7 Z0.010000
G1 Y29.8 Z0.002000
G1 Y29.9 Z0.000000
G1 Y32.4 Z0 
(line137)
G1 X13.7 Y32.5 Z0 
G1 Y30.0 Z0.000000
G1 Y29.9 Z0.001059
G1 Y29.8 Z0.009882
G1 Y29.7 Z0.010000
G1 Y21.6 Z0.007686
G1 Y21.5 Z0.000000
G1 Y12.0 Z0.010000
G1 Y8.5 Z0.007333
G1 Y8.4 Z0.000000
G1 Y5.9 Z0 
(line138)
G1 X13.8 Y5.9 Z0 
G1 Y8.4 Z0.000000
G1 Y8.5 Z0.007333
G1 Y8.6 Z0.010000
G1 Y12.0 Z0.010000
G1 Y12.1 Z0.000000
G1 Y21.7 Z0.000000
G1 Y21.8 Z0.004549
G1 Y21.9 Z0.010000
G1 Y30.0 Z0.010000
G1 Y30.1 Z0.003608
G1 Y30.2 Z0.000039
G1 Y30.3 Z0.000000
G1 Y32.8 Z0 
(line139)
G1 X13.9 Y32.9 Z0 
G1 Y30.4 Z0.000000
G1 Y30.3 Z0.006549
G1 Y30.2 Z0.010000
G1 Y22.0 Z0.001725
G1 Y21.9 Z0.000000
G1 Y12.0 Z0.010000
G1 Y8.5 Z0.007333
G1 Y8.4 Z0.000000
G1 Y5.9 Z0 
(line140)
G1 X14.0 Y5.9 Z0 
G1 Y8.4 Z0.000000
G1 Y8.5 Z0.007333
G1 Y8.6 Z0.010000
G1 Y12.0 Z0.010000
G1 Y12.1 Z0.000000
G1 Y22.0 Z0.000000
G1 Y22.1 Z0.002784
G1 Y22.2 Z0.008392
G1 Y22.3 Z0.010000
G1 Y30.3 Z0.010000
G1 Y30.4 Z0.005176
G1 Y30.5 Z0.000431
G1 Y30.6 Z0.000000
G1 Y33.1 Z0 
(line141)
G1 X14.1 Y33.3 Z0 
G1 Y30.8 Z0.000000
G1 Y30.7 Z0.002471
G1 Y30.6 Z0.008000
G1 Y30.5 Z0.010000
G1 Y22.4 Z0.009765
G1 Y22.3 Z0.000667
G1 Y22.2 Z0.000000
G1 Y12.0 Z0.010000
G1 Y8.5 Z0.007333
G1 Y8.4 Z0.000000
G1 Y5.9 Z0 
(line142)
G1 X14.2 Y5.9 Z0 
G1 Y8.4 Z0.000000
G1 Y8.5 Z0.007333
G1 Y8.6 Z0.010000
G1 Y12.0 Z0.010000
G1 Y12.1 Z0.000000
G1 Y22.3 Z0.000000
G1 Y22.4 Z0.001412
G1 Y22.5 Z0.006824
G1 Y22.6 Z0.010000
G1 Y30.7 Z0.010000
G1 Y30.8 Z0.001294
G1 Y30.9 Z0.000000
G1 Y33.4 Z0 
(line143)
G1 X14.3 Y33.6 Z0 
G1 Y31.1 Z0.000000
G1 Y31.0 Z0.004118
G1 Y30.9 Z0.009059
G1 Y30.8 Z0.010000
G1 Y22.7 Z0.003725
G1 Y22.6 Z0.000118
G1 Y22.5 Z0.000000
G1 Y12.0 Z0.010000
G1 Y8.5 Z0.007333
G1 Y8.4 Z0.000000
G1 Y5.9 Z0 
(line144)
G1 X14.4 Y5.9 Z0 
G1 Y8.4 Z0.000000
G1 Y8.5 Z0.007333
G1 Y8.6 Z0.010000
G1 Y12.0 Z0.010000
G1 Y12.1 Z0.000000
G1 Y22.8 Z0.000000
G1 Y22.9 Z0.006392
G1 Y23.0 Z0.009961
G1 Y23.1 Z0.010000
G1 Y31.1 Z0.010000
G1 Y31.2 Z0.007059
G1 Y31.3 Z0.000000
G1 Y33.8 Z0 
(line145)
G1 X14.5 Y33.9 Z0 
G1 Y31.4 Z0.000000
G1 Y31.3 Z0.005765
G1 Y31.2 Z0.010000
G1 Y23.0 Z0.002118
G1 Y22.9 Z0.000000
G1 Y12.0 Z0.010000
G1 Y8.5 Z0.007333
G1 Y8.4 Z0.000000
G1 Y5.9 Z0 
(line146)
G1 X14.6 Y5.9 Z0 
G1 Y8.4 Z0.000000
G1 Y8.5 Z0.007333
G1 Y8.6 Z0.010000
G1 Y12.0 Z0.010000
G1 Y12.1 Z0.000000
G1 Y23.1 Z0.000000
G1 Y23.2 Z0.000275
G1 Y23.3 Z0.009529
G1 Y23.4 Z0.010000
G1 Y31.4 Z0.010000
G1 Y31.5 Z0.008314
G1 Y31.6 Z0.000000
G1 Y34.1 Z0 
(line147)
G1 X14.7 Y34.2 Z0 
G1 Y31.7 Z0.000000
G1 Y31.6 Z0.007176
G1 Y31.5 Z0.010000
G1 Y23.4 Z0.009882
G1 Y23.3 Z0.000902
G1 Y23.2 Z0.000000
G1 Y12.0 Z0.010000
G1 Y8.5 Z0.007333
G1 Y8.4 Z0.000000
G1 Y5.9 Z0 
(line148)
G1 X14.8 Y5.9 Z0 
G1 Y8.4 Z0.000000
G1 Y8.5 Z0.007333
G1 Y8.6 Z0.010000
G1 Y12.0 Z0.010000
G1 Y12.1 Z0.000000
G1 Y23.5 Z0.000000
G1 Y23.6 Z0.008431
G1 Y23.7 Z0.010000
G1 Y31.7 Z0.010000
G1 Y31.8 Z0.009373
G1 Y31.9 Z0.000235
G1 Y32.0 Z0.000000
G1 Y34.5 Z0 
(line149)
G1 X14.9 Y34.7 Z0 
G1 Y32.2 Z0.000000
G1 Y32.1 Z0.001843
G1 Y32.0 Z0.010000
G1 Y23.8 Z0.005569
G1 Y23.7 Z0.000000
G1 Y12.0 Z0.010000
G1 Y8.5 Z0.007333
G1 Y8.4 Z0.000000
G1 Y5.9 Z0 
(line150)
G1 X15.0 Y5.9 Z0 
G1 Y8.4 Z0.000000
G1 Y8.5 Z0.007333
G1 Y8.6 Z0.010000
G1 Y12.0 Z0.010000
G1 Y12.1 Z0.000000
G1 Y23.8 Z0.000000
G1 Y23.9 Z0.006824
G1 Y24.0 Z0.010000
G1 Y32.0 Z0.010000
G1 Y32.1 Z0.009882
G1 Y32.2 Z0.000902
G1 Y32.3 Z0.000000
G1 Y34.8 Z0 
(line151)
G1 X15.1 Y35.1 Z0 
G1 Y32.6 Z0.000000
G1 Y32.5 Z0.000039
G1 Y32.4 Z0.003412
G1 Y32.3 Z0.010000
G1 Y24.2 Z0.009059
G1 Y24.1 Z0.003882
G1 Y24.0 Z0.000000
G1 Y12.0 Z0.010000
G1 Y8.5 Z0.007333
G1 Y8.4 Z0.000000
G1 Y5.9 Z0 
(line152)
G1 X15.2 Y5.9 Z0 
G1 Y8.4 Z0.000000
G1 Y8.5 Z0.007333
G1 Y8.6 Z0.010000
G1 Y12.0 Z0.010000
G1 Y12.1 Z0.000000
G1 Y24.1 Z0.000000
G1 Y24.2 Z0.000549
G1 Y24.3 Z0.009647
G1 Y24.4 Z0.010000
G1 Y32.4 Z0.010000
G1 Y32.5 Z0.007647
G1 Y32.6 Z0.000000
G1 Y35.1 Z0 
(line153)
G1 X15.3 Y35.4 Z0 
G1 Y32.9 Z0.000000
G1 Y32.8 Z0.000353
G1 Y32.7 Z0.005059
G1 Y32.6 Z0.010000
G1 Y24.5 Z0.007804
G1 Y24.4 Z0.002314
G1 Y24.3 Z0.000000
G1 Y12.0 Z0.010000
G1 Y8.5 Z0.007333
G1 Y8.4 Z0.000000
G1 Y5.9 Z0 
(line154)
G1 X15.4 Y5.9 Z0 
G1 Y8.4 Z0.000000
G1 Y8.5 Z0.007333
G1 Y8.6 Z0.010000
G1 Y12.0 Z0.010000
G1 Y12.1 Z0.000000
G1 Y24.5 Z0.000000
G1 Y24.6 Z0.000353
G1 Y24.7 Z0.004667
G1 Y24.8 Z0.010000
G1 Y32.8 Z0.010000
G1 Y32.9 Z0.007882
G1 Y33.0 Z0.002235
G1 Y33.1 Z0.000000
G1 Y35.6 Z0 
(line155)
G1 X15.5 Y35.7 Z0 
G1 Y33.2 Z0.000000
G1 Y33.1 Z0.001216
G1 Y33.0 Z0.009961
G1 Y32.9 Z0.010000
G1 Y24.8 Z0.006000
G1 Y24.7 Z0.000000
G1 Y12.0 Z0.010000
G1 Y8.5 Z0.007333
G1 Y8.4 Z0.000000
G1 Y5.9 Z0 
(line156)
G1 X15.6 Y5.9 Z0 
G1 Y8.4 Z0.000000
G1 Y8.5 Z0.007333
G1 Y8.6 Z0.010000
G1 Y12.0 Z0.010000
G1 Y12.1 Z0.000000
G1 Y24.9 Z0.000000
G1 Y25.0 Z0.002980
G1 Y25.1 Z0.010000
G1 Y33.1 Z0.010000
G1 Y33.2 Z0.009020
G1 Y33.3 Z0.003882
G1 Y33.4 Z0.000000
G1 Y35.9 Z0 
(line157)
G1 X15.7 Y36.0 Z0 
G1 Y33.5 Z0.000000
G1 Y33.4 Z0.002549
G1 Y33.3 Z0.010000
G1 Y25.2 Z0.009333
G1 Y25.1 Z0.004314
G1 Y25.0 Z0.000000
G1 Y12.0 Z0.010000
G1 Y8.5 Z0.007333
G1 Y8.4 Z0.000000
G1 Y5.9 Z0 
(line158)
G1 X15.8 Y5.9 Z0 
G1 Y8.4 Z0.000000
G1 Y8.5 Z0.007333
G1 Y8.6 Z0.010000
G1 Y12.0 Z0.010000
G1 Y12.1 Z0.000000
G1 Y25.2 Z0.000000
G1 Y25.3 Z0.001490
G1 Y25.4 Z0.010000
G1 Y33.5 Z0.010000
G1 Y33.6 Z0.005490
G1 Y33.7 Z0.000000
G1 Y36.2 Z0 
(line159)
G1 X15.9 Y36.4 Z0 
G1 Y33.9 Z0.000000
G1 Y33.8 Z0.008275
G1 Y33.7 Z0.010000
G1 Y25.6 Z0.009137
G1 Y25.5 Z0.000118
G1 Y25.4 Z0.000000
G1 Y12.0 Z0.010000
G1 Y8.5 Z0.007333
G1 Y8.4 Z0.000000
G1 Y5.9 Z0 
(line160)
G1 X16.0 Y5.9 Z0 
G1 Y8.4 Z0.000000
G1 Y8.5 Z0.007333
G1 Y8.6 Z0.010000
G1 Y12.0 Z0.010000
G1 Y12.1 Z0.000000
G1 Y25.5 Z0.000000
G1 Y25.6 Z0.000549
G1 Y25.7 Z0.005176
G1 Y25.8 Z0.010000
G1 Y33.8 Z0.010000
G1 Y33.9 Z0.007137
G1 Y34.0 Z0.001529
G1 Y34.1 Z0.000000
G1 Y36.6 Z0 
(line161)
G1 X16.1 Y36.8 Z0 
G1 Y34.3 Z0.000000
G1 Y34.2 Z0.000157
G1 Y34.1 Z0.009255
G1 Y34.0 Z0.010000
G1 Y25.9 Z0.007882
G1 Y25.8 Z0.000000
G1 Y12.0 Z0.010000
G1 Y8.5 Z0.007333
G1 Y8.4 Z0.000000
G1 Y5.9 Z0 
(line162)
G1 X16.2 Y5.9 Z0 
G1 Y8.4 Z0.000000
G1 Y8.5 Z0.007333
G1 Y8.6 Z0.010000
G1 Y12.0 Z0.010000
G1 Y12.1 Z0.000000
G1 Y25.8 Z0.000000
G1 Y25.9 Z0.000039
G1 Y26.0 Z0.003490
G1 Y26.1 Z0.010000
G1 Y34.1 Z0.010000
G1 Y34.2 Z0.008510
G1 Y34.3 Z0.003059
G1 Y34.4 Z0.000000
G1 Y36.9 Z0 
(line163)
G1 X16.3 Y37.1 Z0 
G1 Y34.6 Z0.000000
G1 Y34.5 Z0.006000
G1 Y34.4 Z0.009843
G1 Y34.3 Z0.010000
G1 Y26.3 Z0.009882
G1 Y26.2 Z0.000902
G1 Y26.1 Z0.000000
G1 Y12.0 Z0.010000
G1 Y8.5 Z0.007333
G1 Y8.4 Z0.000000
G1 Y5.9 Z0 
(line164)
G1 X16.4 Y5.9 Z0 
G1 Y8.4 Z0.000000
G1 Y8.5 Z0.007333
G1 Y8.6 Z0.010000
G1 Y11.9 Z0.010000
G1 Y12.0 Z0.009333
G1 Y12.1 Z0.000000
G1 Y26.3 Z0.000000
G1 Y26.4 Z0.003059
G1 Y26.5 Z0.008627
G1 Y26.6 Z0.010000
G1 Y34.6 Z0.010000
G1 Y34.7 Z0.003294
G1 Y34.8 Z0.000000
G1 Y37.3 Z0 
(line165)
G1 X16.5 Y37.4 Z0 
G1 Y34.9 Z0.000000
G1 Y34.8 Z0.007569
G1 Y34.7 Z0.010000
G1 Y26.6 Z0.009333
G1 Y26.5 Z0.000235
G1 Y26.4 Z0.000000
G1 Y12.0 Z0.009333
G1 Y11.9 Z0.010000
G1 Y8.5 Z0.007333
G1 Y8.4 Z0.000000
G1 Y5.9 Z0 
(line166)
G1 X16.6 Y5.9 Z0 
G1 Y8.4 Z0.000000
G1 Y8.5 Z0.007333
G1 Y8.6 Z0.010000
G1 Y11.9 Z0.010000
G1 Y12.0 Z0.009333
G1 Y12.1 Z0.000000
G1 Y26.7 Z0.000000
G1 Y26.8 Z0.007020
G1 Y26.9 Z0.010000
G1 Y34.9 Z0.010000
G1 Y35.0 Z0.009529
G1 Y35.1 Z0.000353
G1 Y35.2 Z0.000000
G1 Y37.7 Z0 
(line167)
G1 X16.7 Y37.8 Z0 
G1 Y35.3 Z0.000000
G1 Y35.2 Z0.000039
G1 Y35.1 Z0.008745
G1 Y35.0 Z0.010000
G1 Y26.9 Z0.008392
G1 Y26.8 Z0.000000
G1 Y12.0 Z0.009333
G1 Y11.9 Z0.010000
G1 Y8.5 Z0.007333
G1 Y8.4 Z0.000000
G1 Y5.9 Z0 
(line168)
G1 X16.8 Y5.9 Z0 
G1 Y8.4 Z0.000000
G1 Y8.5 Z0.007333
G1 Y8.6 Z0.010000
G1 Y11.9 Z0.010000
G1 Y12.0 Z0.009333
G1 Y12.1 Z0.000000
G1 Y27.0 Z0.000000
G1 Y27.1 Z0.005255
G1 Y27.2 Z0.009765
G1 Y27.3 Z0.010000
G1 Y35.2 Z0.010000
G1 Y35.3 Z0.009961
G1 Y35.4 Z0.001098
G1 Y35.5 Z0.000000
G1 Y38.0 Z0 
(line169)
G1 X16.9 Y38.2 Z0 
G1 Y35.7 Z0.000000
G1 Y35.6 Z0.003725
G1 Y35.5 Z0.010000
G1 Y27.3 Z0.002353
G1 Y27.2 Z0.000000
G1 Y12.0 Z0.009333
G1 Y11.9 Z0.010000
G1 Y8.5 Z0.007333
G1 Y8.4 Z0.000000
G1 Y5.9 Z0 
(line170)
G1 X17.0 Y5.9 Z0 
G1 Y8.4 Z0.000000
G1 Y8.5 Z0.007333
G1 Y8.6 Z0.010000
G1 Y11.9 Z0.010000
G1 Y12.0 Z0.009333
G1 Y12.1 Z0.000000
G1 Y27.3 Z0.000000
G1 Y27.4 Z0.003608
G1 Y27.5 Z0.008941
G1 Y27.6 Z0.010000
G1 Y35.6 Z0.010000
G1 Y35.7 Z0.002235
G1 Y35.8 Z0.000000
G1 Y38.3 Z0 
(line171)
G1 X17.1 Y38.6 Z0 
G1 Y36.1 Z0.000000
G1 Y36.0 Z0.000471
G1 Y35.9 Z0.005294
G1 Y35.8 Z0.010000
G1 Y27.7 Z0.006235
G1 Y27.6 Z0.001098
G1 Y27.5 Z0.000000
G1 Y12.0 Z0.009333
G1 Y11.9 Z0.010000
G1 Y8.5 Z0.007333
G1 Y8.4 Z0.000000
G1 Y5.9 Z0 
(line172)
G1 X17.2 Y5.9 Z0 
G1 Y8.4 Z0.000000
G1 Y8.5 Z0.007333
G1 Y8.6 Z0.010000
G1 Y11.9 Z0.010000
G1 Y12.0 Z0.009333
G1 Y12.1 Z0.000000
G1 Y27.7 Z0.000000
G1 Y27.8 Z0.007490
G1 Y27.9 Z0.010000
G1 Y35.9 Z0.010000
G1 Y36.0 Z0.009020
G1 Y36.1 Z0.000118
G1 Y36.2 Z0.000000
G1 Y38.7 Z0 
(line173)
G1 X17.3 Y38.9 Z0 
G1 Y36.4 Z0.000000
G1 Y36.3 Z0.001373
G1 Y36.2 Z0.006941
G1 Y36.1 Z0.010000
G1 Y28.0 Z0.004510
G1 Y27.9 Z0.000235
G1 Y27.8 Z0.000000
G1 Y12.0 Z0.009333
G1 Y11.9 Z0.010000
G1 Y8.5 Z0.007333
G1 Y8.4 Z0.000000
G1 Y5.9 Z0 
(line174)
G1 X17.4 Y5.9 Z0 
G1 Y8.4 Z0.000000
G1 Y8.5 Z0.007333
G1 Y8.6 Z0.010000
G1 Y11.9 Z0.010000
G1 Y12.0 Z0.009333
G1 Y12.1 Z0.000000
G1 Y28.1 Z0.000000
G1 Y28.2 Z0.001725
G1 Y28.3 Z0.010000
G1 Y36.3 Z0.010000
G1 Y36.4 Z0.009216
G1 Y36.5 Z0.004196
G1 Y36.6 Z0.000000
G1 Y39.1 Z0 
(line175)
G1 X17.5 Y39.2 Z0 
G1 Y36.7 Z0.000000
G1 Y36.6 Z0.002784
G1 Y36.5 Z0.010000
G1 Y28.3 Z0.002784
G1 Y28.2 Z0.000000
G1 Y12.0 Z0.009333
G1 Y11.9 Z0.010000
G1 Y8.5 Z0.007333
G1 Y8.4 Z0.000000
G1 Y5.9 Z0 
(line176)
G1 X17.6 Y5.9 Z0 
G1 Y8.4 Z0.000000
G1 Y8.5 Z0.007333
G1 Y8.6 Z0.010000
G1 Y11.9 Z0.010000
G1 Y12.0 Z0.009333
G1 Y12.1 Z0.000000
G1 Y28.4 Z0.000000
G1 Y28.5 Z0.000588
G1 Y28.6 Z0.009765
G1 Y28.7 Z0.010000
G1 Y36.6 Z0.010000
G1 Y36.7 Z0.009765
G1 Y36.8 Z0.005765
G1 Y36.9 Z0.000000
G1 Y39.4 Z0 
(line177)
G1 X17.7 Y39.6 Z0 
G1 Y37.1 Z0.000000
G1 Y37.0 Z0.000235
G1 Y36.9 Z0.004431
G1 Y36.8 Z0.010000
G1 Y28.7 Z0.006706
G1 Y28.6 Z0.001412
G1 Y28.5 Z0.000000
G1 Y12.0 Z0.009333
G1 Y11.9 Z0.010000
G1 Y8.5 Z0.007333
G1 Y8.4 Z0.000000
G1 Y5.9 Z0 
(line178)
G1 X17.8 Y5.9 Z0 
G1 Y8.4 Z0.000000
G1 Y8.5 Z0.007333
G1 Y8.6 Z0.010000
G1 Y11.9 Z0.010000
G1 Y12.0 Z0.009333
G1 Y12.1 Z0.000000
G1 Y28.7 Z0.000000
G1 Y28.8 Z0.000118
G1 Y28.9 Z0.008941
G1 Y29.0 Z0.010000
G1 Y37.0 Z0.010000
G1 Y37.1 Z0.007333
G1 Y37.2 Z0.000000
G1 Y39.7 Z0 
(line179)
G1 X17.9 Y40.0 Z0 
G1 Y37.5 Z0.000000
G1 Y37.4 Z0.000235
G1 Y37.3 Z0.009373
G1 Y37.2 Z0.010000
G1 Y29.2 Z0.009961
G1 Y29.1 Z0.006314
G1 Y29.0 Z0.000000
G1 Y12.0 Z0.008706
G1 Y11.9 Z0.010000
G1 Y8.5 Z0.007333
G1 Y8.4 Z0.000000
G1 Y5.9 Z0 
(line180)
G1 X18.0 Y5.9 Z0 
G1 Y8.4 Z0.000000
G1 Y8.5 Z0.007333
G1 Y8.6 Z0.010000
G1 Y11.9 Z0.010000
G1 Y12.0 Z0.008706
G1 Y12.1 Z0.000000
G1 Y29.1 Z0.000000
G1 Y29.2 Z0.002039
G1 Y29.3 Z0.010000
G1 Y37.3 Z0.010000
G1 Y37.4 Z0.008588
G1 Y37.5 Z0.003294
G1 Y37.6 Z0.000000
G1 Y40.1 Z0 
(line181)
G1 X18.1 Y40.3 Z0 
G1 Y37.8 Z0.000000
G1 Y37.7 Z0.001059
G1 Y37.6 Z0.009882
G1 Y37.5 Z0.010000
G1 Y29.5 Z0.009529
G1 Y29.4 Z0.004549
G1 Y29.3 Z0.000000
G1 Y12.0 Z0.008706
G1 Y11.9 Z0.010000
G1 Y8.5 Z0.007333
G1 Y8.4 Z0.000000
G1 Y5.9 Z0 
(line182)
G1 X18.2 Y5.9 Z0 
G1 Y8.4 Z0.000000
G1 Y8.5 Z0.007333
G1 Y8.6 Z0.010000
G1 Y11.8 Z0.010000
G1 Y11.9 Z0.007451
G1 Y12.0 Z0.001843
G1 Y12.1 Z0.000000
G1 Y29.4 Z0.000000
G1 Y29.5 Z0.000902
G1 Y29.6 Z0.009882
G1 Y29.7 Z0.010000
G1 Y37.6 Z0.010000
G1 Y37.7 Z0.009569
G1 Y37.8 Z0.004941
G1 Y37.9 Z0.000000
G1 Y40.4 Z0 
(line183)
G1 X18.3 Y40.6 Z0 
G1 Y38.1 Z0.000000
G1 Y38.0 Z0.007647
G1 Y37.9 Z0.010000
G1 Y29.8 Z0.008431
G1 Y29.7 Z0.000000
G1 Y20.5 Z0.000118
G1 Y20.4 Z0.003922
G1 Y20.3 Z0.010000
G1 Y20.2 Z0.009529
G1 Y20.1 Z0.004941
G1 Y20.0 Z0.000000
G1 Y11.8 Z0.000118
G1 Y11.7 Z0.009137
G1 Y11.6 Z0.010000
G1 Y8.5 Z0.007333
G1 Y8.4 Z0.000000
G1 Y5.9 Z0 
(line184)
G1 X18.4 Y5.9 Z0 
G1 Y8.4 Z0.000000
G1 Y8.5 Z0.007333
G1 Y8.6 Z0.010000
G1 Y11.3 Z0.010000
G1 Y11.4 Z0.009882
G1 Y11.5 Z0.006235
G1 Y11.6 Z0.000000
G1 Y19.8 Z0.000000
G1 Y19.9 Z0.007647
G1 Y20.0 Z0.010000
G1 Y20.5 Z0.010000
G1 Y20.6 Z0.006824
G1 Y20.7 Z0.001294
G1 Y20.8 Z0.000000
G1 Y29.8 Z0.000000
G1 Y29.9 Z0.000667
G1 Y30.0 Z0.005490
G1 Y30.1 Z0.010000
G1 Y38.1 Z0.010000
G1 Y38.2 Z0.005176
G1 Y38.3 Z0.000431
G1 Y38.4 Z0.000000
G1 Y40.9 Z0 
(line185)
G1 X18.5 Y41.0 Z0 
G1 Y38.5 Z0.000000
G1 Y38.4 Z0.000118
G1 Y38.3 Z0.008941
G1 Y38.2 Z0.010000
G1 Y30.1 Z0.006824
G1 Y30.0 Z0.000000
G1 Y20.8 Z0.000471
G1 Y20.7 Z0.009765
G1 Y20.6 Z0.010000
G1 Y19.8 Z0.006549
G1 Y19.7 Z0.000000
G1 Y11.4 Z0.002000
G1 Y11.3 Z0.010000
G1 Y8.5 Z0.007333
G1 Y8.4 Z0.000000
G1 Y5.9 Z0 
(line186)
G1 X18.6 Y5.9 Z0 
G1 Y8.4 Z0.000000
G1 Y8.5 Z0.007333
G1 Y8.6 Z0.010000
G1 Y11.0 Z0.010000
G1 Y11.1 Z0.009137
G1 Y11.2 Z0.004039
G1 Y11.3 Z0.000000
G1 Y19.4 Z0.000000
G1 Y19.5 Z0.000118
G1 Y19.6 Z0.009020
G1 Y19.7 Z0.010000
G1 Y20.8 Z0.010000
G1 Y20.9 Z0.008196
G1 Y21.0 Z0.002549
G1 Y21.1 Z0.000000
G1 Y30.2 Z0.000000
G1 Y30.3 Z0.003725
G1 Y30.4 Z0.010000
G1 Y38.4 Z0.010000
G1 Y38.5 Z0.009961
G1 Y38.6 Z0.001294
G1 Y38.7 Z0.000000
G1 Y41.2 Z0 
(line187)
G1 X18.7 Y41.4 Z0 
G1 Y38.9 Z0.000000
G1 Y38.8 Z0.004039
G1 Y38.7 Z0.009020
G1 Y38.6 Z0.010000
G1 Y30.6 Z0.009961
G1 Y30.5 Z0.001176
G1 Y30.4 Z0.000000
G1 Y21.2 Z0.005490
G1 Y21.1 Z0.009765
G1 Y21.0 Z0.010000
G1 Y19.3 Z0.001294
G1 Y19.2 Z0.000000
G1 Y11.0 Z0.001176
G1 Y10.9 Z0.006235
G1 Y10.8 Z0.010000
G1 Y8.5 Z0.007333
G1 Y8.4 Z0.000000
G1 Y5.9 Z0 
(line188)
G1 X18.8 Y5.9 Z0 
G1 Y8.4 Z0.000000
G1 Y8.5 Z0.007333
G1 Y8.6 Z0.010000
G1 Y10.7 Z0.010000
G1 Y10.8 Z0.007490
G1 Y10.9 Z0.000000
G1 Y19.1 Z0.000000
G1 Y19.2 Z0.000549
G1 Y19.3 Z0.009765
G1 Y19.4 Z0.010000
G1 Y21.2 Z0.010000
G1 Y21.3 Z0.004118
G1 Y21.4 Z0.000000
G1 Y30.5 Z0.000000
G1 Y30.6 Z0.002118
G1 Y30.7 Z0.007765
G1 Y30.8 Z0.010000
G1 Y38.8 Z0.010000
G1 Y38.9 Z0.002549
G1 Y39.0 Z0.000000
G1 Y41.5 Z0 
(line189)
G1 X18.9 Y41.7 Z0 
G1 Y39.2 Z0.000000
G1 Y39.1 Z0.005608
G1 Y39.0 Z0.010000
G1 Y30.9 Z0.009529
G1 Y30.8 Z0.000275
G1 Y30.7 Z0.000000
G1 Y21.5 Z0.007020
G1 Y21.4 Z0.010000
G1 Y19.0 Z0.002627
G1 Y18.9 Z0.000000
G1 Y10.7 Z0.000118
G1 Y10.6 Z0.004039
G1 Y10.5 Z0.010000
G1 Y8.5 Z0.007333
G1 Y8.4 Z0.000000
G1 Y5.9 Z0 
(line190)
G1 X19.0 Y5.9 Z0 
G1 Y8.4 Z0.000000
G1 Y8.5 Z0.007333
G1 Y8.6 Z0.010000
G1 Y10.3 Z0.010000
G1 Y10.4 Z0.009647
G1 Y10.5 Z0.005137
G1 Y10.6 Z0.000000
G1 Y18.8 Z0.000000
G1 Y18.9 Z0.007059
G1 Y19.0 Z0.010000
G1 Y21.5 Z0.010000
G1 Y21.6 Z0.005569
G1 Y21.7 Z0.000588
G1 Y21.8 Z0.000000
G1 Y30.8 Z0.000000
G1 Y30.9 Z0.000902
G1 Y31.0 Z0.005922
G1 Y31.1 Z0.010000
G1 Y39.1 Z0.010000
G1 Y39.2 Z0.004235
G1 Y39.3 Z0.000118
G1 Y39.4 Z0.000000
G1 Y41.9 Z0 
(line191)
G1 X19.1 Y42.1 Z0 
G1 Y39.6 Z0.000000
G1 Y39.5 Z0.001608
G1 Y39.4 Z0.007176
G1 Y39.3 Z0.010000
G1 Y31.2 Z0.002941
G1 Y31.1 Z0.000000
G1 Y21.8 Z0.008196
G1 Y21.7 Z0.010000
G1 Y18.7 Z0.004431
G1 Y18.6 Z0.000157
G1 Y18.5 Z0.000000
G1 Y10.3 Z0.002000
G1 Y10.2 Z0.010000
G1 Y8.5 Z0.007333
G1 Y8.4 Z0.000000
G1 Y5.9 Z0 
(line192)
G1 X19.2 Y5.9 Z0 
G1 Y8.4 Z0.000000
G1 Y8.5 Z0.007333
G1 Y8.6 Z0.010000
G1 Y9.9 Z0.010000
G1 Y10.0 Z0.009137
G1 Y10.1 Z0.000118
G1 Y10.2 Z0.000000
G1 Y18.3 Z0.000000
G1 Y18.4 Z0.001686
G1 Y18.5 Z0.007333
G1 Y18.6 Z0.010000
G1 Y21.9 Z0.010000
G1 Y22.0 Z0.009765
G1 Y22.1 Z0.000667
G1 Y22.2 Z0.000000
G1 Y31.3 Z0.000000
G1 Y31.4 Z0.005569
G1 Y31.5 Z0.009765
G1 Y31.6 Z0.010000
G1 Y39.5 Z0.010000
G1 Y39.6 Z0.009255
G1 Y39.7 Z0.000235
G1 Y39.8 Z0.000000
G1 Y42.3 Z0 
(line193)
G1 X19.3 Y42.4 Z0 
G1 Y39.9 Z0.000000
G1 Y39.8 Z0.003176
G1 Y39.7 Z0.008510
G1 Y39.6 Z0.010000
G1 Y31.5 Z0.001490
G1 Y31.4 Z0.000000
G1 Y22.2 Z0.004235
G1 Y22.1 Z0.009216
G1 Y22.0 Z0.010000
G1 Y18.4 Z0.009843
G1 Y18.3 Z0.000863
G1 Y18.2 Z0.000000
G1 Y10.0 Z0.000549
G1 Y9.9 Z0.005176
G1 Y9.8 Z0.010000
G1 Y8.5 Z0.007333
G1 Y8.4 Z0.000000
G1 Y5.9 Z0 
(line194)
G1 X19.4 Y5.9 Z0 
G1 Y8.4 Z0.000000
G1 Y8.5 Z0.007333
G1 Y8.6 Z0.010000
G1 Y9.6 Z0.010000
G1 Y9.7 Z0.007490
G1 Y9.8 Z0.000000
G1 Y18.0 Z0.000000
G1 Y18.1 Z0.003294
G1 Y18.2 Z0.008588
G1 Y18.3 Z0.010000
G1 Y22.3 Z0.010000
G1 Y22.4 Z0.001608
G1 Y22.5 Z0.000000
G1 Y31.6 Z0.000000
G1 Y31.7 Z0.003882
G1 Y31.8 Z0.009059
G1 Y31.9 Z0.010000
G1 Y39.8 Z0.010000
G1 Y39.9 Z0.009882
G1 Y40.0 Z0.006118
G1 Y40.1 Z0.000000
G1 Y42.6 Z0 
(line195)
G1 X19.5 Y42.7 Z0 
G1 Y40.2 Z0.000000
G1 Y40.1 Z0.004667
G1 Y40.0 Z0.010000
G1 Y31.9 Z0.009647
G1 Y31.8 Z0.000549
G1 Y31.7 Z0.000000
G1 Y22.5 Z0.005765
G1 Y22.4 Z0.009765
G1 Y22.3 Z0.010000
G1 Y18.0 Z0.001922
G1 Y17.9 Z0.000000
G1 Y9.6 Z0.002980
G1 Y9.5 Z0.010000
G1 Y8.5 Z0.007333
G1 Y8.4 Z0.000000
G1 Y5.9 Z0 
(line196)
G1 X19.6 Y5.9 Z0 
G1 Y8.4 Z0.000000
G1 Y8.5 Z0.007333
G1 Y8.6 Z0.010000
G1 Y9.2 Z0.010000
G1 Y9.3 Z0.009647
G1 Y9.4 Z0.000549
G1 Y9.5 Z0.000000
G1 Y17.7 Z0.000000
G1 Y17.8 Z0.004941
G1 Y17.9 Z0.010000
G1 Y22.6 Z0.010000
G1 Y22.7 Z0.008314
G1 Y22.8 Z0.000000
G1 Y32.0 Z0.000000
G1 Y32.1 Z0.007804
G1 Y32.2 Z0.010000
G1 Y40.2 Z0.010000
G1 Y40.3 Z0.007647
G1 Y40.4 Z0.000000
G1 Y42.9 Z0 
(line197)
G1 X19.7 Y43.2 Z0 
G1 Y40.7 Z0.000000
G1 Y40.6 Z0.000353
G1 Y40.5 Z0.009569
G1 Y40.4 Z0.010000
G1 Y32.3 Z0.004667
G1 Y32.2 Z0.000353
G1 Y32.1 Z0.000000
G1 Y23.0 Z0.000667
G1 Y22.9 Z0.005804
G1 Y22.8 Z0.010000
G1 Y17.6 Z0.007882
G1 Y17.5 Z0.000000
G1 Y9.2 Z0.002000
G1 Y9.1 Z0.007490
G1 Y9.0 Z0.010000
G1 Y8.5 Z0.007333
G1 Y8.4 Z0.000000
G1 Y5.9 Z0 
(line198)
G1 X19.8 Y5.9 Z0 
G1 Y8.4 Z0.000000
G1 Y8.5 Z0.007333
G1 Y8.6 Z0.010000
G1 Y8.9 Z0.010000
G1 Y9.0 Z0.008431
G1 Y9.1 Z0.000000
G1 Y17.3 Z0.000000
G1 Y17.4 Z0.001098
G1 Y17.5 Z0.006627
G1 Y17.6 Z0.010000
G1 Y22.9 Z0.010000
G1 Y23.0 Z0.009255
G1 Y23.1 Z0.000157
G1 Y23.2 Z0.000000
G1 Y32.3 Z0.000000
G1 Y32.4 Z0.006078
G1 Y32.5 Z0.009882
G1 Y32.6 Z0.010000
G1 Y40.5 Z0.010000
G1 Y40.6 Z0.008824
G1 Y40.7 Z0.000039
G1 Y40.8 Z0.000000
G1 Y43.3 Z0 
(line199)
G1 X19.9 Y43.5 Z0 
G1 Y41.0 Z0.000000
G1 Y40.9 Z0.001098
G1 Y40.8 Z0.009961
G1 Y40.7 Z0.010000
G1 Y32.6 Z0.002980
G1 Y32.5 Z0.000000
G1 Y23.3 Z0.001608
G1 Y23.2 Z0.010000
G1 Y17.3 Z0.009020
G1 Y17.2 Z0.000118
G1 Y17.1 Z0.000000
G1 Y8.8 Z0.005176
G1 Y8.7 Z0.010000
G1 Y8.5 Z0.007333
G1 Y8.4 Z0.000000
G1 Y5.9 Z0 
(line200)
G1 X20.0 Y5.9 Z0 
G1 Y8.4 Z0.000000
G1 Y8.5 Z0.007333
G1 Y8.6 Z0.009882
G1 Y8.7 Z0.006314
G1 Y8.8 Z0.000000
G1 Y17.0 Z0.000000
G1 Y17.1 Z0.002471
G1 Y17.2 Z0.008000
G1 Y17.3 Z0.010000
G1 Y23.2 Z0.010000
G1 Y23.3 Z0.009843
G1 Y23.4 Z0.000784
G1 Y23.5 Z0.000000
G1 Y32.6 Z0.000000
G1 Y32.7 Z0.004353
G1 Y32.8 Z0.009333
G1 Y32.9 Z0.010000
G1 Y40.8 Z0.010000
G1 Y40.9 Z0.009569
G1 Y41.0 Z0.005176
G1 Y41.1 Z0.000000
G1 Y43.6 Z0 
(line201)
G1 X20.1 Y43.8 Z0 
G1 Y41.3 Z0.000000
G1 Y41.2 Z0.002471
G1 Y41.1 Z0.010000
G1 Y33.0 Z0.007020
G1 Y32.9 Z0.001608
G1 Y32.8 Z0.000000
G1 Y23.6 Z0.003098
G1 Y23.5 Z0.010000
G1 Y17.0 Z0.009765
G1 Y16.9 Z0.005490
G1 Y16.8 Z0.000000
G1 Y8.5 Z0.001608
G1 Y8.4 Z0.000000
G1 Y5.9 Z0 
(line202)
G1 X20.2 Y14.1 Z0 
G1 Y16.6 Z0.000000
G1 Y16.7 Z0.002667
G1 Y16.8 Z0.010000
G1 Y23.7 Z0.010000
G1 Y23.8 Z0.006000
G1 Y23.9 Z0.000000
G1 Y33.0 Z0.000000
G1 Y33.1 Z0.003569
G1 Y33.2 Z0.010000
G1 Y41.3 Z0.010000
G1 Y41.4 Z0.003176
G1 Y41.5 Z0.000000
G1 Y44.0 Z0 
(line203)
G1 X20.3 Y43.9 Z0 
G1 Y41.4 Z0.000000
G1 Y41.3 Z0.008627
G1 Y41.2 Z0.010000
G1 Y33.0 Z0.002118
G1 Y32.9 Z0.000000
G1 Y24.0 Z0.000235
G1 Y23.9 Z0.004627
G1 Y23.8 Z0.010000
G1 Y16.6 Z0.007137
G1 Y16.5 Z0.000000
G1 Y14.0 Z0 
(line204)
G1 X20.4 Y13.7 Z0 
G1 Y16.2 Z0.000000
G1 Y16.3 Z0.000235
G1 Y16.4 Z0.009255
G1 Y16.5 Z0.010000
G1 Y24.0 Z0.010000
G1 Y24.1 Z0.007333
G1 Y24.2 Z0.001804
G1 Y24.3 Z0.000000
G1 Y32.6 Z0.000000
G1 Y32.7 Z0.000431
G1 Y32.8 Z0.005137
G1 Y32.9 Z0.010000
G1 Y41.0 Z0.010000
G1 Y41.1 Z0.005765
G1 Y41.2 Z0.000000
G1 Y43.7 Z0 
(line205)
G1 X20.5 Y43.6 Z0 
G1 Y41.1 Z0.000000
G1 Y41.0 Z0.007059
G1 Y40.9 Z0.010000
G1 Y32.7 Z0.008941
G1 Y32.6 Z0.000118
G1 Y32.5 Z0.000000
G1 Y24.3 Z0.000863
G1 Y24.2 Z0.009882
G1 Y24.1 Z0.010000
G1 Y16.3 Z0.008510
G1 Y16.2 Z0.000000
G1 Y13.7 Z0 
(line206)
G1 X20.6 Y13.4 Z0 
G1 Y15.9 Z0.000000
G1 Y16.0 Z0.000863
G1 Y16.1 Z0.009882
G1 Y16.2 Z0.010000
G1 Y24.2 Z0.010000
G1 Y24.3 Z0.007059
G1 Y24.4 Z0.000000
G1 Y32.3 Z0.000000
G1 Y32.4 Z0.001294
G1 Y32.5 Z0.006824
G1 Y32.6 Z0.010000
G1 Y40.6 Z0.010000
G1 Y40.7 Z0.009216
G1 Y40.8 Z0.004039
G1 Y40.9 Z0.000000
G1 Y43.4 Z0 
(line207)
G1 X20.7 Y43.2 Z0 
G1 Y40.7 Z0.000000
G1 Y40.6 Z0.001412
G1 Y40.5 Z0.010000
G1 Y32.3 Z0.009059
G1 Y32.2 Z0.004118
G1 Y32.1 Z0.000000
G1 Y24.2 Z0.000118
G1 Y24.1 Z0.004118
G1 Y24.0 Z0.010000
G1 Y15.8 Z0.003373
G1 Y15.7 Z0.000000
G1 Y13.2 Z0 
(line208)
G1 X20.8 Y13.1 Z0 
G1 Y15.6 Z0.000000
G1 Y15.7 Z0.002000
G1 Y15.8 Z0.010000
G1 Y23.8 Z0.010000
G1 Y23.9 Z0.009765
G1 Y24.0 Z0.005451
G1 Y24.1 Z0.000000
G1 Y32.0 Z0.000000
G1 Y32.1 Z0.002627
G1 Y32.2 Z0.010000
G1 Y40.3 Z0.010000
G1 Y40.4 Z0.008078
G1 Y40.5 Z0.002431
G1 Y40.6 Z0.000000
G1 Y43.1 Z0 
(line209)
G1 X20.9 Y42.9 Z0 
G1 Y40.4 Z0.000000
G1 Y40.3 Z0.000431
G1 Y40.2 Z0.004980
G1 Y40.1 Z0.010000
G1 Y32.0 Z0.009765
G1 Y31.9 Z0.005765
G1 Y31.8 Z0.000000
G1 Y23.8 Z0.002667
G1 Y23.7 Z0.010000
G1 Y15.5 Z0.004980
G1 Y15.4 Z0.000353
G1 Y15.3 Z0.000000
G1 Y12.8 Z0 
(line210)
G1 X21.0 Y12.7 Z0 
G1 Y15.2 Z0.000000
G1 Y15.3 Z0.000039
G1 Y15.4 Z0.008824
G1 Y15.5 Z0.010000
G1 Y23.5 Z0.010000
G1 Y23.6 Z0.009137
G1 Y23.7 Z0.003882
G1 Y23.8 Z0.000000
G1 Y31.6 Z0.000000
G1 Y31.7 Z0.000157
G1 Y31.8 Z0.004431
G1 Y31.9 Z0.010000
G1 Y40.0 Z0.010000
G1 Y40.1 Z0.006314
G1 Y40.2 Z0.000000
G1 Y42.7 Z0 
(line211)
G1 X21.1 Y42.6 Z0 
G1 Y40.1 Z0.000000
G1 Y40.0 Z0.000039
G1 Y39.9 Z0.003294
G1 Y39.8 Z0.010000
G1 Y31.6 Z0.007333
G1 Y31.5 Z0.000000
G1 Y23.5 Z0.001373
G1 Y23.4 Z0.006627
G1 Y23.3 Z0.010000
G1 Y15.2 Z0.006627
G1 Y15.1 Z0.001216
G1 Y15.0 Z0.000000
G1 Y12.5 Z0 
(line212)
G1 X21.2 Y12.3 Z0 
G1 Y14.8 Z0.000000
G1 Y14.9 Z0.003922
G1 Y15.0 Z0.009020
G1 Y15.1 Z0.010000
G1 Y23.1 Z0.010000
G1 Y23.2 Z0.008941
G1 Y23.3 Z0.000118
G1 Y23.4 Z0.000000
G1 Y31.2 Z0.000000
G1 Y31.3 Z0.000275
G1 Y31.4 Z0.009451
G1 Y31.5 Z0.010000
G1 Y39.5 Z0.010000
G1 Y39.6 Z0.009882
G1 Y39.7 Z0.000902
G1 Y39.8 Z0.000000
G1 Y42.3 Z0 
(line213)
G1 X21.3 Y42.2 Z0 
G1 Y39.7 Z0.000000
G1 Y39.6 Z0.001804
G1 Y39.5 Z0.010000
G1 Y31.3 Z0.008706
G1 Y31.2 Z0.000039
G1 Y31.1 Z0.000000
G1 Y23.2 Z0.000431
G1 Y23.1 Z0.005059
G1 Y23.0 Z0.010000
G1 Y14.8 Z0.002549
G1 Y14.7 Z0.000000
G1 Y12.2 Z0 
(line214)
G1 X21.4 Y12.0 Z0 
G1 Y14.5 Z0.000000
G1 Y14.6 Z0.005569
G1 Y14.7 Z0.009765
G1 Y14.8 Z0.010000
G1 Y22.8 Z0.010000
G1 Y22.9 Z0.002314
G1 Y23.0 Z0.000000
G1 Y30.9 Z0.000000
G1 Y31.0 Z0.001059
G1 Y31.1 Z0.009961
G1 Y31.2 Z0.010000
G1 Y39.2 Z0.010000
G1 Y39.3 Z0.009333
G1 Y39.4 Z0.000157
G1 Y39.5 Z0.000000
G1 Y42.0 Z0 
(line215)
G1 X21.5 Y41.9 Z0 
G1 Y39.4 Z0.000000
G1 Y39.3 Z0.000745
G1 Y39.2 Z0.005608
G1 Y39.1 Z0.010000
G1 Y31.0 Z0.009569
G1 Y30.9 Z0.005059
G1 Y30.8 Z0.000000
G1 Y22.8 Z0.003490
G1 Y22.7 Z0.010000
G1 Y14.5 Z0.004235
G1 Y14.4 Z0.000118
G1 Y14.3 Z0.000000
G1 Y11.8 Z0 
(line216)
G1 X21.6 Y11.7 Z0 
G1 Y14.2 Z0.000000
G1 Y14.3 Z0.007176
G1 Y14.4 Z0.010000
G1 Y22.4 Z0.010000
G1 Y22.5 Z0.009882
G1 Y22.6 Z0.000980
G1 Y22.7 Z0.000000
G1 Y30.6 Z0.000000
G1 Y30.7 Z0.002235
G1 Y30.8 Z0.010000
G1 Y38.9 Z0.010000
G1 Y39.0 Z0.008118
G1 Y39.1 Z0.000000
G1 Y41.6 Z0 
(line217)
G1 X21.7 Y41.4 Z0 
G1 Y38.9 Z0.000000
G1 Y38.8 Z0.005255
G1 Y38.7 Z0.009765
G1 Y38.6 Z0.010000
G1 Y30.5 Z0.005451
G1 Y30.4 Z0.000471
G1 Y30.3 Z0.000000
G1 Y22.4 Z0.000039
G1 Y22.3 Z0.008706
G1 Y22.2 Z0.010000
G1 Y14.1 Z0.009373
G1 Y14.0 Z0.000235
G1 Y13.9 Z0.000000
G1 Y11.4 Z0 
(line218)
G1 X21.8 Y11.3 Z0 
G1 Y13.8 Z0.000000
G1 Y13.9 Z0.003176
G1 Y14.0 Z0.008510
G1 Y14.1 Z0.010000
G1 Y22.1 Z0.010000
G1 Y22.2 Z0.009529
G1 Y22.3 Z0.000275
G1 Y22.4 Z0.000000
G1 Y30.2 Z0.000000
G1 Y30.3 Z0.000118
G1 Y30.4 Z0.009020
G1 Y30.5 Z0.010000
G1 Y38.6 Z0.010000
G1 Y38.7 Z0.001373
G1 Y38.8 Z0.000000
G1 Y41.3 Z0 
(line219)
G1 X21.9 Y41.1 Z0 
G1 Y38.6 Z0.000000
G1 Y38.5 Z0.003569
G1 Y38.4 Z0.008941
G1 Y38.3 Z0.010000
G1 Y30.2 Z0.007059
G1 Y30.1 Z0.001529
G1 Y30.0 Z0.000000
G1 Y22.0 Z0.007451
G1 Y21.9 Z0.010000
G1 Y13.8 Z0.009882
G1 Y13.7 Z0.000902
G1 Y13.6 Z0.000000
G1 Y11.1 Z0 
(line220)
G1 X22.0 Y11.0 Z0 
G1 Y13.5 Z0.000000
G1 Y13.6 Z0.004824
G1 Y13.7 Z0.009451
G1 Y13.8 Z0.010000
G1 Y21.8 Z0.010000
G1 Y21.9 Z0.003059
G1 Y22.0 Z0.000000
G1 Y29.9 Z0.000000
G1 Y30.0 Z0.000667
G1 Y30.1 Z0.009765
G1 Y30.2 Z0.010000
G1 Y38.2 Z0.010000
G1 Y38.3 Z0.009569
G1 Y38.4 Z0.000431
G1 Y38.5 Z0.000000
G1 Y41.0 Z0 
(line221)
G1 X22.1 Y40.7 Z0 
G1 Y38.2 Z0.000000
G1 Y38.1 Z0.007686
G1 Y38.0 Z0.010000
G1 Y29.8 Z0.003059
G1 Y29.7 Z0.000000
G1 Y21.7 Z0.005765
G1 Y21.6 Z0.009882
G1 Y21.5 Z0.010000
G1 Y13.4 Z0.007647
G1 Y13.3 Z0.000000
G1 Y10.8 Z0 
(line222)
G1 X22.2 Y10.5 Z0 
G1 Y13.0 Z0.000000
G1 Y13.1 Z0.000353
G1 Y13.2 Z0.005059
G1 Y13.3 Z0.010000
G1 Y21.3 Z0.010000
G1 Y21.4 Z0.008431
G1 Y21.5 Z0.002784
G1 Y21.6 Z0.000000
G1 Y29.5 Z0.000000
G1 Y29.6 Z0.006078
G1 Y29.7 Z0.009882
G1 Y29.8 Z0.010000
G1 Y37.8 Z0.010000
G1 Y37.9 Z0.004549
G1 Y38.0 Z0.000235
G1 Y38.1 Z0.000000
G1 Y40.6 Z0 
(line223)
G1 X22.3 Y40.4 Z0 
G1 Y37.9 Z0.000000
G1 Y37.8 Z0.005804
G1 Y37.7 Z0.009882
G1 Y37.6 Z0.010000
G1 Y29.5 Z0.004667
G1 Y29.4 Z0.000275
G1 Y29.3 Z0.000000
G1 Y21.4 Z0.000157
G1 Y21.3 Z0.009333
G1 Y21.2 Z0.010000
G1 Y13.1 Z0.008902
G1 Y13.0 Z0.000118
G1 Y12.9 Z0.000000
G1 Y10.4 Z0 
(line224)
G1 X22.4 Y10.2 Z0 
G1 Y12.7 Z0.000000
G1 Y12.8 Z0.001216
G1 Y12.9 Z0.009961
G1 Y13.0 Z0.010000
G1 Y21.0 Z0.010000
G1 Y21.1 Z0.007020
G1 Y21.2 Z0.001490
G1 Y21.3 Z0.000000
G1 Y29.2 Z0.000000
G1 Y29.3 Z0.007647
G1 Y29.4 Z0.010000
G1 Y37.5 Z0.010000
G1 Y37.6 Z0.002784
G1 Y37.7 Z0.000000
G1 Y40.2 Z0 
(line225)
G1 X22.5 Y40.1 Z0 
G1 Y37.6 Z0.000000
G1 Y37.5 Z0.004118
G1 Y37.4 Z0.009255
G1 Y37.3 Z0.010000
G1 Y29.2 Z0.006431
G1 Y29.1 Z0.001059
G1 Y29.0 Z0.000000
G1 Y21.0 Z0.008392
G1 Y20.9 Z0.010000
G1 Y12.8 Z0.009765
G1 Y12.7 Z0.000471
G1 Y12.6 Z0.000000
G1 Y10.1 Z0 
(line226)
G1 X22.6 Y9.9 Z0 
G1 Y12.4 Z0.000000
G1 Y12.5 Z0.002549
G1 Y12.6 Z0.010000
G1 Y20.7 Z0.010000
G1 Y20.8 Z0.005373
G1 Y20.9 Z0.000000
G1 Y28.8 Z0.000000
G1 Y28.9 Z0.003686
G1 Y29.0 Z0.008902
G1 Y29.1 Z0.010000
G1 Y37.1 Z0.010000
G1 Y37.2 Z0.006824
G1 Y37.3 Z0.001412
G1 Y37.4 Z0.000000
G1 Y39.9 Z0 
(line227)
G1 X22.7 Y39.7 Z0 
G1 Y37.2 Z0.000000
G1 Y37.1 Z0.000118
G1 Y37.0 Z0.009059
G1 Y36.9 Z0.010000
G1 Y28.8 Z0.009961
G1 Y28.7 Z0.001216
G1 Y28.6 Z0.000000
G1 Y20.6 Z0.002627
G1 Y20.5 Z0.010000
G1 Y12.3 Z0.005686
G1 Y12.2 Z0.000000
G1 Y9.7 Z0 
(line228)
G1 X22.8 Y9.5 Z0 
G1 Y12.0 Z0.000000
G1 Y12.1 Z0.000118
G1 Y12.2 Z0.004314
G1 Y12.3 Z0.010000
G1 Y20.3 Z0.010000
G1 Y20.4 Z0.009059
G1 Y20.5 Z0.003882
G1 Y20.6 Z0.000000
G1 Y28.5 Z0.000000
G1 Y28.6 Z0.005451
G1 Y28.7 Z0.009765
G1 Y28.8 Z0.010000
G1 Y36.8 Z0.010000
G1 Y36.9 Z0.005137
G1 Y37.0 Z0.000549
G1 Y37.1 Z0.000000
G1 Y39.6 Z0 
(line229)
G1 X22.9 Y39.3 Z0 
G1 Y36.8 Z0.000000
G1 Y36.7 Z0.002314
G1 Y36.6 Z0.010000
G1 Y28.4 Z0.008196
G1 Y28.3 Z0.000000
G1 Y20.3 Z0.001216
G1 Y20.2 Z0.010000
G1 Y12.0 Z0.007333
G1 Y11.9 Z0.001608
G1 Y11.8 Z0.000000
G1 Y9.3 Z0 
(line230)
G1 X23.0 Y9.2 Z0 
G1 Y11.7 Z0.000000
G1 Y11.8 Z0.000784
G1 Y11.9 Z0.009843
G1 Y12.0 Z0.010000
G1 Y20.0 Z0.010000
G1 Y20.1 Z0.008000
G1 Y20.2 Z0.002314
G1 Y20.3 Z0.000000
G1 Y28.2 Z0.000000
G1 Y28.3 Z0.007059
G1 Y28.4 Z0.010000
G1 Y36.5 Z0.010000
G1 Y36.6 Z0.003412
G1 Y36.7 Z0.000000
G1 Y39.2 Z0 
(line231)
G1 X23.1 Y39.0 Z0 
G1 Y36.5 Z0.000000
G1 Y36.4 Z0.000902
G1 Y36.3 Z0.009882
G1 Y36.2 Z0.010000
G1 Y28.1 Z0.009255
G1 Y28.0 Z0.000157
G1 Y27.9 Z0.000000
G1 Y20.0 Z0.000431
G1 Y19.9 Z0.004941
G1 Y19.8 Z0.010000
G1 Y11.7 Z0.008510
G1 Y11.6 Z0.003255
G1 Y11.5 Z0.000000
G1 Y9.0 Z0 
(line232)
G1 X23.2 Y8.8 Z0 
G1 Y11.3 Z0.000000
G1 Y11.4 Z0.006235
G1 Y11.5 Z0.009882
G1 Y11.6 Z0.010000
G1 Y19.6 Z0.010000
G1 Y19.7 Z0.007765
G1 Y19.8 Z0.000000
G1 Y27.7 Z0.000000
G1 Y27.8 Z0.001804
G1 Y27.9 Z0.010000
G1 Y36.0 Z0.010000
G1 Y36.1 Z0.008627
G1 Y36.2 Z0.000000
G1 Y38.7 Z0 
(line233)
G1 X23.3 Y38.7 Z0 
G1 Y36.2 Z0.000000
G1 Y36.1 Z0.000235
G1 Y36.0 Z0.009333
G1 Y35.9 Z0.010000
G1 Y27.8 Z0.009882
G1 Y27.7 Z0.000863
G1 Y27.6 Z0.000000
G1 Y19.7 Z0.000039
G1 Y19.6 Z0.003373
G1 Y19.5 Z0.010000
G1 Y11.3 Z0.004941
G1 Y11.2 Z0.000000
G1 Y8.7 Z0 
(line234)
G1 X23.4 Y8.5 Z0 
G1 Y11.0 Z0.000000
G1 Y11.1 Z0.007647
G1 Y11.2 Z0.010000
G1 Y19.2 Z0.010000
G1 Y19.3 Z0.009882
G1 Y19.4 Z0.000902
G1 Y19.5 Z0.000000
G1 Y27.4 Z0.000000
G1 Y27.5 Z0.003373
G1 Y27.6 Z0.010000
G1 Y35.7 Z0.010000
G1 Y35.8 Z0.007059
G1 Y35.9 Z0.000000
G1 Y38.4 Z0 
(line235)
G1 X23.5 Y38.3 Z0 
G1 Y35.8 Z0.000000
G1 Y35.7 Z0.002784
G1 Y35.6 Z0.010000
G1 Y27.4 Z0.007647
G1 Y27.3 Z0.000000
G1 Y19.3 Z0.002000
G1 Y19.2 Z0.010000
G1 Y11.0 Z0.006510
G1 Y10.9 Z0.001098
G1 Y10.8 Z0.000000
G1 Y8.3 Z0 
(line236)
G1 X23.6 Y8.1 Z0 
G1 Y10.6 Z0.000000
G1 Y10.7 Z0.000118
G1 Y10.8 Z0.009020
G1 Y10.9 Z0.010000
G1 Y18.9 Z0.010000
G1 Y19.0 Z0.009529
G1 Y19.1 Z0.000235
G1 Y19.2 Z0.000000
G1 Y27.0 Z0.000000
G1 Y27.1 Z0.000353
G1 Y27.2 Z0.005059
G1 Y27.3 Z0.010000
G1 Y35.3 Z0.010000
G1 Y35.4 Z0.009765
G1 Y35.5 Z0.005373
G1 Y35.6 Z0.000000
G1 Y38.1 Z0 
(line237)
G1 X23.7 Y37.9 Z0 
G1 Y35.4 Z0.000000
G1 Y35.3 Z0.002353
G1 Y35.2 Z0.008078
G1 Y35.1 Z0.010000
G1 Y27.0 Z0.007882
G1 Y26.9 Z0.002235
G1 Y26.8 Z0.000000
G1 Y18.8 Z0.007373
G1 Y18.7 Z0.010000
G1 Y10.5 Z0.001294
G1 Y10.4 Z0.000000
G1 Y7.9 Z0 
(line238)
G1 X23.8 Y7.8 Z0 
G1 Y10.3 Z0.000000
G1 Y10.4 Z0.005451
G1 Y10.5 Z0.009765
G1 Y10.6 Z0.010000
G1 Y18.6 Z0.010000
G1 Y18.7 Z0.008588
G1 Y18.8 Z0.000000
G1 Y26.7 Z0.000000
G1 Y26.8 Z0.001216
G1 Y26.9 Z0.009961
G1 Y27.0 Z0.010000
G1 Y35.0 Z0.010000
G1 Y35.1 Z0.008941
G1 Y35.2 Z0.000118
G1 Y35.3 Z0.000000
G1 Y37.8 Z0 
(line239)
G1 X23.9 Y37.6 Z0 
G1 Y35.1 Z0.000000
G1 Y35.0 Z0.001176
G1 Y34.9 Z0.006314
G1 Y34.8 Z0.010000
G1 Y26.7 Z0.009020
G1 Y26.6 Z0.004039
G1 Y26.5 Z0.000000
G1 Y18.5 Z0.005765
G1 Y18.4 Z0.009843
G1 Y18.3 Z0.010000
G1 Y10.2 Z0.002549
G1 Y10.1 Z0.000000
G1 Y7.6 Z0 
(line240)
G1 X24.0 Y7.5 Z0 
G1 Y10.0 Z0.000000
G1 Y10.1 Z0.007059
G1 Y10.2 Z0.010000
G1 Y18.3 Z0.010000
G1 Y18.4 Z0.001686
G1 Y18.5 Z0.000000
G1 Y26.4 Z0.000000
G1 Y26.5 Z0.002549
G1 Y26.6 Z0.010000
G1 Y34.7 Z0.010000
G1 Y34.8 Z0.007765
G1 Y34.9 Z0.000000
G1 Y37.4 Z0 
(line241)
G1 X24.1 Y37.2 Z0 
G1 Y34.7 Z0.000000
G1 Y34.6 Z0.004627
G1 Y34.5 Z0.010000
G1 Y26.3 Z0.005765
G1 Y26.2 Z0.000000
G1 Y18.2 Z0.004118
G1 Y18.1 Z0.009255
G1 Y18.0 Z0.010000
G1 Y9.9 Z0.009255
G1 Y9.8 Z0.000157
G1 Y9.7 Z0.000000
G1 Y7.2 Z0 
(line242)
G1 X24.2 Y7.0 Z0 
G1 Y9.5 Z0.000000
G1 Y9.6 Z0.001608
G1 Y9.7 Z0.007255
G1 Y9.8 Z0.010000
G1 Y17.8 Z0.010000
G1 Y17.9 Z0.006863
G1 Y18.0 Z0.001490
G1 Y18.1 Z0.000000
G1 Y26.0 Z0.000000
G1 Y26.1 Z0.008510
G1 Y26.2 Z0.010000
G1 Y34.3 Z0.010000
G1 Y34.4 Z0.001725
G1 Y34.5 Z0.000000
G1 Y37.0 Z0 
(line243)
G1 X24.3 Y36.9 Z0 
G1 Y34.4 Z0.000000
G1 Y34.3 Z0.002941
G1 Y34.2 Z0.008431
G1 Y34.1 Z0.010000
G1 Y26.0 Z0.007255
G1 Y25.9 Z0.001608
G1 Y25.8 Z0.000000
G1 Y17.8 Z0.008118
G1 Y17.7 Z0.010000
G1 Y9.6 Z0.009843
G1 Y9.5 Z0.000863
G1 Y9.4 Z0.000000
G1 Y6.9 Z0 
(line244)
G1 X24.4 Y6.7 Z0 
G1 Y9.2 Z0.000000
G1 Y9.3 Z0.003294
G1 Y9.4 Z0.010000
G1 Y17.5 Z0.010000
G1 Y17.6 Z0.005294
G1 Y17.7 Z0.000588
G1 Y17.8 Z0.000000
G1 Y25.6 Z0.000000
G1 Y25.7 Z0.000235
G1 Y25.8 Z0.009373
G1 Y25.9 Z0.010000
G1 Y33.9 Z0.010000
G1 Y34.0 Z0.009765
G1 Y34.1 Z0.000745
G1 Y34.2 Z0.000000
G1 Y36.7 Z0 
(line245)
G1 X24.5 Y36.6 Z0 
G1 Y34.1 Z0.000000
G1 Y34.0 Z0.001490
G1 Y33.9 Z0.006863
G1 Y33.8 Z0.010000
G1 Y25.7 Z0.008627
G1 Y25.6 Z0.003373
G1 Y25.5 Z0.000000
G1 Y17.5 Z0.006706
G1 Y17.4 Z0.010000
G1 Y9.2 Z0.001922
G1 Y9.1 Z0.000000
G1 Y6.6 Z0 
(line246)
G1 X24.6 Y6.3 Z0 
G1 Y8.8 Z0.000000
G1 Y8.9 Z0.000353
G1 Y9.0 Z0.004941
G1 Y9.1 Z0.010000
G1 Y17.2 Z0.010000
G1 Y17.3 Z0.003725
G1 Y17.4 Z0.000000
G1 Y25.3 Z0.000000
G1 Y25.4 Z0.006392
G1 Y25.5 Z0.009882
G1 Y25.6 Z0.010000
G1 Y33.6 Z0.010000
G1 Y33.7 Z0.003882
G1 Y33.8 Z0.000118
G1 Y33.9 Z0.000000
G1 Y36.4 Z0 
(line247)
G1 X24.7 Y36.1 Z0 
G1 Y33.6 Z0.000000
G1 Y33.5 Z0.006549
G1 Y33.4 Z0.009961
G1 Y33.3 Z0.010000
G1 Y25.2 Z0.003686
G1 Y25.1 Z0.000039
G1 Y25.0 Z0.000000
G1 Y17.1 Z0.001176
G1 Y17.0 Z0.009961
G1 Y16.9 Z0.010000
G1 Y8.8 Z0.007686
G1 Y8.7 Z0.000000
G1 Y6.2 Z0 
(line248)
G1 X24.8 Y6.0 Z0 
G1 Y8.5 Z0.000000
G1 Y8.6 Z0.001098
G1 Y8.7 Z0.006549
G1 Y8.8 Z0.010000
G1 Y16.8 Z0.010000
G1 Y16.9 Z0.007882
G1 Y17.0 Z0.002314
G1 Y17.1 Z0.000000
G1 Y25.0 Z0.000000
G1 Y25.1 Z0.007882
G1 Y25.2 Z0.010000
G1 Y33.3 Z0.010000
G1 Y33.4 Z0.002314
G1 Y33.5 Z0.000000
G1 Y36.0 Z0 
(line249)
G1 X24.9 Y35.8 Z0 
G1 Y33.3 Z0.000000
G1 Y33.2 Z0.000353
G1 Y33.1 Z0.010000
G1 Y24.9 Z0.009686
G1 Y24.8 Z0.000471
G1 Y24.7 Z0.000000
G1 Y16.8 Z0.000431
G1 Y16.7 Z0.009569
G1 Y16.6 Z0.010000
G1 Y8.5 Z0.007059
G1 Y8.4 Z0.000000
G1 Y5.9 Z0 
(line250)
G1 X25.0 Y5.9 Z0 
G1 Y8.4 Z0.000000
G1 Y8.5 Z0.007333
G1 Y8.6 Z0.010000
G1 Y16.5 Z0.010000
G1 Y16.6 Z0.006235
G1 Y16.7 Z0.001098
G1 Y16.8 Z0.000000
G1 Y24.6 Z0.000000
G1 Y24.7 Z0.000118
G1 Y24.8 Z0.009020
G1 Y24.9 Z0.010000
G1 Y33.1 Z0.010000
G1 Y33.2 Z0.006314
G1 Y33.3 Z0.001059
G1 Y33.4 Z0.000000
G1 Y35.9 Z0 
(line251)
G1 X25.1 Y36.1 Z0 
G1 Y33.6 Z0.000000
G1 Y33.5 Z0.003373
G1 Y33.4 Z0.008706
G1 Y33.3 Z0.010000
G1 Y24.5 Z0.001490
G1 Y24.4 Z0.000000
G1 Y16.5 Z0.000039
G1 Y16.4 Z0.003294
G1 Y16.3 Z0.010000
G1 Y8.5 Z0.007333
G1 Y8.4 Z0.000000
G1 Y5.9 Z0 
(line252)
G1 X25.2 Y5.9 Z0 
G1 Y8.4 Z0.000000
G1 Y8.5 Z0.007333
G1 Y8.6 Z0.010000
G1 Y16.0 Z0.010000
G1 Y16.1 Z0.009882
G1 Y16.2 Z0.006078
G1 Y16.3 Z0.000000
G1 Y24.2 Z0.000000
G1 Y24.3 Z0.004353
G1 Y24.4 Z0.010000
G1 Y33.5 Z0.010000
G1 Y33.6 Z0.009882
G1 Y33.7 Z0.000902
G1 Y33.8 Z0.000000
G1 Y36.3 Z0 
(line253)
G1 X25.3 Y36.4 Z0 
G1 Y33.9 Z0.000000
G1 Y33.8 Z0.004745
G1 Y33.7 Z0.009451
G1 Y33.6 Z0.010000
G1 Y24.2 Z0.002980
G1 Y24.1 Z0.000000
G1 Y16.1 Z0.002000
G1 Y16.0 Z0.010000
G1 Y8.5 Z0.007333
G1 Y8.4 Z0.000000
G1 Y5.9 Z0 
(line254)
G1 X25.4 Y5.9 Z0 
G1 Y8.4 Z0.000000
G1 Y8.5 Z0.007333
G1 Y8.6 Z0.010000
G1 Y15.7 Z0.010000
G1 Y15.8 Z0.009451
G1 Y15.9 Z0.000235
G1 Y16.0 Z0.000000
G1 Y23.8 Z0.000000
G1 Y23.9 Z0.000863
G1 Y24.0 Z0.006000
G1 Y24.1 Z0.010000
G1 Y33.9 Z0.010000
G1 Y34.0 Z0.007490
G1 Y34.1 Z0.000000
G1 Y36.6 Z0 
(line255)
G1 X25.5 Y36.7 Z0 
G1 Y34.2 Z0.000000
G1 Y34.1 Z0.006118
G1 Y34.0 Z0.010000
G1 Y23.9 Z0.009373
G1 Y23.8 Z0.000235
G1 Y23.7 Z0.000000
G1 Y15.8 Z0.000902
G1 Y15.7 Z0.009882
G1 Y15.6 Z0.010000
G1 Y8.5 Z0.007333
G1 Y8.4 Z0.000000
G1 Y5.9 Z0 
(line256)
G1 X25.6 Y5.9 Z0 
G1 Y8.4 Z0.000000
G1 Y8.5 Z0.007333
G1 Y8.6 Z0.010000
G1 Y15.4 Z0.010000
G1 Y15.5 Z0.008431
G1 Y15.6 Z0.000000
G1 Y23.5 Z0.000000
G1 Y23.6 Z0.001922
G1 Y23.7 Z0.007647
G1 Y23.8 Z0.010000
G1 Y34.2 Z0.010000
G1 Y34.3 Z0.008510
G1 Y34.4 Z0.000000
G1 Y36.9 Z0 
(line257)
G1 X25.7 Y37.2 Z0 
G1 Y34.7 Z0.000000
G1 Y34.6 Z0.000863
G1 Y34.5 Z0.009882
G1 Y34.4 Z0.010000
G1 Y23.5 Z0.009569
G1 Y23.4 Z0.004980
G1 Y23.3 Z0.000000
G1 Y15.3 Z0.005608
G1 Y15.2 Z0.010000
G1 Y8.5 Z0.007333
G1 Y8.4 Z0.000000
G1 Y5.9 Z0 
(line258)
G1 X25.8 Y5.9 Z0 
G1 Y8.4 Z0.000000
G1 Y8.5 Z0.007333
G1 Y8.6 Z0.010000
G1 Y15.1 Z0.010000
G1 Y15.2 Z0.007020
G1 Y15.3 Z0.000000
G1 Y23.2 Z0.000000
G1 Y23.3 Z0.003686
G1 Y23.4 Z0.010000
G1 Y34.5 Z0.010000
G1 Y34.6 Z0.009373
G1 Y34.7 Z0.000235
G1 Y34.8 Z0.000000
G1 Y37.3 Z0 
(line259)
G1 X25.9 Y37.5 Z0 
G1 Y35.0 Z0.000000
G1 Y34.9 Z0.001608
G1 Y34.8 Z0.010000
G1 Y23.2 Z0.009961
G1 Y23.1 Z0.006706
G1 Y23.0 Z0.000000
G1 Y15.0 Z0.004039
G1 Y14.9 Z0.009216
G1 Y14.8 Z0.010000
G1 Y8.5 Z0.007333
G1 Y8.4 Z0.000000
G1 Y5.9 Z0 
(line260)
G1 X26.0 Y5.9 Z0 
G1 Y8.4 Z0.000000
G1 Y8.5 Z0.007333
G1 Y8.6 Z0.010000
G1 Y14.7 Z0.010000
G1 Y14.8 Z0.009765
G1 Y14.9 Z0.000588
G1 Y15.0 Z0.000000
G1 Y22.8 Z0.000000
G1 Y22.9 Z0.000471
G1 Y23.0 Z0.005294
G1 Y23.1 Z0.010000
G1 Y34.8 Z0.010000
G1 Y34.9 Z0.009843
G1 Y35.0 Z0.005922
G1 Y35.1 Z0.000000
G1 Y37.6 Z0 
(line261)
G1 X26.1 Y37.8 Z0 
G1 Y35.3 Z0.000000
G1 Y35.2 Z0.003059
G1 Y35.1 Z0.010000
G1 Y22.8 Z0.008196
G1 Y22.7 Z0.000000
G1 Y14.7 Z0.002667
G1 Y14.6 Z0.008118
G1 Y14.5 Z0.010000
G1 Y8.5 Z0.007333
G1 Y8.4 Z0.000000
G1 Y5.9 Z0 
(line262)
G1 X26.2 Y5.9 Z0 
G1 Y8.4 Z0.000000
G1 Y8.5 Z0.007333
G1 Y8.6 Z0.010000
G1 Y14.3 Z0.010000
G1 Y14.4 Z0.005255
G1 Y14.5 Z0.000549
G1 Y14.6 Z0.000000
G1 Y22.4 Z0.000000
G1 Y22.5 Z0.000667
G1 Y22.6 Z0.009765
G1 Y22.7 Z0.010000
G1 Y35.3 Z0.010000
G1 Y35.4 Z0.005804
G1 Y35.5 Z0.000667
G1 Y35.6 Z0.000000
G1 Y38.1 Z0 
(line263)
G1 X26.3 Y38.2 Z0 
G1 Y35.7 Z0.000000
G1 Y35.6 Z0.000118
G1 Y35.5 Z0.009255
G1 Y35.4 Z0.010000
G1 Y22.5 Z0.009255
G1 Y22.4 Z0.004353
G1 Y22.3 Z0.000000
G1 Y14.3 Z0.006627
G1 Y14.2 Z0.010000
G1 Y8.5 Z0.007333
G1 Y8.4 Z0.000000
G1 Y5.9 Z0 
(line264)
G1 X26.4 Y5.9 Z0 
G1 Y8.4 Z0.000000
G1 Y8.5 Z0.007333
G1 Y8.6 Z0.010000
G1 Y14.0 Z0.010000
G1 Y14.1 Z0.003686
G1 Y14.2 Z0.000118
G1 Y14.3 Z0.000000
G1 Y22.1 Z0.000000
G1 Y22.2 Z0.001608
G1 Y22.3 Z0.010000
G1 Y35.6 Z0.010000
G1 Y35.7 Z0.007137
G1 Y35.8 Z0.001608
G1 Y35.9 Z0.000000
G1 Y38.4 Z0 
(line265)
G1 X26.5 Y38.5 Z0 
G1 Y36.0 Z0.000000
G1 Y35.9 Z0.000667
G1 Y35.8 Z0.009765
G1 Y35.7 Z0.010000
G1 Y22.2 Z0.009843
G1 Y22.1 Z0.006000
G1 Y22.0 Z0.000000
G1 Y14.0 Z0.004980
G1 Y13.9 Z0.009647
G1 Y13.8 Z0.010000
G1 Y8.5 Z0.007333
G1 Y8.4 Z0.000000
G1 Y5.9 Z0 
(line266)
G1 X26.6 Y5.9 Z0 
G1 Y8.4 Z0.000000
G1 Y8.5 Z0.007333
G1 Y8.6 Z0.010000
G1 Y13.7 Z0.010000
G1 Y13.8 Z0.002314
G1 Y13.9 Z0.000000
G1 Y21.8 Z0.000000
G1 Y21.9 Z0.008588
G1 Y22.0 Z0.010000
G1 Y36.0 Z0.010000
G1 Y36.1 Z0.002667
G1 Y36.2 Z0.000000
G1 Y38.7 Z0 
(line267)
G1 X26.7 Y38.9 Z0 
G1 Y36.4 Z0.000000
G1 Y36.3 Z0.005608
G1 Y36.2 Z0.009765
G1 Y36.1 Z0.010000
G1 Y21.7 Z0.006314
G1 Y21.6 Z0.001059
G1 Y21.5 Z0.000000
G1 Y13.6 Z0.000353
G1 Y13.5 Z0.009529
G1 Y13.4 Z0.010000
G1 Y8.5 Z0.007333
G1 Y8.4 Z0.000000
G1 Y5.9 Z0 
(line268)
G1 X26.8 Y5.9 Z0 
G1 Y8.4 Z0.000000
G1 Y8.5 Z0.007333
G1 Y8.6 Z0.010000
G1 Y13.3 Z0.010000
G1 Y13.4 Z0.006196
G1 Y13.5 Z0.000980
G1 Y13.6 Z0.000000
G1 Y21.4 Z0.000000
G1 Y21.5 Z0.000353
G1 Y21.6 Z0.009569
G1 Y21.7 Z0.010000
G1 Y36.3 Z0.010000
G1 Y36.4 Z0.004196
G1 Y36.5 Z0.000118
G1 Y36.6 Z0.000000
G1 Y39.1 Z0 
(line269)
G1 X26.9 Y39.2 Z0 
G1 Y36.7 Z0.000000
G1 Y36.6 Z0.007020
G1 Y36.5 Z0.010000
G1 Y21.3 Z0.002235
G1 Y21.2 Z0.000000
G1 Y13.3 Z0.000039
G1 Y13.2 Z0.008706
G1 Y13.1 Z0.010000
G1 Y8.5 Z0.007333
G1 Y8.4 Z0.000000
G1 Y5.9 Z0 
(line270)
G1 X27.0 Y5.9 Z0 
G1 Y8.4 Z0.000000
G1 Y8.5 Z0.007333
G1 Y8.6 Z0.010000
G1 Y13.0 Z0.010000
G1 Y13.1 Z0.004627
G1 Y13.2 Z0.000275
G1 Y13.3 Z0.000000
G1 Y21.1 Z0.000000
G1 Y21.2 Z0.001216
G1 Y21.3 Z0.009961
G1 Y21.4 Z0.010000
G1 Y36.6 Z0.010000
G1 Y36.7 Z0.005569
G1 Y36.8 Z0.000588
G1 Y36.9 Z0.000000
G1 Y39.4 Z0 
(line271)
G1 X27.1 Y39.6 Z0 
G1 Y37.1 Z0.000000
G1 Y37.0 Z0.002549
G1 Y36.9 Z0.008196
G1 Y36.8 Z0.010000
G1 Y21.0 Z0.004000
G1 Y20.9 Z0.000118
G1 Y20.8 Z0.000000
G1 Y12.9 Z0.002000
G1 Y12.8 Z0.010000
G1 Y8.5 Z0.007333
G1 Y8.4 Z0.000000
G1 Y5.9 Z0 
(line272)
G1 X27.2 Y5.9 Z0 
G1 Y8.4 Z0.000000
G1 Y8.5 Z0.007333
G1 Y8.6 Z0.010000
G1 Y12.5 Z0.010000
G1 Y12.6 Z0.009373
G1 Y12.7 Z0.004431
G1 Y12.8 Z0.000000
G1 Y20.7 Z0.000000
G1 Y20.8 Z0.007020
G1 Y20.9 Z0.010000
G1 Y37.0 Z0.010000
G1 Y37.1 Z0.009765
G1 Y37.2 Z0.000471
G1 Y37.3 Z0.000000
G1 Y39.8 Z0 
(line273)
G1 X27.3 Y39.9 Z0 
G1 Y37.4 Z0.000000
G1 Y37.3 Z0.004000
G1 Y37.2 Z0.009020
G1 Y37.1 Z0.010000
G1 Y29.1 Z0.009765
G1 Y29.0 Z0.005176
G1 Y28.9 Z0.009686
G1 Y28.8 Z0.010000
G1 Y20.7 Z0.005608
G1 Y20.6 Z0.000667
G1 Y20.5 Z0.000000
G1 Y12.6 Z0.000745
G1 Y12.5 Z0.009882
G1 Y12.4 Z0.010000
G1 Y8.5 Z0.007333
G1 Y8.4 Z0.000000
G1 Y5.9 Z0 
(line274)
G1 X27.4 Y5.9 Z0 
G1 Y8.4 Z0.000000
G1 Y8.5 Z0.007333
G1 Y8.6 Z0.010000
G1 Y12.2 Z0.010000
G1 Y12.3 Z0.008431
G1 Y12.4 Z0.000000
G1 Y20.3 Z0.000000
G1 Y20.4 Z0.002980
G1 Y20.5 Z0.008314
G1 Y20.6 Z0.010000
G1 Y28.7 Z0.010000
G1 Y28.8 Z0.002353
G1 Y28.9 Z0.000000
G1 Y29.2 Z0.000000
G1 Y29.3 Z0.008078
G1 Y29.4 Z0.010000
G1 Y37.4 Z0.010000
G1 Y37.5 Z0.006824
G1 Y37.6 Z0.000000
G1 Y40.1 Z0 
(line275)
G1 X27.5 Y40.2 Z0 
G1 Y37.7 Z0.000000
G1 Y37.6 Z0.005373
G1 Y37.5 Z0.010000
G1 Y29.4 Z0.009059
G1 Y29.3 Z0.000118
G1 Y29.2 Z0.000000
G1 Y28.7 Z0.003608
G1 Y28.6 Z0.008941
G1 Y28.5 Z0.010000
G1 Y20.3 Z0.001608
G1 Y20.2 Z0.000000
G1 Y12.3 Z0.000157
G1 Y12.2 Z0.009333
G1 Y12.1 Z0.010000
G1 Y8.5 Z0.007333
G1 Y8.4 Z0.000000
G1 Y5.9 Z0 
(line276)
G1 X27.6 Y5.9 Z0 
G1 Y8.4 Z0.000000
G1 Y8.5 Z0.007333
G1 Y8.6 Z0.010000
G1 Y11.9 Z0.010000
G1 Y12.0 Z0.007020
G1 Y12.1 Z0.000000
G1 Y20.0 Z0.000000
G1 Y20.1 Z0.004667
G1 Y20.2 Z0.009373
G1 Y20.3 Z0.010000
G1 Y28.3 Z0.010000
G1 Y28.4 Z0.006314
G1 Y28.5 Z0.001176
G1 Y28.6 Z0.000000
G1 Y29.5 Z0.000000
G1 Y29.6 Z0.006431
G1 Y29.7 Z0.009961
G1 Y29.8 Z0.010000
G1 Y37.7 Z0.010000
G1 Y37.8 Z0.007961
G1 Y37.9 Z0.000000
G1 Y40.4 Z0 
(line277)
G1 X27.7 Y40.7 Z0 
G1 Y38.2 Z0.000000
G1 Y38.1 Z0.000431
G1 Y38.0 Z0.009686
G1 Y37.9 Z0.010000
G1 Y29.8 Z0.003490
G1 Y29.7 Z0.000000
G1 Y28.3 Z0.000039
G1 Y28.2 Z0.008902
G1 Y28.1 Z0.010000
G1 Y19.9 Z0.007569
G1 Y19.8 Z0.000000
G1 Y11.8 Z0.004039
G1 Y11.7 Z0.010000
G1 Y8.5 Z0.007333
G1 Y8.4 Z0.000000
G1 Y5.9 Z0 
(line278)
G1 X27.8 Y5.9 Z0 
G1 Y8.4 Z0.000000
G1 Y8.5 Z0.007333
G1 Y8.6 Z0.010000
G1 Y11.5 Z0.010000
G1 Y11.6 Z0.009765
G1 Y11.7 Z0.005373
G1 Y11.8 Z0.000000
G1 Y19.7 Z0.000000
G1 Y19.8 Z0.006314
G1 Y19.9 Z0.010000
G1 Y28.0 Z0.010000
G1 Y28.1 Z0.004824
G1 Y28.2 Z0.000353
G1 Y28.3 Z0.000000
G1 Y29.8 Z0.000000
G1 Y29.9 Z0.004824
G1 Y30.0 Z0.009529
G1 Y30.1 Z0.010000
G1 Y38.0 Z0.010000
G1 Y38.1 Z0.009020
G1 Y38.2 Z0.000118
G1 Y38.3 Z0.000000
G1 Y40.8 Z0 
(line279)
G1 X27.9 Y41.0 Z0 
G1 Y38.5 Z0.000000
G1 Y38.4 Z0.001098
G1 Y38.3 Z0.009961
G1 Y38.2 Z0.010000
G1 Y30.2 Z0.007647
G1 Y30.1 Z0.002000
G1 Y30.0 Z0.000000
G1 Y27.9 Z0.002000
G1 Y27.8 Z0.010000
G1 Y19.6 Z0.008824
G1 Y19.5 Z0.000039
G1 Y19.4 Z0.000000
G1 Y11.5 Z0.002471
G1 Y11.4 Z0.008118
G1 Y11.3 Z0.010000
G1 Y8.5 Z0.007333
G1 Y8.4 Z0.000000
G1 Y5.9 Z0 
(line280)
G1 X28.0 Y5.9 Z0 
G1 Y8.4 Z0.000000
G1 Y8.5 Z0.007333
G1 Y8.6 Z0.010000
G1 Y11.2 Z0.010000
G1 Y11.3 Z0.009059
G1 Y11.4 Z0.000118
G1 Y11.5 Z0.000000
G1 Y19.3 Z0.000000
G1 Y19.4 Z0.002235
G1 Y19.5 Z0.007882
G1 Y19.6 Z0.010000
G1 Y27.7 Z0.010000
G1 Y27.8 Z0.003176
G1 Y27.9 Z0.000000
G1 Y30.1 Z0.000000
G1 Y30.2 Z0.000039
G1 Y30.3 Z0.008706
G1 Y30.4 Z0.010000
G1 Y38.3 Z0.010000
G1 Y38.4 Z0.009569
G1 Y38.5 Z0.005176
G1 Y38.6 Z0.000000
G1 Y41.1 Z0 
(line281)
G1 X28.1 Y41.3 Z0 
G1 Y38.8 Z0.000000
G1 Y38.7 Z0.002235
G1 Y38.6 Z0.010000
G1 Y30.5 Z0.005922
G1 Y30.4 Z0.000902
G1 Y30.3 Z0.000000
G1 Y27.6 Z0.000902
G1 Y27.5 Z0.009882
G1 Y27.4 Z0.010000
G1 Y19.3 Z0.009686
G1 Y19.2 Z0.000471
G1 Y19.1 Z0.000000
G1 Y11.2 Z0.001216
G1 Y11.1 Z0.006549
G1 Y11.0 Z0.010000
G1 Y8.5 Z0.007333
G1 Y8.4 Z0.000000
G1 Y5.9 Z0 
(line282)
G1 X28.2 Y5.9 Z0 
G1 Y8.4 Z0.000000
G1 Y8.5 Z0.007333
G1 Y8.6 Z0.010000
G1 Y10.8 Z0.010000
G1 Y10.9 Z0.003608
G1 Y11.0 Z0.000118
G1 Y11.1 Z0.000000
G1 Y18.9 Z0.000000
G1 Y19.0 Z0.002549
G1 Y19.1 Z0.010000
G1 Y27.2 Z0.010000
G1 Y27.3 Z0.008627
G1 Y27.4 Z0.000000
G1 Y30.6 Z0.000000
G1 Y30.7 Z0.002980
G1 Y30.8 Z0.010000
G1 Y38.8 Z0.010000
G1 Y38.9 Z0.005059
G1 Y39.0 Z0.000353
G1 Y39.1 Z0.000000
G1 Y41.6 Z0 
(line283)
G1 X28.3 Y41.7 Z0 
G1 Y39.2 Z0.000000
G1 Y39.1 Z0.000039
G1 Y39.0 Z0.008824
G1 Y38.9 Z0.010000
G1 Y30.8 Z0.004314
G1 Y30.7 Z0.000000
G1 Y27.3 Z0.000235
G1 Y27.2 Z0.009333
G1 Y27.1 Z0.010000
G1 Y18.9 Z0.007020
G1 Y18.8 Z0.000000
G1 Y10.8 Z0.004941
G1 Y10.7 Z0.010000
G1 Y8.5 Z0.007333
G1 Y8.4 Z0.000000
G1 Y5.9 Z0 
(line284)
G1 X28.4 Y5.9 Z0 
G1 Y8.4 Z0.000000
G1 Y8.5 Z0.007333
G1 Y8.6 Z0.010000
G1 Y10.5 Z0.010000
G1 Y10.6 Z0.002118
G1 Y10.7 Z0.000000
G1 Y18.5 Z0.000000
G1 Y18.6 Z0.000118
G1 Y18.7 Z0.004314
G1 Y18.8 Z0.010000
G1 Y26.9 Z0.010000
G1 Y27.0 Z0.007137
G1 Y27.1 Z0.000000
G1 Y30.9 Z0.000000
G1 Y31.0 Z0.001686
G1 Y31.1 Z0.010000
G1 Y39.1 Z0.010000
G1 Y39.2 Z0.006431
G1 Y39.3 Z0.001059
G1 Y39.4 Z0.000000
G1 Y41.9 Z0 
(line285)
G1 X28.5 Y42.0 Z0 
G1 Y39.5 Z0.000000
G1 Y39.4 Z0.000353
G1 Y39.3 Z0.009569
G1 Y39.2 Z0.010000
G1 Y31.2 Z0.008392
G1 Y31.1 Z0.002784
G1 Y31.0 Z0.000000
G1 Y26.9 Z0.002784
G1 Y26.8 Z0.010000
G1 Y18.6 Z0.008314
G1 Y18.5 Z0.000000
G1 Y10.5 Z0.003373
G1 Y10.4 Z0.008902
G1 Y10.3 Z0.010000
G1 Y8.5 Z0.007333
G1 Y8.4 Z0.000000
G1 Y5.9 Z0 
(line286)
G1 X28.6 Y5.9 Z0 
G1 Y8.4 Z0.000000
G1 Y8.5 Z0.007333
G1 Y8.6 Z0.010000
G1 Y10.1 Z0.010000
G1 Y10.2 Z0.009882
G1 Y10.3 Z0.000902
G1 Y10.4 Z0.000000
G1 Y18.2 Z0.000000
G1 Y18.3 Z0.000784
G1 Y18.4 Z0.009843
G1 Y18.5 Z0.010000
G1 Y26.5 Z0.010000
G1 Y26.6 Z0.009765
G1 Y26.7 Z0.005490
G1 Y26.8 Z0.000000
G1 Y31.2 Z0.000000
G1 Y31.3 Z0.000588
G1 Y31.4 Z0.009765
G1 Y31.5 Z0.010000
G1 Y39.5 Z0.010000
G1 Y39.6 Z0.002000
G1 Y39.7 Z0.000000
G1 Y42.2 Z0 
(line287)
G1 X28.7 Y42.4 Z0 
G1 Y39.9 Z0.000000
G1 Y39.8 Z0.004941
G1 Y39.7 Z0.009569
G1 Y39.6 Z0.010000
G1 Y31.6 Z0.008118
G1 Y31.5 Z0.000000
G1 Y26.5 Z0.002667
G1 Y26.4 Z0.008314
G1 Y26.3 Z0.010000
G1 Y18.2 Z0.008588
G1 Y18.1 Z0.003294
G1 Y18.0 Z0.000000
G1 Y10.0 Z0.008706
G1 Y9.9 Z0.010000
G1 Y8.5 Z0.007333
G1 Y8.4 Z0.000000
G1 Y5.9 Z0 
(line288)
G1 X28.8 Y5.9 Z0 
G1 Y8.4 Z0.000000
G1 Y8.5 Z0.007333
G1 Y8.6 Z0.010000
G1 Y9.8 Z0.010000
G1 Y9.9 Z0.004549
G1 Y10.0 Z0.000235
G1 Y10.1 Z0.000000
G1 Y17.9 Z0.000000
G1 Y18.0 Z0.001922
G1 Y18.1 Z0.010000
G1 Y26.2 Z0.010000
G1 Y26.3 Z0.009137
G1 Y26.4 Z0.000118
G1 Y26.5 Z0.000000
G1 Y31.5 Z0.000000
G1 Y31.6 Z0.000118
G1 Y31.7 Z0.009059
G1 Y31.8 Z0.010000
G1 Y39.8 Z0.010000
G1 Y39.9 Z0.003412
G1 Y40.0 Z0.000000
G1 Y42.5 Z0 
(line289)
G1 X28.9 Y42.7 Z0 
G1 Y40.2 Z0.000000
G1 Y40.1 Z0.006235
G1 Y40.0 Z0.010000
G1 Y32.0 Z0.009961
G1 Y31.9 Z0.006510
G1 Y31.8 Z0.000000
G1 Y26.2 Z0.001412
G1 Y26.1 Z0.006706
G1 Y26.0 Z0.010000
G1 Y17.8 Z0.004941
G1 Y17.7 Z0.000000
G1 Y9.7 Z0.007373
G1 Y9.6 Z0.010000
G1 Y8.5 Z0.007333
G1 Y8.4 Z0.000000
G1 Y5.9 Z0 
(line290)
G1 X29.0 Y5.9 Z0 
G1 Y8.4 Z0.000000
G1 Y8.5 Z0.007333
G1 Y8.6 Z0.010000
G1 Y9.5 Z0.010000
G1 Y9.6 Z0.002980
G1 Y9.7 Z0.000000
G1 Y17.5 Z0.000000
G1 Y17.6 Z0.000039
G1 Y17.7 Z0.003608
G1 Y17.8 Z0.010000
G1 Y25.9 Z0.010000
G1 Y26.0 Z0.008078
G1 Y26.1 Z0.000000
G1 Y31.9 Z0.000000
G1 Y32.0 Z0.002314
G1 Y32.1 Z0.010000
G1 Y40.1 Z0.010000
G1 Y40.2 Z0.004824
G1 Y40.3 Z0.000275
G1 Y40.4 Z0.000000
G1 Y42.9 Z0 
(line291)
G1 X29.1 Y43.1 Z0 
G1 Y40.6 Z0.000000
G1 Y40.5 Z0.001922
G1 Y40.4 Z0.007569
G1 Y40.3 Z0.010000
G1 Y32.3 Z0.009569
G1 Y32.2 Z0.004941
G1 Y32.1 Z0.000000
G1 Y25.8 Z0.005059
G1 Y25.7 Z0.010000
G1 Y17.5 Z0.006627
G1 Y17.4 Z0.001098
G1 Y17.3 Z0.000000
G1 Y9.4 Z0.000745
G1 Y9.3 Z0.009843
G1 Y9.2 Z0.010000
G1 Y8.5 Z0.007333
G1 Y8.4 Z0.000000
G1 Y5.9 Z0 
(line292)
G1 X29.2 Y5.9 Z0 
G1 Y8.4 Z0.000000
G1 Y8.5 Z0.007333
G1 Y8.6 Z0.010000
G1 Y9.0 Z0.010000
G1 Y9.1 Z0.008392
G1 Y9.2 Z0.002784
G1 Y9.3 Z0.000000
G1 Y17.1 Z0.000000
G1 Y17.2 Z0.000118
G1 Y17.3 Z0.009020
G1 Y17.4 Z0.010000
G1 Y25.5 Z0.010000
G1 Y25.6 Z0.002314
G1 Y25.7 Z0.000000
G1 Y32.3 Z0.000000
G1 Y32.4 Z0.002039
G1 Y32.5 Z0.007686
G1 Y32.6 Z0.010000
G1 Y40.5 Z0.010000
G1 Y40.6 Z0.009451
G1 Y40.7 Z0.000235
G1 Y40.8 Z0.000000
G1 Y43.3 Z0 
(line293)
G1 X29.3 Y43.4 Z0 
G1 Y40.9 Z0.000000
G1 Y40.8 Z0.003255
G1 Y40.7 Z0.008510
G1 Y40.6 Z0.010000
G1 Y32.6 Z0.008706
G1 Y32.5 Z0.000039
G1 Y32.4 Z0.000000
G1 Y25.5 Z0.003569
G1 Y25.4 Z0.008941
G1 Y25.3 Z0.010000
G1 Y17.2 Z0.008000
G1 Y17.1 Z0.002549
G1 Y17.0 Z0.000000
G1 Y9.1 Z0.000118
G1 Y9.0 Z0.009255
G1 Y8.9 Z0.010000
G1 Y8.5 Z0.007333
G1 Y8.4 Z0.000000
G1 Y5.9 Z0 
(line294)
G1 X29.4 Y5.9 Z0 
G1 Y8.4 Z0.000000
G1 Y8.5 Z0.007333
G1 Y8.6 Z0.010000
G1 Y8.7 Z0.010000
G1 Y8.8 Z0.006863
G1 Y8.9 Z0.000000
G1 Y16.8 Z0.000000
G1 Y16.9 Z0.005569
G1 Y17.0 Z0.009765
G1 Y17.1 Z0.010000
G1 Y25.1 Z0.010000
G1 Y25.2 Z0.009961
G1 Y25.3 Z0.001098
G1 Y25.4 Z0.000000
G1 Y32.6 Z0.000000
G1 Y32.7 Z0.000902
G1 Y32.8 Z0.006000
G1 Y32.9 Z0.010000
G1 Y40.8 Z0.010000
G1 Y40.9 Z0.009882
G1 Y41.0 Z0.006000
G1 Y41.1 Z0.000000
G1 Y43.6 Z0 
(line295)
G1 X29.5 Y43.7 Z0 
G1 Y41.2 Z0.000000
G1 Y41.1 Z0.004627
G1 Y41.0 Z0.010000
G1 Y32.9 Z0.007451
G1 Y32.8 Z0.000000
G1 Y25.2 Z0.002039
G1 Y25.1 Z0.007765
G1 Y25.0 Z0.010000
G1 Y16.8 Z0.004235
G1 Y16.7 Z0.000000
G1 Y8.7 Z0.008118
G1 Y8.6 Z0.010000
G1 Y8.5 Z0.007333
G1 Y8.4 Z0.000000
G1 Y5.9 Z0 
(line296)
G1 X29.6 Y5.9 Z0 
G1 Y8.4 Z0.000000
G1 Y8.5 Z0.003294
G1 Y8.6 Z0.000000
G1 Y16.5 Z0.000000
G1 Y16.6 Z0.007176
G1 Y16.7 Z0.010000
G1 Y24.8 Z0.010000
G1 Y24.9 Z0.004667
G1 Y25.0 Z0.000275
G1 Y25.1 Z0.000000
G1 Y33.0 Z0.000000
G1 Y33.1 Z0.004353
G1 Y33.2 Z0.010000
G1 Y41.2 Z0.010000
G1 Y41.3 Z0.007333
G1 Y41.4 Z0.000000
G1 Y43.9 Z0 
(line297)
G1 X29.7 Y43.9 Z0 
G1 Y41.4 Z0.000000
G1 Y41.3 Z0.005255
G1 Y41.2 Z0.009765
G1 Y41.1 Z0.010000
G1 Y33.0 Z0.005882
G1 Y32.9 Z0.000784
G1 Y32.8 Z0.000000
G1 Y24.7 Z0.007490
G1 Y24.6 Z0.010000
G1 Y16.4 Z0.009373
G1 Y16.3 Z0.000235
G1 Y16.2 Z0.000000
G1 Y13.7 Z0 
(line298)
G1 X29.8 Y13.7 Z0 
G1 Y16.2 Z0.000000
G1 Y16.3 Z0.008510
G1 Y16.4 Z0.010000
G1 Y24.5 Z0.010000
G1 Y24.6 Z0.003098
G1 Y24.7 Z0.000000
G1 Y32.7 Z0.000000
G1 Y32.8 Z0.000235
G1 Y32.9 Z0.009373
G1 Y33.0 Z0.010000
G1 Y41.1 Z0.010000
G1 Y41.2 Z0.001373
G1 Y41.3 Z0.000000
G1 Y43.8 Z0 
(line299)
G1 X29.9 Y43.6 Z0 
G1 Y41.1 Z0.000000
G1 Y41.0 Z0.003686
G1 Y40.9 Z0.008941
G1 Y40.8 Z0.010000
G1 Y32.6 Z0.001804
G1 Y32.5 Z0.000000
G1 Y24.4 Z0.000902
G1 Y24.3 Z0.009882
G1 Y24.2 Z0.010000
G1 Y16.1 Z0.009882
G1 Y16.0 Z0.000980
G1 Y15.9 Z0.000000
G1 Y13.4 Z0 
(line300)
G1 X30.0 Y13.3 Z0 
G1 Y15.8 Z0.000000
G1 Y15.9 Z0.004941
G1 Y16.0 Z0.009569
G1 Y16.1 Z0.010000
G1 Y24.2 Z0.010000
G1 Y24.3 Z0.001725
G1 Y24.4 Z0.000000
G1 Y32.4 Z0.000000
G1 Y32.5 Z0.000863
G1 Y32.6 Z0.009882
G1 Y32.7 Z0.010000
G1 Y40.7 Z0.010000
G1 Y40.8 Z0.009647
G1 Y40.9 Z0.000431
G1 Y41.0 Z0.000000
G1 Y43.5 Z0 
(line301)
G1 X30.1 Y43.2 Z0 
G1 Y40.7 Z0.000000
G1 Y40.6 Z0.007804
G1 Y40.5 Z0.010000
G1 Y32.3 Z0.003255
G1 Y32.2 Z0.000000
G1 Y24.1 Z0.000157
G1 Y24.0 Z0.009333
G1 Y23.9 Z0.010000
G1 Y15.7 Z0.002235
G1 Y15.6 Z0.000000
G1 Y13.1 Z0 
(line302)
G1 X30.2 Y12.8 Z0 
G1 Y15.3 Z0.000000
G1 Y15.4 Z0.000431
G1 Y15.5 Z0.005255
G1 Y15.6 Z0.010000
G1 Y23.7 Z0.010000
G1 Y23.8 Z0.007020
G1 Y23.9 Z0.000000
G1 Y32.0 Z0.000000
G1 Y32.1 Z0.006118
G1 Y32.2 Z0.010000
G1 Y40.3 Z0.010000
G1 Y40.4 Z0.004824
G1 Y40.5 Z0.000353
G1 Y40.6 Z0.000000
G1 Y43.1 Z0 
(line303)
G1 X30.3 Y42.9 Z0 
G1 Y40.4 Z0.000000
G1 Y40.3 Z0.006118
G1 Y40.2 Z0.009882
G1 Y40.1 Z0.010000
G1 Y32.0 Z0.004745
G1 Y31.9 Z0.000235
G1 Y31.8 Z0.000000
G1 Y23.7 Z0.008392
G1 Y23.6 Z0.010000
G1 Y15.4 Z0.009020
G1 Y15.3 Z0.000118
G1 Y15.2 Z0.000000
G1 Y12.7 Z0 
(line304)
G1 X30.4 Y12.5 Z0 
G1 Y15.0 Z0.000000
G1 Y15.1 Z0.001373
G1 Y15.2 Z0.006941
G1 Y15.3 Z0.010000
G1 Y23.3 Z0.010000
G1 Y23.4 Z0.009765
G1 Y23.5 Z0.005451
G1 Y23.6 Z0.000000
G1 Y31.6 Z0.000000
G1 Y31.7 Z0.001922
G1 Y31.8 Z0.007569
G1 Y31.9 Z0.010000
G1 Y40.0 Z0.010000
G1 Y40.1 Z0.003176
G1 Y40.2 Z0.000000
G1 Y42.7 Z0 
(line305)
G1 X30.5 Y42.6 Z0 
G1 Y40.1 Z0.000000
G1 Y40.0 Z0.004549
G1 Y39.9 Z0.009529
G1 Y39.8 Z0.010000
G1 Y31.7 Z0.009882
G1 Y31.6 Z0.000902
G1 Y31.5 Z0.000000
G1 Y23.4 Z0.001412
G1 Y23.3 Z0.010000
G1 Y15.1 Z0.009765
G1 Y15.0 Z0.000667
G1 Y14.9 Z0.000000
G1 Y12.4 Z0 
(line306)
G1 X30.6 Y12.2 Z0 
G1 Y14.7 Z0.000000
G1 Y14.8 Z0.002863
G1 Y14.9 Z0.010000
G1 Y23.0 Z0.010000
G1 Y23.1 Z0.009137
G1 Y23.2 Z0.003882
G1 Y23.3 Z0.000000
G1 Y31.3 Z0.000000
G1 Y31.4 Z0.003490
G1 Y31.5 Z0.008745
G1 Y31.6 Z0.010000
G1 Y39.6 Z0.010000
G1 Y39.7 Z0.007373
G1 Y39.8 Z0.001804
G1 Y39.9 Z0.000000
G1 Y42.4 Z0 
(line307)
G1 X30.7 Y42.2 Z0 
G1 Y39.7 Z0.000000
G1 Y39.6 Z0.000235
G1 Y39.5 Z0.009333
G1 Y39.4 Z0.010000
G1 Y31.3 Z0.009882
G1 Y31.2 Z0.001059
G1 Y31.1 Z0.000000
G1 Y23.0 Z0.001373
G1 Y22.9 Z0.006627
G1 Y22.8 Z0.010000
G1 Y14.7 Z0.009843
G1 Y14.6 Z0.005922
G1 Y14.5 Z0.000000
G1 Y12.0 Z0 
(line308)
G1 X30.8 Y11.8 Z0 
G1 Y14.3 Z0.000000
G1 Y14.4 Z0.000235
G1 Y14.5 Z0.004549
G1 Y14.6 Z0.010000
G1 Y22.7 Z0.010000
G1 Y22.8 Z0.008078
G1 Y22.9 Z0.000000
G1 Y31.0 Z0.000000
G1 Y31.1 Z0.004980
G1 Y31.2 Z0.009569
G1 Y31.3 Z0.010000
G1 Y39.3 Z0.010000
G1 Y39.4 Z0.005765
G1 Y39.5 Z0.000745
G1 Y39.6 Z0.000000
G1 Y42.1 Z0 
(line309)
G1 X30.9 Y41.8 Z0 
G1 Y39.3 Z0.000000
G1 Y39.2 Z0.002784
G1 Y39.1 Z0.010000
G1 Y30.9 Z0.007647
G1 Y30.8 Z0.000000
G1 Y22.7 Z0.000431
G1 Y22.6 Z0.004980
G1 Y22.5 Z0.010000
G1 Y14.3 Z0.007569
G1 Y14.2 Z0.000000
G1 Y11.7 Z0 
(line310)
G1 X31.0 Y11.5 Z0 
G1 Y14.0 Z0.000000
G1 Y14.1 Z0.000902
G1 Y14.2 Z0.006235
G1 Y14.3 Z0.010000
G1 Y22.3 Z0.010000
G1 Y22.4 Z0.009961
G1 Y22.5 Z0.006392
G1 Y22.6 Z0.000000
G1 Y30.7 Z0.000000
G1 Y30.8 Z0.006510
G1 Y30.9 Z0.010000
G1 Y39.0 Z0.010000
G1 Y39.1 Z0.004118
G1 Y39.2 Z0.000000
G1 Y41.7 Z0 
(line311)
G1 X31.1 Y41.5 Z0 
G1 Y39.0 Z0.000000
G1 Y38.9 Z0.001490
G1 Y38.8 Z0.010000
G1 Y30.6 Z0.008902
G1 Y30.5 Z0.000118
G1 Y30.4 Z0.000000
G1 Y22.3 Z0.003412
G1 Y22.2 Z0.010000
G1 Y14.0 Z0.008745
G1 Y13.9 Z0.003569
G1 Y13.8 Z0.000000
G1 Y11.3 Z0 
(line312)
G1 X31.2 Y11.1 Z0 
G1 Y13.6 Z0.000000
G1 Y13.7 Z0.001098
G1 Y13.8 Z0.009961
G1 Y13.9 Z0.010000
G1 Y21.9 Z0.010000
G1 Y22.0 Z0.009882
G1 Y22.1 Z0.000980
G1 Y22.2 Z0.000000
G1 Y30.2 Z0.000000
G1 Y30.3 Z0.001098
G1 Y30.4 Z0.009961
G1 Y30.5 Z0.010000
G1 Y38.5 Z0.010000
G1 Y38.6 Z0.009137
G1 Y38.7 Z0.000118
G1 Y38.8 Z0.000000
G1 Y41.3 Z0 
(line313)
G1 X31.3 Y41.2 Z0 
G1 Y38.7 Z0.000000
G1 Y38.6 Z0.000588
G1 Y38.5 Z0.009765
G1 Y38.4 Z0.010000
G1 Y30.3 Z0.009569
G1 Y30.2 Z0.000431
G1 Y30.1 Z0.000000
G1 Y22.0 Z0.002000
G1 Y21.9 Z0.007686
G1 Y21.8 Z0.010000
G1 Y13.7 Z0.009569
G1 Y13.6 Z0.005255
G1 Y13.5 Z0.000000
G1 Y11.0 Z0 
(line314)
G1 X31.4 Y10.8 Z0 
G1 Y13.3 Z0.000000
G1 Y13.4 Z0.008000
G1 Y13.5 Z0.010000
G1 Y21.6 Z0.010000
G1 Y21.7 Z0.009529
G1 Y21.8 Z0.000275
G1 Y21.9 Z0.000000
G1 Y29.9 Z0.000000
G1 Y30.0 Z0.002314
G1 Y30.1 Z0.010000
G1 Y38.2 Z0.010000
G1 Y38.3 Z0.008078
G1 Y38.4 Z0.000000
G1 Y40.9 Z0 
(line315)
G1 X31.5 Y40.9 Z0 
G1 Y38.4 Z0.000000
G1 Y38.3 Z0.000118
G1 Y38.2 Z0.003686
G1 Y38.1 Z0.010000
G1 Y30.0 Z0.009961
G1 Y29.9 Z0.006745
G1 Y29.8 Z0.000000
G1 Y21.7 Z0.000902
G1 Y21.6 Z0.006000
G1 Y21.5 Z0.010000
G1 Y13.3 Z0.006863
G1 Y13.2 Z0.000000
G1 Y10.7 Z0 
(line316)
G1 X31.6 Y10.4 Z0 
G1 Y12.9 Z0.000000
G1 Y13.0 Z0.000118
G1 Y13.1 Z0.009216
G1 Y13.2 Z0.010000
G1 Y21.3 Z0.010000
G1 Y21.4 Z0.003059
G1 Y21.5 Z0.000000
G1 Y29.5 Z0.000000
G1 Y29.6 Z0.000118
G1 Y29.7 Z0.004000
G1 Y29.8 Z0.010000
G1 Y37.8 Z0.010000
G1 Y37.9 Z0.009961
G1 Y38.0 Z0.006431
G1 Y38.1 Z0.000000
G1 Y40.6 Z0 
(line317)
G1 X31.7 Y40.4 Z0 
G1 Y37.9 Z0.000000
G1 Y37.8 Z0.003490
G1 Y37.7 Z0.008902
G1 Y37.6 Z0.010000
G1 Y29.5 Z0.006824
G1 Y29.4 Z0.001294
G1 Y29.3 Z0.000000
G1 Y21.2 Z0.005765
G1 Y21.1 Z0.009882
G1 Y21.0 Z0.010000
G1 Y12.8 Z0.001608
G1 Y12.7 Z0.000000
G1 Y10.2 Z0 
(line318)
G1 X31.8 Y10.1 Z0 
G1 Y12.6 Z0.000000
G1 Y12.7 Z0.000784
G1 Y12.8 Z0.009843
G1 Y12.9 Z0.010000
G1 Y21.0 Z0.010000
G1 Y21.1 Z0.001725
G1 Y21.2 Z0.000000
G1 Y29.2 Z0.000000
G1 Y29.3 Z0.000471
G1 Y29.4 Z0.009765
G1 Y29.5 Z0.010000
G1 Y37.5 Z0.010000
G1 Y37.6 Z0.009529
G1 Y37.7 Z0.000353
G1 Y37.8 Z0.000000
G1 Y40.3 Z0 
(line319)
G1 X31.9 Y40.1 Z0 
G1 Y37.6 Z0.000000
G1 Y37.5 Z0.002000
G1 Y37.4 Z0.007686
G1 Y37.3 Z0.010000
G1 Y29.2 Z0.008196
G1 Y29.1 Z0.002549
G1 Y29.0 Z0.000000
G1 Y20.9 Z0.000157
G1 Y20.8 Z0.009255
G1 Y20.7 Z0.010000
G1 Y12.5 Z0.003176
G1 Y12.4 Z0.000000
G1 Y9.9 Z0 
(line320)
G1 X32.0 Y9.8 Z0 
G1 Y12.3 Z0.000000
G1 Y12.4 Z0.007373
G1 Y12.5 Z0.010000
G1 Y20.6 Z0.010000
G1 Y20.7 Z0.009765
G1 Y20.8 Z0.000745
G1 Y20.9 Z0.000000
G1 Y28.9 Z0.000000
G1 Y29.0 Z0.001373
G1 Y29.1 Z0.010000
G1 Y37.2 Z0.010000
G1 Y37.3 Z0.008706
G1 Y37.4 Z0.000039
G1 Y37.5 Z0.000000
G1 Y40.0 Z0 
(line321)
G1 X32.1 Y39.7 Z0 
G1 Y37.2 Z0.000000
G1 Y37.1 Z0.006000
G1 Y37.0 Z0.010000
G1 Y28.8 Z0.004196
G1 Y28.7 Z0.000000
G1 Y20.5 Z0.008392
G1 Y20.4 Z0.010000
G1 Y12.2 Z0.004941
G1 Y12.1 Z0.000353
G1 Y12.0 Z0.000000
G1 Y9.5 Z0 
(line322)
G1 X32.2 Y9.3 Z0 
G1 Y11.8 Z0.000000
G1 Y11.9 Z0.002157
G1 Y12.0 Z0.007882
G1 Y12.1 Z0.010000
G1 Y20.2 Z0.010000
G1 Y20.3 Z0.005373
G1 Y20.4 Z0.000000
G1 Y28.5 Z0.000000
G1 Y28.6 Z0.007059
G1 Y28.7 Z0.010000
G1 Y36.8 Z0.010000
G1 Y36.9 Z0.002980
G1 Y37.0 Z0.000000
G1 Y39.5 Z0 
(line323)
G1 X32.3 Y39.4 Z0 
G1 Y36.9 Z0.000000
G1 Y36.8 Z0.004353
G1 Y36.7 Z0.009333
G1 Y36.6 Z0.010000
G1 Y28.5 Z0.005765
G1 Y28.4 Z0.000667
G1 Y28.3 Z0.000000
G1 Y20.2 Z0.006745
G1 Y20.1 Z0.010000
G1 Y11.9 Z0.009961
G1 Y11.8 Z0.001098
G1 Y11.7 Z0.000000
G1 Y9.2 Z0 
(line324)
G1 X32.4 Y9.0 Z0 
G1 Y11.5 Z0.000000
G1 Y11.6 Z0.003882
G1 Y11.7 Z0.009020
G1 Y11.8 Z0.010000
G1 Y19.8 Z0.010000
G1 Y19.9 Z0.009059
G1 Y20.0 Z0.003804
G1 Y20.1 Z0.000000
G1 Y28.2 Z0.000000
G1 Y28.3 Z0.008314
G1 Y28.4 Z0.010000
G1 Y36.5 Z0.010000
G1 Y36.6 Z0.001725
G1 Y36.7 Z0.000000
G1 Y39.2 Z0 
(line325)
G1 X32.5 Y39.1 Z0 
G1 Y36.6 Z0.000000
G1 Y36.5 Z0.002784
G1 Y36.4 Z0.008392
G1 Y36.3 Z0.010000
G1 Y28.2 Z0.007137
G1 Y28.1 Z0.001608
G1 Y28.0 Z0.000000
G1 Y19.9 Z0.000549
G1 Y19.8 Z0.009686
G1 Y19.7 Z0.010000
G1 Y11.5 Z0.002471
G1 Y11.4 Z0.000000
G1 Y8.9 Z0 
(line326)
G1 X32.6 Y8.7 Z0 
G1 Y11.2 Z0.000000
G1 Y11.3 Z0.005569
G1 Y11.4 Z0.010000
G1 Y19.5 Z0.010000
G1 Y19.6 Z0.008000
G1 Y19.7 Z0.002314
G1 Y19.8 Z0.000000
G1 Y27.8 Z0.000000
G1 Y27.9 Z0.004431
G1 Y28.0 Z0.009255
G1 Y28.1 Z0.010000
G1 Y36.1 Z0.010000
G1 Y36.2 Z0.005490
G1 Y36.3 Z0.000667
G1 Y36.4 Z0.000000
G1 Y38.9 Z0 
(line327)
G1 X32.7 Y38.6 Z0 
G1 Y36.1 Z0.000000
G1 Y36.0 Z0.008118
G1 Y35.9 Z0.010000
G1 Y27.7 Z0.001608
G1 Y27.6 Z0.000000
G1 Y19.5 Z0.000431
G1 Y19.4 Z0.004941
G1 Y19.3 Z0.010000
G1 Y11.1 Z0.008275
G1 Y11.0 Z0.000000
G1 Y8.5 Z0 
(line328)
G1 X32.8 Y8.3 Z0 
G1 Y10.8 Z0.000000
G1 Y10.9 Z0.001608
G1 Y11.0 Z0.007137
G1 Y11.1 Z0.010000
G1 Y19.2 Z0.010000
G1 Y19.3 Z0.006314
G1 Y19.4 Z0.000000
G1 Y27.5 Z0.000000
G1 Y27.6 Z0.005922
G1 Y27.7 Z0.009843
G1 Y27.8 Z0.010000
G1 Y35.8 Z0.010000
G1 Y35.9 Z0.003922
G1 Y36.0 Z0.000118
G1 Y36.1 Z0.000000
G1 Y38.6 Z0 
(line329)
G1 X32.9 Y38.3 Z0 
G1 Y35.8 Z0.000000
G1 Y35.7 Z0.001412
G1 Y35.6 Z0.010000
G1 Y27.4 Z0.008510
G1 Y27.3 Z0.000000
G1 Y19.2 Z0.000039
G1 Y19.1 Z0.003373
G1 Y19.0 Z0.010000
G1 Y10.8 Z0.009373
G1 Y10.7 Z0.000235
G1 Y10.6 Z0.000000
G1 Y8.1 Z0 
(line330)
G1 X33.0 Y8.0 Z0 
G1 Y10.5 Z0.000000
G1 Y10.6 Z0.003176
G1 Y10.7 Z0.008510
G1 Y10.8 Z0.010000
G1 Y18.8 Z0.010000
G1 Y18.9 Z0.009529
G1 Y19.0 Z0.004667
G1 Y19.1 Z0.000000
G1 Y27.2 Z0.000000
G1 Y27.3 Z0.007333
G1 Y27.4 Z0.010000
G1 Y35.5 Z0.010000
G1 Y35.6 Z0.002431
G1 Y35.7 Z0.000000
G1 Y38.2 Z0 
(line331)
G1 X33.1 Y38.0 Z0 
G1 Y35.5 Z0.000000
G1 Y35.4 Z0.000471
G1 Y35.3 Z0.009647
G1 Y35.2 Z0.010000
G1 Y27.1 Z0.009373
G1 Y27.0 Z0.000235
G1 Y26.9 Z0.000000
G1 Y18.8 Z0.002000
G1 Y18.7 Z0.010000
G1 Y10.5 Z0.009882
G1 Y10.4 Z0.006196
G1 Y10.3 Z0.000000
G1 Y7.8 Z0 
(line332)
G1 X33.2 Y7.5 Z0 
G1 Y10.0 Z0.000000
G1 Y10.1 Z0.000039
G1 Y10.2 Z0.003569
G1 Y10.3 Z0.010000
G1 Y18.4 Z0.010000
G1 Y18.5 Z0.009529
G1 Y18.6 Z0.000235
G1 Y18.7 Z0.000000
G1 Y26.7 Z0.000000
G1 Y26.8 Z0.001922
G1 Y26.9 Z0.010000
G1 Y35.0 Z0.010000
G1 Y35.1 Z0.007882
G1 Y35.2 Z0.000000
G1 Y37.7 Z0 
(line333)
G1 X33.3 Y37.7 Z0 
G1 Y35.2 Z0.000000
G1 Y35.1 Z0.000039
G1 Y35.0 Z0.008902
G1 Y34.9 Z0.010000
G1 Y26.8 Z0.009882
G1 Y26.7 Z0.000902
G1 Y26.6 Z0.000000
G1 Y18.5 Z0.000902
G1 Y18.4 Z0.005882
G1 Y18.3 Z0.010000
G1 Y10.1 Z0.007647
G1 Y10.0 Z0.000000
G1 Y7.5 Z0 
(line334)
G1 X33.4 Y7.2 Z0 
G1 Y9.7 Z0.000000
G1 Y9.8 Z0.000431
G1 Y9.9 Z0.009569
G1 Y10.0 Z0.010000
G1 Y18.1 Z0.010000
G1 Y18.2 Z0.008431
G1 Y18.3 Z0.000000
G1 Y26.4 Z0.000000
G1 Y26.5 Z0.003373
G1 Y26.6 Z0.010000
G1 Y34.6 Z0.010000
G1 Y34.7 Z0.009882
G1 Y34.8 Z0.006235
G1 Y34.9 Z0.000000
G1 Y37.4 Z0 
(line335)
G1 X33.5 Y37.3 Z0 
G1 Y34.8 Z0.000000
G1 Y34.7 Z0.002039
G1 Y34.6 Z0.010000
G1 Y26.4 Z0.007647
G1 Y26.3 Z0.000000
G1 Y18.2 Z0.000157
G1 Y18.1 Z0.004353
G1 Y18.0 Z0.010000
G1 Y9.8 Z0.009020
G1 Y9.7 Z0.000118
G1 Y9.6 Z0.000000
G1 Y7.1 Z0 
(line336)
G1 X33.6 Y6.9 Z0 
G1 Y9.4 Z0.000000
G1 Y9.5 Z0.001294
G1 Y9.6 Z0.010000
G1 Y17.8 Z0.010000
G1 Y17.9 Z0.001686
G1 Y18.0 Z0.000000
G1 Y26.0 Z0.000000
G1 Y26.1 Z0.000353
G1 Y26.2 Z0.004941
G1 Y26.3 Z0.010000
G1 Y34.3 Z0.010000
G1 Y34.4 Z0.009529
G1 Y34.5 Z0.004667
G1 Y34.6 Z0.000000
G1 Y37.1 Z0 
(line337)
G1 X33.7 Y36.9 Z0 
G1 Y34.4 Z0.000000
G1 Y34.3 Z0.002000
G1 Y34.2 Z0.007451
G1 Y34.1 Z0.010000
G1 Y26.0 Z0.007647
G1 Y25.9 Z0.002118
G1 Y25.8 Z0.000000
G1 Y17.7 Z0.004118
G1 Y17.6 Z0.009255
G1 Y17.5 Z0.010000
G1 Y9.3 Z0.004196
G1 Y9.2 Z0.000000
G1 Y6.7 Z0 
(line338)
G1 X33.8 Y6.6 Z0 
G1 Y9.1 Z0.000000
G1 Y9.2 Z0.002784
G1 Y9.3 Z0.010000
G1 Y17.4 Z0.010000
G1 Y17.5 Z0.009765
G1 Y17.6 Z0.000667
G1 Y17.7 Z0.000000
G1 Y25.7 Z0.000000
G1 Y25.8 Z0.001059
G1 Y25.9 Z0.009961
G1 Y26.0 Z0.010000
G1 Y34.0 Z0.010000
G1 Y34.1 Z0.008627
G1 Y34.2 Z0.000000
G1 Y36.7 Z0 
(line339)
G1 X33.9 Y36.6 Z0 
G1 Y34.1 Z0.000000
G1 Y34.0 Z0.000745
G1 Y33.9 Z0.005765
G1 Y33.8 Z0.010000
G1 Y25.7 Z0.008824
G1 Y25.6 Z0.003686
G1 Y25.5 Z0.000000
G1 Y17.3 Z0.008118
G1 Y17.2 Z0.010000
G1 Y9.0 Z0.005804
G1 Y8.9 Z0.000667
G1 Y8.8 Z0.000000
G1 Y6.3 Z0 
(line340)
G1 X34.0 Y6.2 Z0 
G1 Y8.7 Z0.000000
G1 Y8.8 Z0.000235
G1 Y8.9 Z0.009255
G1 Y9.0 Z0.010000
G1 Y17.1 Z0.010000
G1 Y17.2 Z0.009137
G1 Y17.3 Z0.000118
G1 Y17.4 Z0.000000
G1 Y25.4 Z0.000000
G1 Y25.5 Z0.002235
G1 Y25.6 Z0.010000
G1 Y33.7 Z0.010000
G1 Y33.8 Z0.007373
G1 Y33.9 Z0.000000
G1 Y36.4 Z0 
(line341)
G1 X34.1 Y36.2 Z0 
G1 Y33.7 Z0.000000
G1 Y33.6 Z0.004196
G1 Y33.5 Z0.010000
G1 Y25.3 Z0.005176
G1 Y25.2 Z0.000000
G1 Y17.0 Z0.006627
G1 Y16.9 Z0.010000
G1 Y8.7 Z0.007333
G1 Y8.6 Z0.001843
G1 Y8.5 Z0.000000
G1 Y6.0 Z0 
(line342)
G1 X34.2 Y5.9 Z0 
G1 Y8.4 Z0.000000
G1 Y8.5 Z0.007333
G1 Y8.6 Z0.010000
G1 Y16.7 Z0.010000
G1 Y16.8 Z0.003686
G1 Y16.9 Z0.000000
G1 Y25.0 Z0.000000
G1 Y25.1 Z0.007882
G1 Y25.2 Z0.010000
G1 Y33.3 Z0.010000
G1 Y33.4 Z0.001490
G1 Y33.5 Z0.000000
G1 Y36.0 Z0 
(line343)
G1 X34.3 Y35.9 Z0 
G1 Y33.4 Z0.000000
G1 Y33.3 Z0.002745
G1 Y33.2 Z0.008392
G1 Y33.1 Z0.010000
G1 Y25.0 Z0.006627
G1 Y24.9 Z0.001216
G1 Y24.8 Z0.000000
G1 Y16.7 Z0.005059
G1 Y16.6 Z0.009647
G1 Y16.5 Z0.010000
G1 Y8.5 Z0.007333
G1 Y8.4 Z0.000000
G1 Y5.9 Z0 
(line344)
G1 X34.4 Y5.9 Z0 
G1 Y8.4 Z0.000000
G1 Y8.5 Z0.007333
G1 Y8.6 Z0.010000
G1 Y16.3 Z0.010000
G1 Y16.4 Z0.007804
G1 Y16.5 Z0.002314
G1 Y16.6 Z0.000000
G1 Y24.6 Z0.000000
G1 Y24.7 Z0.000118
G1 Y24.8 Z0.009020
G1 Y24.9 Z0.010000
G1 Y32.9 Z0.010000
G1 Y33.0 Z0.009765
G1 Y33.1 Z0.000588
G1 Y33.2 Z0.000000
G1 Y35.7 Z0 
(line345)
G1 X34.5 Y35.6 Z0 
G1 Y33.1 Z0.000000
G1 Y33.0 Z0.001412
G1 Y32.9 Z0.006706
G1 Y32.8 Z0.010000
G1 Y24.7 Z0.008000
G1 Y24.6 Z0.002471
G1 Y24.5 Z0.000000
G1 Y16.4 Z0.000039
G1 Y16.3 Z0.008902
G1 Y16.2 Z0.010000
G1 Y8.5 Z0.007333
G1 Y8.4 Z0.000000
G1 Y5.9 Z0 
(line346)
G1 X34.6 Y5.9 Z0 
G1 Y8.4 Z0.000000
G1 Y8.5 Z0.007333
G1 Y8.6 Z0.010000
G1 Y16.0 Z0.010000
G1 Y16.1 Z0.006235
G1 Y16.2 Z0.001098
G1 Y16.3 Z0.000000
G1 Y24.3 Z0.000000
G1 Y24.4 Z0.005451
G1 Y24.5 Z0.009765
G1 Y24.6 Z0.010000
G1 Y32.6 Z0.010000
G1 Y32.7 Z0.003725
G1 Y32.8 Z0.000118
G1 Y32.9 Z0.000000
G1 Y35.4 Z0 
(line347)
G1 X34.7 Y35.1 Z0 
G1 Y32.6 Z0.000000
G1 Y32.5 Z0.006510
G1 Y32.4 Z0.009961
G1 Y32.3 Z0.010000
G1 Y24.2 Z0.002549
G1 Y24.1 Z0.000000
G1 Y16.0 Z0.000039
G1 Y15.9 Z0.003294
G1 Y15.8 Z0.010000
G1 Y8.5 Z0.007333
G1 Y8.4 Z0.000000
G1 Y5.9 Z0 
(line348)
G1 X34.8 Y5.9 Z0 
G1 Y8.4 Z0.000000
G1 Y8.5 Z0.007333
G1 Y8.6 Z0.010000
G1 Y15.7 Z0.010000
G1 Y15.8 Z0.004667
G1 Y15.9 Z0.000000
G1 Y24.0 Z0.000000
G1 Y24.1 Z0.006941
G1 Y24.2 Z0.010000
G1 Y32.3 Z0.010000
G1 Y32.4 Z0.002314
G1 Y32.5 Z0.000000
G1 Y35.0 Z0 
(line349)
G1 X34.9 Y34.8 Z0 
G1 Y32.3 Z0.000000
G1 Y32.2 Z0.000431
G1 Y32.1 Z0.009569
G1 Y32.0 Z0.010000
G1 Y23.9 Z0.009216
G1 Y23.8 Z0.000118
G1 Y23.7 Z0.000000
G1 Y15.6 Z0.002000
G1 Y15.5 Z0.010000
G1 Y8.5 Z0.007333
G1 Y8.4 Z0.000000
G1 Y5.9 Z0 
(line350)
G1 X35.0 Y5.9 Z0 
G1 Y8.4 Z0.000000
G1 Y8.5 Z0.007333
G1 Y8.6 Z0.010000
G1 Y15.3 Z0.010000
G1 Y15.4 Z0.008627
G1 Y15.5 Z0.003059
G1 Y15.6 Z0.000000
G1 Y23.7 Z0.000000
G1 Y23.8 Z0.008196
G1 Y23.9 Z0.010000
G1 Y31.9 Z0.010000
G1 Y32.0 Z0.009882
G1 Y32.1 Z0.001098
G1 Y32.2 Z0.000000
G1 Y34.7 Z0 
(line351)
G1 X35.1 Y34.5 Z0 
G1 Y32.0 Z0.000000
G1 Y31.9 Z0.000039
G1 Y31.8 Z0.008706
G1 Y31.7 Z0.010000
G1 Y23.6 Z0.009765
G1 Y23.5 Z0.000667
G1 Y23.4 Z0.000000
G1 Y15.3 Z0.000745
G1 Y15.2 Z0.009882
G1 Y15.1 Z0.010000
G1 Y8.5 Z0.007333
G1 Y8.4 Z0.000000
G1 Y5.9 Z0 
(line352)
G1 X35.2 Y5.9 Z0 
G1 Y8.4 Z0.000000
G1 Y8.5 Z0.007333
G1 Y8.6 Z0.010000
G1 Y14.9 Z0.010000
G1 Y15.0 Z0.008431
G1 Y15.1 Z0.000000
G1 Y23.2 Z0.000000
G1 Y23.3 Z0.002784
G1 Y23.4 Z0.010000
G1 Y31.5 Z0.010000
G1 Y31.6 Z0.006000
G1 Y31.7 Z0.000000
G1 Y34.2 Z0 
(line353)
G1 X35.3 Y34.1 Z0 
G1 Y31.6 Z0.000000
G1 Y31.5 Z0.007451
G1 Y31.4 Z0.010000
G1 Y23.2 Z0.001608
G1 Y23.1 Z0.000000
G1 Y15.0 Z0.000157
G1 Y14.9 Z0.004196
G1 Y14.8 Z0.010000
G1 Y8.5 Z0.007333
G1 Y8.4 Z0.000000
G1 Y5.9 Z0 
(line354)
G1 X35.4 Y5.9 Z0 
G1 Y8.4 Z0.000000
G1 Y8.5 Z0.007333
G1 Y8.6 Z0.010000
G1 Y14.6 Z0.010000
G1 Y14.7 Z0.007020
G1 Y14.8 Z0.000000
G1 Y22.8 Z0.000000
G1 Y22.9 Z0.000118
G1 Y23.0 Z0.004353
G1 Y23.1 Z0.010000
G1 Y31.2 Z0.010000
G1 Y31.3 Z0.004431
G1 Y31.4 Z0.000000
G1 Y33.9 Z0 
(line355)
G1 X35.5 Y33.8 Z0 
G1 Y31.3 Z0.000000
G1 Y31.2 Z0.005765
G1 Y31.1 Z0.009882
G1 Y31.0 Z0.010000
G1 Y22.9 Z0.008392
G1 Y22.8 Z0.000000
G1 Y14.6 Z0.002745
G1 Y14.5 Z0.010000
G1 Y8.5 Z0.007333
G1 Y8.4 Z0.000000
G1 Y5.9 Z0 
(line356)
G1 X35.6 Y5.9 Z0 
G1 Y8.4 Z0.000000
G1 Y8.5 Z0.007333
G1 Y8.6 Z0.010000
G1 Y14.2 Z0.010000
G1 Y14.3 Z0.009765
G1 Y14.4 Z0.000588
G1 Y14.5 Z0.000000
G1 Y22.5 Z0.000000
G1 Y22.6 Z0.000667
G1 Y22.7 Z0.005882
G1 Y22.8 Z0.010000
G1 Y30.8 Z0.010000
G1 Y30.9 Z0.008431
G1 Y31.0 Z0.002784
G1 Y31.1 Z0.000000
G1 Y33.6 Z0 
(line357)
G1 X35.7 Y33.4 Z0 
G1 Y30.9 Z0.000000
G1 Y30.8 Z0.000745
G1 Y30.7 Z0.009765
G1 Y30.6 Z0.010000
G1 Y22.5 Z0.008510
G1 Y22.4 Z0.003098
G1 Y22.3 Z0.000000
G1 Y14.2 Z0.002667
G1 Y14.1 Z0.008118
G1 Y14.0 Z0.010000
G1 Y8.5 Z0.007333
G1 Y8.4 Z0.000000
G1 Y5.9 Z0 
(line358)
G1 X35.8 Y5.9 Z0 
G1 Y8.4 Z0.000000
G1 Y8.5 Z0.007333
G1 Y8.6 Z0.010000
G1 Y13.9 Z0.010000
G1 Y14.0 Z0.009059
G1 Y14.1 Z0.000118
G1 Y14.2 Z0.000000
G1 Y22.2 Z0.000000
G1 Y22.3 Z0.001686
G1 Y22.4 Z0.010000
G1 Y30.5 Z0.010000
G1 Y30.6 Z0.007020
G1 Y30.7 Z0.001490
G1 Y30.8 Z0.000000
G1 Y33.3 Z0 
(line359)
G1 X35.9 Y33.1 Z0 
G1 Y30.6 Z0.000000
G1 Y30.5 Z0.000118
G1 Y30.4 Z0.004039
G1 Y30.3 Z0.010000
G1 Y22.2 Z0.009373
G1 Y22.1 Z0.004627
G1 Y22.0 Z0.000000
G1 Y13.8 Z0.006549
G1 Y13.7 Z0.010000
G1 Y8.5 Z0.007333
G1 Y8.4 Z0.000000
G1 Y5.9 Z0 
(line360)
G1 X36.0 Y5.9 Z0 
G1 Y8.4 Z0.000000
G1 Y8.5 Z0.007333
G1 Y8.6 Z0.010000
G1 Y13.6 Z0.010000
G1 Y13.7 Z0.008000
G1 Y13.8 Z0.000000
G1 Y21.9 Z0.000000
G1 Y22.0 Z0.003255
G1 Y22.1 Z0.010000
G1 Y30.2 Z0.010000
G1 Y30.3 Z0.005373
G1 Y30.4 Z0.000000
G1 Y32.9 Z0 
(line361)
G1 X36.1 Y32.7 Z0 
G1 Y30.2 Z0.000000
G1 Y30.1 Z0.002471
G1 Y30.0 Z0.010000
G1 Y21.8 Z0.006118
G1 Y21.7 Z0.000000
G1 Y13.5 Z0.004941
G1 Y13.4 Z0.009647
G1 Y13.3 Z0.010000
G1 Y8.5 Z0.007333
G1 Y8.4 Z0.000000
G1 Y5.9 Z0 
(line362)
G1 X36.2 Y5.9 Z0 
G1 Y8.4 Z0.000000
G1 Y8.5 Z0.007333
G1 Y8.6 Z0.010000
G1 Y13.2 Z0.010000
G1 Y13.3 Z0.002118
G1 Y13.4 Z0.000000
G1 Y21.5 Z0.000000
G1 Y21.6 Z0.008627
G1 Y21.7 Z0.010000
G1 Y29.7 Z0.010000
G1 Y29.8 Z0.009686
G1 Y29.9 Z0.000549
G1 Y30.0 Z0.000000
G1 Y32.5 Z0 
(line363)
G1 X36.3 Y32.4 Z0 
G1 Y29.9 Z0.000000
G1 Y29.8 Z0.001176
G1 Y29.7 Z0.009961
G1 Y29.6 Z0.010000
G1 Y21.5 Z0.007569
G1 Y21.4 Z0.001922
G1 Y21.3 Z0.000000
G1 Y13.2 Z0.003373
G1 Y13.1 Z0.008902
G1 Y13.0 Z0.010000
G1 Y8.5 Z0.007333
G1 Y8.4 Z0.000000
G1 Y5.9 Z0 
(line364)
G1 X36.4 Y5.9 Z0 
G1 Y8.4 Z0.000000
G1 Y8.5 Z0.007333
G1 Y8.6 Z0.010000
G1 Y12.8 Z0.010000
G1 Y12.9 Z0.006118
G1 Y13.0 Z0.000902
G1 Y13.1 Z0.000000
G1 Y21.1 Z0.000000
G1 Y21.2 Z0.000353
G1 Y21.3 Z0.009529
G1 Y21.4 Z0.010000
G1 Y29.4 Z0.010000
G1 Y29.5 Z0.008941
G1 Y29.6 Z0.000039
G1 Y29.7 Z0.000000
G1 Y32.2 Z0 
(line365)
G1 X36.5 Y32.1 Z0 
G1 Y29.6 Z0.000000
G1 Y29.5 Z0.000431
G1 Y29.4 Z0.004941
G1 Y29.3 Z0.010000
G1 Y21.2 Z0.008745
G1 Y21.1 Z0.003490
G1 Y21.0 Z0.000000
G1 Y12.8 Z0.007490
G1 Y12.7 Z0.010000
G1 Y8.5 Z0.007333
G1 Y8.4 Z0.000000
G1 Y5.9 Z0 
(line366)
G1 X36.6 Y5.9 Z0 
G1 Y8.4 Z0.000000
G1 Y8.5 Z0.007333
G1 Y8.6 Z0.010000
G1 Y12.5 Z0.010000
G1 Y12.6 Z0.004549
G1 Y12.7 Z0.000235
G1 Y12.8 Z0.000000
G1 Y20.8 Z0.000000
G1 Y20.9 Z0.006392
G1 Y21.0 Z0.009882
G1 Y21.1 Z0.010000
G1 Y29.1 Z0.010000
G1 Y29.2 Z0.007765
G1 Y29.3 Z0.000000
G1 Y31.8 Z0 
(line367)
G1 X36.7 Y31.6 Z0 
G1 Y29.1 Z0.000000
G1 Y29.0 Z0.004667
G1 Y28.9 Z0.009529
G1 Y28.8 Z0.010000
G1 Y20.7 Z0.003608
G1 Y20.6 Z0.000039
G1 Y20.5 Z0.000000
G1 Y12.4 Z0.001725
G1 Y12.3 Z0.010000
G1 Y8.5 Z0.007333
G1 Y8.4 Z0.000000
G1 Y5.9 Z0 
(line368)
G1 X36.8 Y5.9 Z0 
G1 Y8.4 Z0.000000
G1 Y8.5 Z0.007333
G1 Y8.6 Z0.010000
G1 Y12.2 Z0.010000
G1 Y12.3 Z0.002980
G1 Y12.4 Z0.000000
G1 Y20.5 Z0.000000
G1 Y20.6 Z0.007647
G1 Y20.7 Z0.010000
G1 Y28.7 Z0.010000
G1 Y28.8 Z0.009882
G1 Y28.9 Z0.000902
G1 Y29.0 Z0.000000
G1 Y31.5 Z0 
(line369)
G1 X36.9 Y31.3 Z0 
G1 Y28.8 Z0.000000
G1 Y28.7 Z0.003098
G1 Y28.6 Z0.008706
G1 Y28.5 Z0.010000
G1 Y20.4 Z0.009569
G1 Y20.3 Z0.000353
G1 Y20.2 Z0.000000
G1 Y12.1 Z0.000745
G1 Y12.0 Z0.009765
G1 Y11.9 Z0.010000
G1 Y8.5 Z0.007333
G1 Y8.4 Z0.000000
G1 Y5.9 Z0 
(line370)
G1 X37.0 Y5.9 Z0 
G1 Y8.4 Z0.000000
G1 Y8.5 Z0.007333
G1 Y8.6 Z0.010000
G1 Y11.8 Z0.010000
G1 Y11.9 Z0.007059
G1 Y12.0 Z0.001608
G1 Y12.1 Z0.000000
G1 Y20.1 Z0.000000
G1 Y20.2 Z0.000039
G1 Y20.3 Z0.008902
G1 Y20.4 Z0.010000
G1 Y28.4 Z0.010000
G1 Y28.5 Z0.009451
G1 Y28.6 Z0.000235
G1 Y28.7 Z0.000000
G1 Y31.2 Z0 
(line371)
G1 X37.1 Y30.9 Z0 
G1 Y28.4 Z0.000000
G1 Y28.3 Z0.007373
G1 Y28.2 Z0.010000
G1 Y20.1 Z0.009961
G1 Y20.0 Z0.001098
G1 Y19.9 Z0.000000
G1 Y11.8 Z0.000157
G1 Y11.7 Z0.009255
G1 Y11.6 Z0.010000
G1 Y8.5 Z0.007333
G1 Y8.4 Z0.000000
G1 Y5.9 Z0 
(line372)
G1 X37.2 Y5.9 Z0 
G1 Y8.4 Z0.000000
G1 Y8.5 Z0.007333
G1 Y8.6 Z0.010000
G1 Y11.4 Z0.010000
G1 Y11.5 Z0.006863
G1 Y11.6 Z0.000000
G1 Y19.7 Z0.000000
G1 Y19.8 Z0.003882
G1 Y19.9 Z0.010000
G1 Y28.0 Z0.010000
G1 Y28.1 Z0.004235
G1 Y28.2 Z0.000157
G1 Y28.3 Z0.000000
G1 Y30.8 Z0 
(line373)
G1 X37.3 Y30.6 Z0 
G1 Y28.1 Z0.000000
G1 Y28.0 Z0.005608
G1 Y27.9 Z0.009843
G1 Y27.8 Z0.010000
G1 Y19.7 Z0.002235
G1 Y19.6 Z0.000000
G1 Y11.4 Z0.002667
G1 Y11.3 Z0.010000
G1 Y8.5 Z0.007333
G1 Y8.4 Z0.000000
G1 Y5.9 Z0 
(line374)
G1 X37.4 Y5.9 Z0 
G1 Y8.4 Z0.000000
G1 Y8.5 Z0.007333
G1 Y8.6 Z0.010000
G1 Y11.0 Z0.010000
G1 Y11.1 Z0.009765
G1 Y11.2 Z0.005255
G1 Y11.3 Z0.000000
G1 Y19.3 Z0.000000
G1 Y19.4 Z0.000471
G1 Y19.5 Z0.005294
G1 Y19.6 Z0.010000
G1 Y27.7 Z0.010000
G1 Y27.8 Z0.002745
G1 Y27.9 Z0.000000
G1 Y30.4 Z0 
(line375)
G1 X37.5 Y30.3 Z0 
G1 Y27.8 Z0.000000
G1 Y27.7 Z0.004039
G1 Y27.6 Z0.009216
G1 Y27.5 Z0.010000
G1 Y19.4 Z0.009020
G1 Y19.3 Z0.000118
G1 Y19.2 Z0.000000
G1 Y11.1 Z0.001412
G1 Y11.0 Z0.010000
G1 Y8.5 Z0.007333
G1 Y8.4 Z0.000000
G1 Y5.9 Z0 
(line376)
G1 X37.6 Y5.9 Z0 
G1 Y8.4 Z0.000000
G1 Y8.5 Z0.007333
G1 Y8.6 Z0.010000
G1 Y10.7 Z0.010000
G1 Y10.8 Z0.009059
G1 Y10.9 Z0.000118
G1 Y11.0 Z0.000000
G1 Y19.0 Z0.000000
G1 Y19.1 Z0.001294
G1 Y19.2 Z0.006824
G1 Y19.3 Z0.010000
G1 Y27.3 Z0.010000
G1 Y27.4 Z0.006824
G1 Y27.5 Z0.001412
G1 Y27.6 Z0.000000
G1 Y30.1 Z0 
(line377)
G1 X37.7 Y29.9 Z0 
G1 Y27.4 Z0.000000
G1 Y27.3 Z0.000118
G1 Y27.2 Z0.009059
G1 Y27.1 Z0.010000
G1 Y19.0 Z0.009020
G1 Y18.9 Z0.004039
G1 Y18.8 Z0.000000
G1 Y10.7 Z0.001176
G1 Y10.6 Z0.006431
G1 Y10.5 Z0.010000
G1 Y8.5 Z0.007333
G1 Y8.4 Z0.000000
G1 Y5.9 Z0 
(line378)
G1 X37.8 Y5.9 Z0 
G1 Y8.4 Z0.000000
G1 Y8.5 Z0.007333
G1 Y8.6 Z0.010000
G1 Y10.4 Z0.010000
G1 Y10.5 Z0.007882
G1 Y10.6 Z0.000000
G1 Y18.7 Z0.000000
G1 Y18.8 Z0.002549
G1 Y18.9 Z0.010000
G1 Y27.0 Z0.010000
G1 Y27.1 Z0.005176
G1 Y27.2 Z0.000549
G1 Y27.3 Z0.000000
G1 Y29.8 Z0 
(line379)
G1 X37.9 Y29.5 Z0 
G1 Y27.0 Z0.000000
G1 Y26.9 Z0.002314
G1 Y26.8 Z0.010000
G1 Y18.7 Z0.009765
G1 Y18.6 Z0.005569
G1 Y18.5 Z0.000000
G1 Y10.3 Z0.004941
G1 Y10.2 Z0.010000
G1 Y8.5 Z0.007333
G1 Y8.4 Z0.000000
G1 Y5.9 Z0 
(line380)
G1 X38.0 Y5.9 Z0 
G1 Y8.4 Z0.000000
G1 Y8.5 Z0.007333
G1 Y8.6 Z0.010000
G1 Y10.0 Z0.010000
G1 Y10.1 Z0.009882
G1 Y10.2 Z0.006235
G1 Y10.3 Z0.000000
G1 Y18.3 Z0.000000
G1 Y18.4 Z0.000118
G1 Y18.5 Z0.004196
G1 Y18.6 Z0.010000
G1 Y26.7 Z0.010000
G1 Y26.8 Z0.003608
G1 Y26.9 Z0.000000
G1 Y29.4 Z0 
(line381)
G1 X38.1 Y29.2 Z0 
G1 Y26.7 Z0.000000
G1 Y26.6 Z0.001176
G1 Y26.5 Z0.009961
G1 Y26.4 Z0.010000
G1 Y18.3 Z0.007059
G1 Y18.2 Z0.000000
G1 Y10.0 Z0.003294
G1 Y9.9 Z0.008706
G1 Y9.8 Z0.010000
G1 Y8.5 Z0.007333
G1 Y8.4 Z0.000000
G1 Y5.9 Z0 
(line382)
G1 X38.2 Y5.9 Z0 
G1 Y8.4 Z0.000000
G1 Y8.5 Z0.007333
G1 Y8.6 Z0.010000
G1 Y9.6 Z0.010000
G1 Y9.7 Z0.009882
G1 Y9.8 Z0.000902
G1 Y9.9 Z0.000000
G1 Y17.9 Z0.000000
G1 Y18.0 Z0.000118
G1 Y18.1 Z0.009255
G1 Y18.2 Z0.010000
G1 Y26.2 Z0.010000
G1 Y26.3 Z0.008902
G1 Y26.4 Z0.000039
G1 Y26.5 Z0.000000
G1 Y29.0 Z0 
(line383)
G1 X38.3 Y28.9 Z0 
G1 Y26.4 Z0.000000
G1 Y26.3 Z0.000353
G1 Y26.2 Z0.009529
G1 Y26.1 Z0.010000
G1 Y18.0 Z0.008314
G1 Y17.9 Z0.002941
G1 Y17.8 Z0.000000
G1 Y9.7 Z0.002000
G1 Y9.6 Z0.007451
G1 Y9.5 Z0.010000
G1 Y8.5 Z0.007333
G1 Y8.4 Z0.000000
G1 Y5.9 Z0 
(line384)
G1 X38.4 Y5.9 Z0 
G1 Y8.4 Z0.000000
G1 Y8.5 Z0.007333
G1 Y8.6 Z0.010000
G1 Y9.3 Z0.010000
G1 Y9.4 Z0.004510
G1 Y9.5 Z0.000235
G1 Y9.6 Z0.000000
G1 Y17.6 Z0.000000
G1 Y17.7 Z0.000667
G1 Y17.8 Z0.009765
G1 Y17.9 Z0.010000
G1 Y25.9 Z0.010000
G1 Y26.0 Z0.007490
G1 Y26.1 Z0.000000
G1 Y28.6 Z0 
(line385)
G1 X38.5 Y28.5 Z0 
G1 Y26.0 Z0.000000
G1 Y25.9 Z0.003176
G1 Y25.8 Z0.010000
G1 Y17.7 Z0.009255
G1 Y17.6 Z0.004431
G1 Y17.5 Z0.000000
G1 Y9.3 Z0.005804
G1 Y9.2 Z0.010000
G1 Y8.5 Z0.007333
G1 Y8.4 Z0.000000
G1 Y5.9 Z0 
(line386)
G1 X38.6 Y5.9 Z0 
G1 Y8.4 Z0.000000
G1 Y8.5 Z0.007333
G1 Y8.6 Z0.010000
G1 Y9.0 Z0.010000
G1 Y9.1 Z0.002863
G1 Y9.2 Z0.000000
G1 Y17.3 Z0.000000
G1 Y17.4 Z0.007255
G1 Y17.5 Z0.010000
G1 Y25.5 Z0.010000
G1 Y25.6 Z0.009882
G1 Y25.7 Z0.005882
G1 Y25.8 Z0.000000
G1 Y28.3 Z0 
(line387)
G1 X38.7 Y28.1 Z0 
G1 Y25.6 Z0.000000
G1 Y25.5 Z0.002941
G1 Y25.4 Z0.008431
G1 Y25.3 Z0.010000
G1 Y17.2 Z0.004549
G1 Y17.1 Z0.000235
G1 Y17.0 Z0.000000
G1 Y8.9 Z0.000745
G1 Y8.8 Z0.009843
G1 Y8.7 Z0.010000
G1 Y8.5 Z0.007333
G1 Y8.4 Z0.000000
G1 Y5.9 Z0 
(line388)
G1 X38.8 Y5.9 Z0 
G1 Y8.4 Z0.000000
G1 Y8.5 Z0.007333
G1 Y8.6 Z0.010000
G1 Y8.7 Z0.010000
G1 Y8.8 Z0.001686
G1 Y8.9 Z0.000000
G1 Y17.0 Z0.000000
G1 Y17.1 Z0.008510
G1 Y17.2 Z0.010000
G1 Y25.2 Z0.010000
G1 Y25.3 Z0.009333
G1 Y25.4 Z0.000157
G1 Y25.5 Z0.000000
G1 Y28.0 Z0 
(line389)
G1 X38.9 Y27.8 Z0 
G1 Y25.3 Z0.000000
G1 Y25.2 Z0.001686
G1 Y25.1 Z0.007020
G1 Y25.0 Z0.010000
G1 Y16.9 Z0.009882
G1 Y16.8 Z0.000863
G1 Y16.7 Z0.000000
G1 Y8.6 Z0.000118
G1 Y8.5 Z0.006510
G1 Y8.4 Z0.000000
G1 Y5.9 Z0 
(line390)
G1 X39.0 Y5.9 Z0 
G1 Y8.4 Z0.000000
G1 Y8.5 Z0.000118
G1 Y8.6 Z0.000000
G1 Y16.6 Z0.000000
G1 Y16.7 Z0.000235
G1 Y16.8 Z0.009373
G1 Y16.9 Z0.010000
G1 Y24.9 Z0.010000
G1 Y25.0 Z0.008392
G1 Y25.1 Z0.000000
G1 Y27.6 Z0 
(line391)
G1 X39.1 Y27.4 Z0 
G1 Y24.9 Z0.000000
G1 Y24.8 Z0.005451
G1 Y24.7 Z0.010000
G1 Y16.5 Z0.001843
G1 Y16.4 Z0.000000
G1 Y13.9 Z0 
(line392)
G1 X39.2 Y13.7 Z0 
G1 Y16.2 Z0.000000
G1 Y16.3 Z0.004824
G1 Y16.4 Z0.010000
G1 Y24.5 Z0.010000
G1 Y24.6 Z0.002667
G1 Y24.7 Z0.000000
G1 Y27.2 Z0 
(line393)
G1 X39.3 Y27.1 Z0 
G1 Y24.6 Z0.000000
G1 Y24.5 Z0.003882
G1 Y24.4 Z0.009059
G1 Y24.3 Z0.010000
G1 Y16.2 Z0.003373
G1 Y16.1 Z0.000000
G1 Y13.6 Z0 
(line394)
G1 X39.4 Y13.3 Z0 
G1 Y15.8 Z0.000000
G1 Y15.9 Z0.001059
G1 Y16.0 Z0.006314
G1 Y16.1 Z0.010000
G1 Y24.2 Z0.010000
G1 Y24.3 Z0.001216
G1 Y24.4 Z0.000000
G1 Y26.9 Z0 
(line395)
G1 X39.5 Y26.8 Z0 
G1 Y24.3 Z0.000000
G1 Y24.2 Z0.002353
G1 Y24.1 Z0.008000
G1 Y24.0 Z0.010000
G1 Y15.9 Z0.009569
G1 Y15.8 Z0.000353
G1 Y15.7 Z0.000000
G1 Y13.2 Z0 
(line396)
G1 X39.6 Y13.0 Z0 
G1 Y15.5 Z0.000000
G1 Y15.6 Z0.002118
G1 Y15.7 Z0.007647
G1 Y15.8 Z0.010000
G1 Y23.8 Z0.010000
G1 Y23.9 Z0.004980
G1 Y24.0 Z0.000431
G1 Y24.1 Z0.000000
G1 Y26.6 Z0 
(line397)
G1 X39.7 Y26.3 Z0 
G1 Y23.8 Z0.000000
G1 Y23.7 Z0.007765
G1 Y23.6 Z0.010000
G1 Y15.5 Z0.009569
G1 Y15.4 Z0.004980
G1 Y15.3 Z0.000000
G1 Y12.8 Z0 
(line398)
G1 X39.8 Y12.7 Z0 
G1 Y15.2 Z0.000000
G1 Y15.3 Z0.003608
G1 Y15.4 Z0.010000
G1 Y23.5 Z0.010000
G1 Y23.6 Z0.003373
G1 Y23.7 Z0.000039
G1 Y23.8 Z0.000000
G1 Y26.3 Z0 
(line399)
G1 X39.9 Y26.0 Z0 
G1 Y23.5 Z0.000000
G1 Y23.4 Z0.000902
G1 Y23.3 Z0.009882
G1 Y23.2 Z0.010000
G1 Y15.2 Z0.009961
G1 Y15.1 Z0.006549
G1 Y15.0 Z0.000000
G1 Y12.5 Z0 
(line400)
G1 X40.0 Y12.3 Z0 
G1 Y14.8 Z0.000000
G1 Y14.9 Z0.000431
G1 Y15.0 Z0.005137
G1 Y15.1 Z0.010000
G1 Y23.2 Z0.010000
G1 Y23.3 Z0.002000
G1 Y23.4 Z0.000000
G1 Y25.9 Z0 
(line401)
G1 X40.1 Y25.7 Z0 
G1 Y23.2 Z0.000000
G1 Y23.1 Z0.000235
G1 Y23.0 Z0.009529
G1 Y22.9 Z0.010000
G1 Y14.8 Z0.007882
G1 Y14.7 Z0.000000
G1 Y12.2 Z0 
(line402)
G1 X40.2 Y11.9 Z0 
G1 Y14.4 Z0.000000
G1 Y14.5 Z0.000431
G1 Y14.6 Z0.009686
G1 Y14.7 Z0.010000
G1 Y22.7 Z0.010000
G1 Y22.8 Z0.007373
G1 Y22.9 Z0.000000
G1 Y25.4 Z0 
(line403)
G1 X40.3 Y25.3 Z0 
G1 Y22.8 Z0.000000
G1 Y22.7 Z0.008431
G1 Y22.6 Z0.010000
G1 Y14.5 Z0.009020
G1 Y14.4 Z0.003882
G1 Y14.3 Z0.000000
G1 Y11.8 Z0 
