( imgcode generated code )
( developed by M. "Vidmo" Widomski )
(  github.com/vidmo91 )
(  hackaday.io/vidmo91 )
 
F1000
M92 
G64 R360 

G0 X1.0 Y8.5 Z0 
M3 
G1 X1.5
G1 Z0.255
G1 X20.0
G1 Z0.0
G1 X24.75
G1 Z0.134
G1 X25.0
G1 Z0.255
G1 X29.5
G1 Z0.015
G1 X29.75
G1 Z0.0
G1 X34.25
G1 Z0.255
G1 X39.0
G1 Z0.0
G1 X43.5
G1 Z0.003
G1 X43.75
G1 Z0.255
G1 X48.25
G1 Z0.072
G1 X48.5
G1 Z0.0
G1 X49.0
M5 
G0 X48.75 Y8.75 Z0 
M3 
G1 X48.25
G1 Z0.255
G1 X43.5
G1 Z0.0
G1 X38.75
G1 Z0.255
G1 X34.0
G1 Z0.0
G1 X29.5
G1 Z0.255
G1 X24.75
G1 Z0.0
G1 X20.0
G1 Z0.255
G1 X1.75
G1 Z0.0
G1 X1.25
M5 
G0 X1.25 Y9.0 Z0 
M3 
G1 X1.75
G1 Z0.201
G1 X2.0
G1 Z0.255
G1 X19.75
G1 Z0.0
G1 X24.5
G1 Z0.245
G1 X24.75
G1 Z0.255
G1 X29.25
G1 Z0.0
G1 X33.75
G1 Z0.041
G1 X34.0
G1 Z0.255
G1 X38.5
G1 Z0.214
G1 X38.75
G1 Z0.0
G1 X43.25
G1 Z0.1
G1 X43.5
G1 Z0.255
G1 X48.0
G1 Z0.0
G1 X48.5
M5 
G0 X48.5 Y9.25 Z0 
M3 
G1 X48.0
G1 Z0.255
G1 X43.25
G1 Z0.0
G1 X38.5
G1 Z0.255
G1 X33.75
G1 Z0.0
G1 X29.25
G1 Z0.25
G1 X29.0
G1 Z0.255
G1 X24.5
G1 Z0.0
G1 X19.75
G1 Z0.247
G1 X19.5
G1 Z0.255
G1 X2.0
G1 Z0.0
G1 X1.5
M5 
G0 X1.5 Y9.5 Z0 
M3 
G1 X2.0
G1 Z0.062
G1 X2.25
G1 Z0.255
G1 X19.5
G1 Z0.0
G1 X24.25
G1 Z0.255
G1 X29.0
G1 Z0.0
G1 X33.5
G1 Z0.175
G1 X33.75
G1 Z0.255
G1 X38.25
G1 Z0.077
G1 X38.5
G1 Z0.0
G1 X43.0
G1 Z0.229
G1 X43.25
G1 Z0.255
G1 X47.75
G1 Z0.0
G1 X48.25
M5 
G0 X48.25 Y9.75 Z0 
M3 
G1 X47.75
G1 Z0.229
G1 X47.5
G1 Z0.255
G1 X43.0
G1 Z0.0
G1 X38.25
G1 Z0.255
G1 X33.5
G1 Z0.0
G1 X29.0
G1 Z0.152
G1 X28.75
G1 Z0.255
G1 X24.25
G1 Z0.005
G1 X24.0
G1 Z0.0
G1 X19.5
G1 Z0.16
G1 X19.25
G1 Z0.255
G1 X2.25
G1 Z0.0
G1 X1.75
M5 
G0 X2.0 Y10.0 Z0 
M3 
G1 X2.5
G1 Z0.255
G1 X19.25
G1 Z0.0
G1 X24.0
G1 Z0.255
G1 X28.75
G1 Z0.0
G1 X33.25
G1 Z0.255
G1 X38.0
G1 Z0.0
G1 X42.75
G1 Z0.255
G1 X47.5
G1 Z0.0
G1 X48.0
M5 
G0 X48.0 Y10.25 Z0 
M3 
G1 X47.5
G1 Z0.098
G1 X47.25
G1 Z0.255
G1 X42.75
G1 Z0.0
G1 X38.0
G1 Z0.255
G1 X33.25
G1 Z0.0
G1 X28.75
G1 Z0.023
G1 X28.5
G1 Z0.255
G1 X24.0
G1 Z0.106
G1 X23.75
G1 Z0.0
G1 X19.25
G1 Z0.052
G1 X19.0
G1 Z0.255
G1 X2.5
G1 Z0.0
G1 X2.0
M5 
G0 X2.25 Y10.5 Z0 
M3 
G1 X2.75
G1 Z0.255
G1 X19.0
G1 Z0.0
G1 X23.75
G1 Z0.255
G1 X28.5
G1 Z0.0
G1 X33.0
G1 Z0.255
G1 X37.75
G1 Z0.0
G1 X42.5
G1 Z0.255
G1 X47.25
G1 Z0.0
G1 X47.75
M5 
G0 X47.75 Y10.75 Z0 
M3 
G1 X47.25
G1 Z0.003
G1 X47.0
G1 Z0.255
G1 X42.5
G1 Z0.09
G1 X42.25
G1 Z0.0
G1 X37.75
G1 Z0.232
G1 X37.5
G1 Z0.255
G1 X33.0
G1 Z0.021
G1 X32.75
G1 Z0.0
G1 X28.25
G1 Z0.255
G1 X23.75
G1 Z0.229
G1 X23.5
G1 Z0.0
G1 X18.75
G1 Z0.255
G1 X3.0
G1 Z0.216
G1 X2.75
G1 Z0.0
G1 X2.25
M5 
G0 X2.5 Y11.0 Z0 
M3 
G1 X3.0
G1 Z0.255
G1 X18.75
G1 Z0.0
G1 X23.5
G1 Z0.255
G1 X28.25
G1 Z0.0
G1 X32.75
G1 Z0.255
G1 X37.5
G1 Z0.0
G1 X42.25
G1 Z0.255
G1 X47.0
G1 Z0.0
G1 X47.5
M5 
G0 X47.25 Y11.25 Z0 
M3 
G1 X46.75
G1 Z0.255
G1 X42.25
G1 Z0.219
G1 X42.0
G1 Z0.0
G1 X37.5
G1 Z0.1
G1 X37.25
G1 Z0.255
G1 X32.75
G1 Z0.142
G1 X32.5
G1 Z0.0
G1 X28.0
G1 Z0.255
G1 X23.25
G1 Z0.0
G1 X18.5
G1 Z0.255
G1 X3.25
G1 Z0.09
G1 X3.0
G1 Z0.0
G1 X2.5
M5 
G0 X2.75 Y11.5 Z0 
M3 
G1 X3.25
G1 Z0.255
G1 X18.25
G1 Z0.247
G1 X18.5
G1 Z0.0
G1 X23.25
G1 Z0.255
G1 X27.75
G1 Z0.173
G1 X28.0
G1 Z0.0
G1 X32.5
G1 Z0.255
G1 X37.25
G1 Z0.0
G1 X42.0
G1 Z0.255
G1 X46.5
G1 Z0.24
G1 X46.75
G1 Z0.0
G1 X47.25
M5 
G0 X47.0 Y11.75 Z0 
M3 
G1 X46.5
G1 Z0.255
G1 X41.75
G1 Z0.0
G1 X37.25
G1 Z0.005
G1 X37.0
G1 Z0.255
G1 X32.5
G1 Z0.245
G1 X32.25
G1 Z0.0
G1 X27.75
G1 Z0.255
G1 X23.0
G1 Z0.0
G1 X18.25
G1 Z0.255
G1 X3.5
G1 Z0.003
G1 X3.25
G1 Z0.0
G1 X2.75
M5 
G0 X3.0 Y12.0 Z0 
M3 
G1 X3.5
G1 Z0.255
G1 X8.25
G1 Z0.085
G1 X9.0
G1 Z0.067
G1 X10.5
G1 Z0.052
G1 X12.0
G1 Z0.033
G1 X13.5
G1 Z0.018
G1 X15.0
G1 Z0.0
G1 X22.75
G1 Z0.077
G1 X23.0
G1 Z0.255
G1 X27.5
G1 Z0.039
G1 X27.75
G1 Z0.0
G1 X32.25
G1 Z0.255
G1 X37.0
G1 Z0.0
G1 X41.75
G1 Z0.255
G1 X46.25
G1 Z0.118
G1 X46.5
G1 Z0.0
G1 X47.0
M5 
G0 X46.75 Y12.25 Z0 
M3 
G1 X46.25
G1 Z0.255
G1 X41.5
G1 Z0.0
G1 X36.75
G1 Z0.255
G1 X32.0
G1 Z0.0
G1 X27.5
G1 Z0.255
G1 X22.75
G1 Z0.0
G1 X8.5
G1 Z0.255
G1 X3.75
G1 Z0.0
G1 X3.25
M5 
G0 X3.25 Y12.5 Z0 
M3 
G1 X3.75
G1 Z0.234
G1 X4.0
G1 Z0.255
G1 X8.5
G1 Z0.0
G1 X22.5
G1 Z0.209
G1 X22.75
G1 Z0.255
G1 X27.25
G1 Z0.0
G1 X31.75
G1 Z0.005
G1 X32.0
G1 Z0.255
G1 X36.5
G1 Z0.242
G1 X36.75
G1 Z0.0
G1 X41.25
G1 Z0.077
G1 X41.5
G1 Z0.255
G1 X46.0
G1 Z0.01
G1 X46.25
G1 Z0.0
G1 X46.75
M5 
G0 X46.5 Y12.75 Z0 
M3 
G1 X46.0
G1 Z0.255
G1 X41.25
G1 Z0.0
G1 X36.5
G1 Z0.255
G1 X31.75
G1 Z0.0
G1 X27.25
G1 Z0.255
G1 X22.5
G1 Z0.0
G1 X8.75
G1 Z0.255
G1 X4.0
G1 Z0.0
G1 X3.5
M5 
G0 X3.5 Y13.0 Z0 
M3 
G1 X4.0
G1 Z0.113
G1 X4.25
G1 Z0.255
G1 X8.75
G1 Z0.072
G1 X9.0
G1 Z0.0
G1 X22.25
G1 Z0.255
G1 X27.0
G1 Z0.0
G1 X31.5
G1 Z0.108
G1 X31.75
G1 Z0.255
G1 X36.25
G1 Z0.121
G1 X36.5
G1 Z0.0
G1 X41.0
G1 Z0.211
G1 X41.25
G1 Z0.255
G1 X45.75
G1 Z0.0
G1 X46.25
M5 
G0 X46.25 Y13.25 Z0 
M3 
G1 X45.75
G1 Z0.25
G1 X45.5
G1 Z0.255
G1 X41.0
G1 Z0.0
G1 X36.25
G1 Z0.255
G1 X31.5
G1 Z0.0
G1 X27.0
G1 Z0.196
G1 X26.75
G1 Z0.255
G1 X22.25
G1 Z0.0
G1 X9.0
G1 Z0.255
G1 X4.25
G1 Z0.0
G1 X3.75
M5 
G0 X3.75 Y13.5 Z0 
M3 
G1 X4.25
G1 Z0.005
G1 X4.5
G1 Z0.255
G1 X9.0
G1 Z0.206
G1 X9.25
G1 Z0.0
G1 X22.0
G1 Z0.255
G1 X26.75
G1 Z0.0
G1 X31.25
G1 Z0.229
G1 X31.5
G1 Z0.255
G1 X36.0
G1 Z0.01
G1 X36.25
G1 Z0.0
G1 X40.75
G1 Z0.255
G1 X45.5
G1 Z0.0
G1 X46.0
M5 
G0 X46.0 Y13.75 Z0 
M3 
G1 X45.5
G1 Z0.142
G1 X45.25
G1 Z0.255
G1 X40.75
G1 Z0.0
G1 X36.0
G1 Z0.255
G1 X31.25
G1 Z0.0
G1 X26.75
G1 Z0.059
G1 X26.5
G1 Z0.255
G1 X22.0
G1 Z0.046
G1 X21.75
G1 Z0.0
G1 X9.25
G1 Z0.255
G1 X4.5
G1 Z0.0
G1 X4.0
M5 
G0 X4.25 Y14.0 Z0 
M3 
G1 X4.75
G1 Z0.255
G1 X9.5
G1 Z0.0
G1 X21.75
G1 Z0.255
G1 X26.5
G1 Z0.0
G1 X31.0
G1 Z0.255
G1 X35.75
G1 Z0.0
G1 X40.5
G1 Z0.255
G1 X45.25
G1 Z0.0
G1 X45.75
M5 
G0 X45.75 Y14.25 Z0 
M3 
G1 X45.25
G1 Z0.018
G1 X45.0
G1 Z0.255
G1 X40.5
G1 Z0.062
G1 X40.25
G1 Z0.0
G1 X35.75
G1 Z0.25
G1 X35.5
G1 Z0.255
G1 X31.0
G1 Z0.0
G1 X26.25
G1 Z0.255
G1 X21.75
G1 Z0.183
G1 X21.5
G1 Z0.0
G1 X9.5
G1 Z0.255
G1 X5.0
G1 Z0.245
G1 X4.75
G1 Z0.0
G1 X4.25
M5 
G0 X4.5 Y14.5 Z0 
M3 
G1 X5.0
G1 Z0.255
G1 X9.75
G1 Z0.0
G1 X21.5
G1 Z0.255
G1 X26.25
G1 Z0.0
G1 X30.75
G1 Z0.255
G1 X35.5
G1 Z0.0
G1 X40.25
G1 Z0.255
G1 X45.0
G1 Z0.0
G1 X45.5
M5 
G0 X45.25 Y14.75 Z0 
M3 
G1 X44.75
G1 Z0.255
G1 X40.25
G1 Z0.201
G1 X40.0
G1 Z0.0
G1 X35.5
G1 Z0.142
G1 X35.25
G1 Z0.255
G1 X30.75
G1 Z0.072
G1 X30.5
G1 Z0.0
G1 X26.0
G1 Z0.255
G1 X21.25
G1 Z0.0
G1 X10.0
G1 Z0.036
G1 X9.75
G1 Z0.255
G1 X5.25
G1 Z0.137
G1 X5.0
G1 Z0.0
G1 X4.5
M5 
G0 X4.75 Y15.0 Z0 
M3 
G1 X5.25
G1 Z0.255
G1 X10.0
G1 Z0.0
G1 X21.25
G1 Z0.255
G1 X25.75
G1 Z0.214
G1 X26.0
G1 Z0.0
G1 X30.5
G1 Z0.255
G1 X35.25
G1 Z0.0
G1 X40.0
G1 Z0.255
G1 X44.5
G1 Z0.252
G1 X44.75
G1 Z0.0
G1 X45.25
M5 
G0 X45.0 Y15.25 Z0 
M3 
G1 X44.5
G1 Z0.255
G1 X39.75
G1 Z0.0
G1 X35.25
G1 Z0.018
G1 X35.0
G1 Z0.255
G1 X30.5
G1 Z0.203
G1 X30.25
G1 Z0.0
G1 X25.75
G1 Z0.255
G1 X21.0
G1 Z0.0
G1 X10.25
G1 Z0.162
G1 X10.0
G1 Z0.255
G1 X5.5
G1 Z0.018
G1 X5.25
G1 Z0.0
G1 X4.75
M5 
G0 X5.0 Y15.5 Z0 
M3 
G1 X5.5
G1 Z0.255
G1 X10.25
G1 Z0.0
G1 X20.75
G1 Z0.026
G1 X21.0
G1 Z0.255
G1 X25.5
G1 Z0.075
G1 X25.75
G1 Z0.0
G1 X30.25
G1 Z0.255
G1 X35.0
G1 Z0.0
G1 X39.75
G1 Z0.255
G1 X44.25
G1 Z0.165
G1 X44.5
G1 Z0.0
G1 X45.0
M5 
G0 X44.75 Y15.75 Z0 
M3 
G1 X44.25
G1 Z0.255
G1 X39.5
G1 Z0.0
G1 X34.75
G1 Z0.255
G1 X30.0
G1 Z0.0
G1 X25.5
G1 Z0.255
G1 X20.75
G1 Z0.0
G1 X10.5
G1 Z0.252
G1 X10.25
G1 Z0.255
G1 X5.75
G1 Z0.0
G1 X5.25
M5 
G0 X5.25 Y16.0 Z0 
M3 
G1 X5.75
G1 Z0.252
G1 X6.0
G1 Z0.255
G1 X10.5
G1 Z0.0
G1 X20.5
G1 Z0.157
G1 X20.75
G1 Z0.255
G1 X25.25
G1 Z0.0
G1 X30.0
G1 Z0.255
G1 X34.5
G1 Z0.252
G1 X34.75
G1 Z0.0
G1 X39.25
G1 Z0.052
G1 X39.5
G1 Z0.255
G1 X44.0
G1 Z0.036
G1 X44.25
G1 Z0.0
G1 X44.75
M5 
G0 X44.5 Y16.25 Z0 
M3 
G1 X44.0
G1 Z0.255
G1 X39.25
G1 Z0.0
G1 X34.5
G1 Z0.255
G1 X29.75
G1 Z0.0
G1 X25.25
G1 Z0.255
G1 X20.5
G1 Z0.0
G1 X10.75
G1 Z0.255
G1 X6.0
G1 Z0.0
G1 X5.5
M5 
G0 X5.5 Y16.5 Z0 
M3 
G1 X6.0
G1 Z0.162
G1 X6.25
G1 Z0.255
G1 X10.75
G1 Z0.013
G1 X11.0
G1 Z0.0
G1 X20.25
G1 Z0.25
G1 X20.5
G1 Z0.255
G1 X25.0
G1 Z0.0
G1 X29.5
G1 Z0.041
G1 X29.75
G1 Z0.255
G1 X34.25
G1 Z0.165
G1 X34.5
G1 Z0.0
G1 X39.0
G1 Z0.191
G1 X39.25
G1 Z0.255
G1 X43.75
G1 Z0.0
G1 X44.25
M5 
G0 X44.25 Y16.75 Z0 
M3 
G1 X43.75
G1 Z0.255
G1 X39.0
G1 Z0.0
G1 X34.25
G1 Z0.255
G1 X29.5
G1 Z0.0
G1 X25.0
G1 Z0.227
G1 X24.75
G1 Z0.255
G1 X20.25
G1 Z0.0
G1 X11.0
G1 Z0.255
G1 X6.25
G1 Z0.0
G1 X5.75
M5 
G0 X5.75 Y17.0 Z0 
M3 
G1 X6.25
G1 Z0.028
G1 X6.5
G1 Z0.255
G1 X11.0
G1 Z0.118
G1 X11.25
G1 Z0.0
G1 X20.0
G1 Z0.255
G1 X24.75
G1 Z0.0
G1 X29.25
G1 Z0.178
G1 X29.5
G1 Z0.255
G1 X34.0
G1 Z0.036
G1 X34.25
G1 Z0.0
G1 X38.75
G1 Z0.255
G1 X43.5
G1 Z0.0
G1 X44.0
M5 
G0 X44.0 Y17.25 Z0 
M3 
G1 X43.5
G1 Z0.188
G1 X43.25
G1 Z0.255
G1 X38.75
G1 Z0.0
G1 X34.0
G1 Z0.255
G1 X29.25
G1 Z0.0
G1 X24.75
G1 Z0.095
G1 X24.5
G1 Z0.255
G1 X20.0
G1 Z0.01
G1 X19.75
G1 Z0.0
G1 X11.25
G1 Z0.255
G1 X6.5
G1 Z0.0
G1 X6.0
M5 
G0 X6.25 Y17.5 Z0 
M3 
G1 X6.75
G1 Z0.255
G1 X11.25
G1 Z0.237
G1 X11.5
G1 Z0.0
G1 X19.75
G1 Z0.255
G1 X24.5
G1 Z0.0
G1 X29.0
G1 Z0.255
G1 X33.75
G1 Z0.0
G1 X38.5
G1 Z0.255
G1 X43.25
G1 Z0.0
G1 X43.75
M5 
G0 X43.75 Y17.75 Z0 
M3 
G1 X43.25
G1 Z0.052
G1 X43.0
G1 Z0.255
G1 X38.5
G1 Z0.041
G1 X38.25
G1 Z0.0
G1 X33.75
G1 Z0.255
G1 X29.0
G1 Z0.0
G1 X24.5
G1 Z0.003
G1 X24.25
G1 Z0.255
G1 X19.75
G1 Z0.126
G1 X19.5
G1 Z0.0
G1 X11.5
G1 Z0.255
G1 X6.75
G1 Z0.0
G1 X6.25
M5 
G0 X6.5 Y18.0 Z0 
M3 
G1 X7.0
G1 Z0.255
G1 X11.75
G1 Z0.0
G1 X19.5
G1 Z0.255
G1 X24.25
G1 Z0.0
G1 X28.75
G1 Z0.255
G1 X33.5
G1 Z0.0
G1 X38.25
G1 Z0.255
G1 X43.0
G1 Z0.0
G1 X43.5
M5 
G0 X43.25 Y18.25 Z0 
M3 
G1 X42.75
G1 Z0.255
G1 X38.25
G1 Z0.18
G1 X38.0
G1 Z0.0
G1 X33.5
G1 Z0.188
G1 X33.25
G1 Z0.255
G1 X28.75
G1 Z0.021
G1 X28.5
G1 Z0.0
G1 X24.0
G1 Z0.255
G1 X19.5
G1 Z0.24
G1 X19.25
G1 Z0.0
G1 X11.75
G1 Z0.255
G1 X7.25
G1 Z0.183
G1 X7.0
G1 Z0.0
G1 X6.5
M5 
G0 X6.75 Y18.5 Z0 
M3 
G1 X7.25
G1 Z0.255
G1 X12.0
G1 Z0.0
G1 X19.25
G1 Z0.255
G1 X23.75
G1 Z0.237
G1 X24.0
G1 Z0.0
G1 X28.5
G1 Z0.255
G1 X33.25
G1 Z0.0
G1 X38.0
G1 Z0.255
G1 X42.75
G1 Z0.0
G1 X43.25
M5 
G0 X43.0 Y18.75 Z0 
M3 
G1 X42.5
G1 Z0.255
G1 X37.75
G1 Z0.0
G1 X33.25
G1 Z0.052
G1 X33.0
G1 Z0.255
G1 X28.5
G1 Z0.144
G1 X28.25
G1 Z0.0
G1 X23.75
G1 Z0.255
G1 X19.0
G1 Z0.0
G1 X12.25
G1 Z0.077
G1 X12.0
G1 Z0.255
G1 X7.5
G1 Z0.046
G1 X7.25
G1 Z0.0
G1 X6.75
M5 
G0 X7.0 Y19.0 Z0 
M3 
G1 X7.5
G1 Z0.255
G1 X12.25
G1 Z0.0
G1 X18.75
G1 Z0.003
G1 X19.0
G1 Z0.255
G1 X23.5
G1 Z0.116
G1 X23.75
G1 Z0.0
G1 X28.25
G1 Z0.255
G1 X33.0
G1 Z0.0
G1 X37.75
G1 Z0.255
G1 X42.25
G1 Z0.206
G1 X42.5
G1 Z0.0
G1 X43.0
M5 
G0 X42.75 Y19.25 Z0 
M3 
G1 X42.25
G1 Z0.255
G1 X37.5
G1 Z0.0
G1 X32.75
G1 Z0.255
G1 X28.25
G1 Z0.247
G1 X28.0
G1 Z0.0
G1 X23.5
G1 Z0.255
G1 X18.75
G1 Z0.0
G1 X12.5
G1 Z0.214
G1 X12.25
G1 Z0.255
G1 X7.75
G1 Z0.0
G1 X7.25
M5 
G0 X7.25 Y19.5 Z0 
M3 
G1 X7.75
G1 Z0.255
G1 X12.5
G1 Z0.0
G1 X18.5
G1 Z0.098
G1 X18.75
G1 Z0.255
G1 X23.25
G1 Z0.008
G1 X23.5
G1 Z0.0
G1 X28.0
G1 Z0.255
G1 X32.75
G1 Z0.0
G1 X37.25
G1 Z0.031
G1 X37.5
G1 Z0.255
G1 X42.0
G1 Z0.072
G1 X42.25
G1 Z0.0
G1 X42.75
M5 
G0 X42.5 Y19.75 Z0 
M3 
G1 X42.0
G1 Z0.255
G1 X37.25
G1 Z0.0
G1 X32.5
G1 Z0.255
G1 X27.75
G1 Z0.0
G1 X23.25
G1 Z0.255
G1 X18.5
G1 Z0.0
G1 X12.75
G1 Z0.255
G1 X8.0
G1 Z0.0
G1 X7.5
M5 
G0 X7.5 Y20.0 Z0 
M3 
G1 X8.0
G1 Z0.203
G1 X8.25
G1 Z0.255
G1 X12.75
G1 Z0.0
G1 X18.25
G1 Z0.224
G1 X18.5
G1 Z0.255
G1 X23.0
G1 Z0.0
G1 X27.5
G1 Z0.005
G1 X27.75
G1 Z0.255
G1 X32.25
G1 Z0.206
G1 X32.5
G1 Z0.0
G1 X37.0
G1 Z0.17
G1 X37.25
G1 Z0.255
G1 X41.75
G1 Z0.0
G1 X42.25
M5 
G0 X42.25 Y20.25 Z0 
M3 
G1 X41.75
G1 Z0.255
G1 X37.0
G1 Z0.0
G1 X32.25
G1 Z0.255
G1 X27.5
G1 Z0.0
G1 X23.0
G1 Z0.247
G1 X22.75
G1 Z0.255
G1 X18.25
G1 Z0.0
G1 X13.0
G1 Z0.255
G1 X8.25
G1 Z0.0
G1 X7.75
M5 
G0 X7.75 Y20.5 Z0 
M3 
G1 X8.25
G1 Z0.064
G1 X8.5
G1 Z0.255
G1 X13.0
G1 Z0.044
G1 X13.25
G1 Z0.0
G1 X18.25
G1 Z0.062
G1 X18.5
G1 Z0.255
G1 X22.75
G1 Z0.0
G1 X27.25
G1 Z0.111
G1 X27.5
G1 Z0.255
G1 X32.0
G1 Z0.07
G1 X32.25
G1 Z0.0
G1 X36.75
G1 Z0.255
G1 X41.5
G1 Z0.0
G1 X42.0
M5 
G0 X42.0 Y20.75 Z0 
M3 
G1 X41.5
G1 Z0.227
G1 X41.25
G1 Z0.255
G1 X36.75
G1 Z0.0
G1 X32.0
G1 Z0.255
G1 X27.25
G1 Z0.0
G1 X22.75
G1 Z0.137
G1 X22.5
G1 Z0.255
G1 X18.5
G1 Z0.0
G1 X13.25
G1 Z0.255
G1 X8.5
G1 Z0.0
G1 X8.0
M5 
G0 X8.25 Y21.0 Z0 
M3 
G1 X8.75
G1 Z0.255
G1 X13.25
G1 Z0.17
G1 X13.5
G1 Z0.0
G1 X18.75
G1 Z0.255
G1 X22.5
G1 Z0.0
G1 X27.0
G1 Z0.229
G1 X27.25
G1 Z0.255
G1 X31.75
G1 Z0.0
G1 X36.5
G1 Z0.255
G1 X41.25
G1 Z0.0
G1 X41.75
M5 
G0 X41.75 Y21.25 Z0 
M3 
G1 X41.25
G1 Z0.093
G1 X41.0
G1 Z0.255
G1 X36.5
G1 Z0.023
G1 X36.25
G1 Z0.0
G1 X31.75
G1 Z0.255
G1 X27.0
G1 Z0.0
G1 X22.5
G1 Z0.018
G1 X22.25
G1 Z0.255
G1 X18.75
G1 Z0.0
G1 X13.5
G1 Z0.255
G1 X8.75
G1 Z0.0
G1 X8.25
M5 
G0 X8.5 Y21.5 Z0 
M3 
G1 X9.0
G1 Z0.255
G1 X13.5
G1 Z0.252
G1 X13.75
G1 Z0.0
G1 X19.0
G1 Z0.255
G1 X22.25
G1 Z0.0
G1 X26.75
G1 Z0.255
G1 X31.5
G1 Z0.0
G1 X36.25
G1 Z0.255
G1 X41.0
G1 Z0.0
G1 X41.5
M5 
G0 X41.5 Y21.75 Z0 
M3 
G1 X41.0
G1 Z0.003
G1 X40.75
G1 Z0.255
G1 X36.25
G1 Z0.157
G1 X36.0
G1 Z0.0
G1 X31.5
G1 Z0.222
G1 X31.25
G1 Z0.255
G1 X26.75
G1 Z0.0
G1 X22.0
G1 Z0.255
G1 X19.25
G1 Z0.209
G1 X19.0
G1 Z0.0
G1 X13.75
G1 Z0.255
G1 X9.25
G1 Z0.224
G1 X9.0
G1 Z0.0
G1 X8.5
M5 
G0 X8.75 Y22.0 Z0 
M3 
G1 X9.25
G1 Z0.255
G1 X14.0
G1 Z0.0
G1 X19.25
G1 Z0.255
G1 X21.75
G1 Z0.252
G1 X22.0
G1 Z0.0
G1 X26.5
G1 Z0.255
G1 X31.25
G1 Z0.0
G1 X36.0
G1 Z0.255
G1 X40.75
G1 Z0.0
G1 X41.25
M5 
G0 X41.0 Y22.25 Z0 
M3 
G1 X40.5
G1 Z0.255
G1 X36.0
G1 Z0.25
G1 X35.75
G1 Z0.0
G1 X31.25
G1 Z0.088
G1 X31.0
G1 Z0.255
G1 X26.5
G1 Z0.077
G1 X26.25
G1 Z0.0
G1 X21.75
G1 Z0.255
G1 X19.5
G1 Z0.072
G1 X19.25
G1 Z0.0
G1 X14.25
G1 Z0.018
G1 X14.0
G1 Z0.255
G1 X9.5
G1 Z0.093
G1 X9.25
G1 Z0.0
G1 X8.75
M5 
G0 X9.0 Y22.5 Z0 
M3 
G1 X9.5
G1 Z0.255
G1 X14.25
G1 Z0.0
G1 X19.5
G1 Z0.255
G1 X21.5
G1 Z0.157
G1 X21.75
G1 Z0.0
G1 X26.25
G1 Z0.255
G1 X31.0
G1 Z0.0
G1 X35.75
G1 Z0.255
G1 X40.25
G1 Z0.237
G1 X40.5
G1 Z0.0
G1 X41.0
M5 
G0 X40.75 Y22.75 Z0 
M3 
G1 X40.25
G1 Z0.255
G1 X35.5
G1 Z0.0
G1 X31.0
G1 Z0.003
G1 X30.75
G1 Z0.255
G1 X26.25
G1 Z0.209
G1 X26.0
G1 Z0.0
G1 X21.5
G1 Z0.255
G1 X19.75
G1 Z0.0
G1 X14.5
G1 Z0.129
G1 X14.25
G1 Z0.255
G1 X9.75
G1 Z0.003
G1 X9.5
G1 Z0.0
G1 X9.0
M5 
G0 X9.25 Y23.0 Z0 
M3 
G1 X9.75
G1 Z0.255
G1 X14.5
G1 Z0.0
G1 X19.75
G1 Z0.255
G1 X21.25
G1 Z0.031
G1 X21.5
G1 Z0.0
G1 X26.0
G1 Z0.255
G1 X30.75
G1 Z0.0
G1 X35.25
G1 Z0.018
G1 X35.5
G1 Z0.255
G1 X40.0
G1 Z0.116
G1 X40.25
G1 Z0.0
G1 X40.75
M5 
G0 X40.5 Y23.25 Z0 
M3 
G1 X40.0
G1 Z0.255
G1 X35.25
G1 Z0.0
G1 X30.5
G1 Z0.255
G1 X25.75
G1 Z0.0
G1 X21.25
G1 Z0.255
G1 X20.0
G1 Z0.0
G1 X14.75
G1 Z0.242
G1 X14.5
G1 Z0.255
G1 X10.0
G1 Z0.0
G1 X9.5
M5 
G0 X9.5 Y23.5 Z0 
M3 
G1 X10.0
G1 Z0.237
G1 X10.25
G1 Z0.255
G1 X14.75
G1 Z0.0
G1 X20.0
G1 Z0.216
G1 X20.25
G1 Z0.255
G1 X21.0
G1 Z0.0
G1 X25.75
G1 Z0.255
G1 X30.25
G1 Z0.234
G1 X30.5
G1 Z0.0
G1 X35.0
G1 Z0.144
G1 X35.25
G1 Z0.255
G1 X39.75
G1 Z0.008
G1 X40.0
G1 Z0.0
G1 X40.5
M5 
G0 X40.25 Y23.75 Z0 
M3 
G1 X39.75
G1 Z0.255
G1 X35.0
G1 Z0.0
G1 X30.25
G1 Z0.255
G1 X25.5
G1 Z0.0
G1 X21.0
G1 Z0.255
G1 X20.25
G1 Z0.0
G1 X15.0
G1 Z0.255
G1 X10.25
G1 Z0.0
G1 X9.75
M5 
G0 X9.75 Y24.0 Z0 
M3 
G1 X10.25
G1 Z0.118
G1 X10.5
G1 Z0.255
G1 X15.0
G1 Z0.003
G1 X15.25
G1 Z0.0
G1 X20.25
G1 Z0.08
G1 X20.5
G1 Z0.255
G1 X20.75
G1 Z0.0
G1 X25.25
G1 Z0.041
G1 X25.5
G1 Z0.255
G1 X30.0
G1 Z0.111
G1 X30.25
G1 Z0.0
G1 X34.75
G1 Z0.25
G1 X35.0
G1 Z0.255
G1 X39.5
G1 Z0.0
G1 X40.0
M5 
G0 X40.0 Y24.25 Z0 
M3 
G1 X39.5
G1 Z0.247
G1 X39.25
G1 Z0.255
G1 X34.75
G1 Z0.0
G1 X30.0
G1 Z0.255
G1 X25.25
G1 Z0.0
G1 X20.75
G1 Z0.18
G1 X20.5
G1 Z0.0
G1 X15.25
G1 Z0.255
G1 X10.5
G1 Z0.0
G1 X10.0
M5 
G0 X10.0 Y24.5 Z0 
M3 
G1 X10.5
G1 Z0.008
G1 X10.75
G1 Z0.255
G1 X15.25
G1 Z0.085
G1 X15.5
G1 Z0.0
G1 X25.0
G1 Z0.178
G1 X25.25
G1 Z0.255
G1 X29.75
G1 Z0.005
G1 X30.0
G1 Z0.0
G1 X34.5
G1 Z0.255
G1 X39.25
G1 Z0.0
G1 X39.75
M5 
G0 X39.75 Y24.75 Z0 
M3 
G1 X39.25
G1 Z0.139
G1 X39.0
G1 Z0.255
G1 X34.5
G1 Z0.013
G1 X34.25
G1 Z0.0
G1 X29.75
G1 Z0.255
G1 X25.0
G1 Z0.0
G1 X15.5
G1 Z0.255
G1 X10.75
G1 Z0.0
G1 X10.25
M5 
G0 X10.5 Y25.0 Z0 
M3 
G1 X11.0
G1 Z0.255
G1 X15.5
G1 Z0.219
G1 X15.75
G1 Z0.0
G1 X24.75
G1 Z0.255
G1 X29.5
G1 Z0.0
G1 X34.25
G1 Z0.255
G1 X39.0
G1 Z0.0
G1 X39.5
M5 
G0 X39.5 Y25.25 Z0 
M3 
G1 X39.0
G1 Z0.018
G1 X38.75
G1 Z0.255
G1 X34.25
G1 Z0.131
G1 X34.0
G1 Z0.0
G1 X29.5
G1 Z0.247
G1 X29.25
G1 Z0.255
G1 X24.75
G1 Z0.0
G1 X15.75
G1 Z0.255
G1 X11.25
G1 Z0.247
G1 X11.0
G1 Z0.0
G1 X10.5
M5 
G0 X10.75 Y25.5 Z0 
M3 
G1 X11.25
G1 Z0.255
G1 X16.0
G1 Z0.0
G1 X24.5
G1 Z0.255
G1 X29.25
G1 Z0.0
G1 X34.0
G1 Z0.255
G1 X38.75
G1 Z0.0
G1 X39.25
M5 
G0 X39.0 Y25.75 Z0 
M3 
G1 X38.5
G1 Z0.255
G1 X34.0
G1 Z0.245
G1 X33.75
G1 Z0.0
G1 X29.25
G1 Z0.129
G1 X29.0
G1 Z0.255
G1 X24.5
G1 Z0.023
G1 X24.25
G1 Z0.0
G1 X16.0
G1 Z0.255
G1 X11.5
G1 Z0.142
G1 X11.25
G1 Z0.0
G1 X10.75
M5 
G0 X11.0 Y26.0 Z0 
M3 
G1 X11.5
G1 Z0.255
G1 X16.25
G1 Z0.0
G1 X24.25
G1 Z0.255
G1 X29.0
G1 Z0.0
G1 X33.75
G1 Z0.255
G1 X38.25
G1 Z0.252
G1 X38.5
G1 Z0.0
G1 X39.0
M5 
G0 X38.75 Y26.25 Z0 
M3 
G1 X38.25
G1 Z0.255
G1 X33.5
G1 Z0.0
G1 X29.0
G1 Z0.015
G1 X28.75
G1 Z0.255
G1 X24.25
G1 Z0.147
G1 X24.0
G1 Z0.0
G1 X16.5
G1 Z0.052
G1 X16.25
G1 Z0.255
G1 X11.75
G1 Z0.018
G1 X11.5
G1 Z0.0
G1 X11.0
M5 
G0 X11.25 Y26.5 Z0 
M3 
G1 X11.75
G1 Z0.255
G1 X16.5
G1 Z0.0
G1 X24.0
G1 Z0.255
G1 X28.75
G1 Z0.0
G1 X33.25
G1 Z0.008
G1 X33.5
G1 Z0.255
G1 X38.0
G1 Z0.162
G1 X38.25
G1 Z0.0
G1 X38.75
M5 
G0 X38.5 Y26.75 Z0 
M3 
G1 X38.0
G1 Z0.255
G1 X33.25
G1 Z0.0
G1 X28.5
G1 Z0.255
G1 X24.0
G1 Z0.25
G1 X23.75
G1 Z0.0
G1 X16.75
G1 Z0.178
G1 X16.5
G1 Z0.255
G1 X12.0
G1 Z0.0
G1 X11.5
M5 
G0 X11.5 Y27.0 Z0 
M3 
G1 X12.0
G1 Z0.252
G1 X12.25
G1 Z0.255
G1 X16.75
G1 Z0.0
G1 X23.75
G1 Z0.255
G1 X28.25
G1 Z0.25
G1 X28.5
G1 Z0.0
G1 X33.0
G1 Z0.118
G1 X33.25
G1 Z0.255
G1 X37.75
G1 Z0.031
G1 X38.0
G1 Z0.0
G1 X38.5
M5 
G0 X38.25 Y27.25 Z0 
M3 
G1 X37.75
G1 Z0.255
G1 X33.0
G1 Z0.0
G1 X28.25
G1 Z0.255
G1 X23.5
G1 Z0.0
G1 X17.0
G1 Z0.255
G1 X12.25
G1 Z0.0
G1 X11.75
M5 
G0 X11.75 Y27.5 Z0 
M3 
G1 X12.25
G1 Z0.167
G1 X12.5
G1 Z0.255
G1 X17.0
G1 Z0.0
G1 X23.25
G1 Z0.005
G1 X23.5
G1 Z0.255
G1 X28.0
G1 Z0.152
G1 X28.25
G1 Z0.0
G1 X32.75
G1 Z0.24
G1 X33.0
G1 Z0.255
G1 X37.5
G1 Z0.0
G1 X38.0
M5 
G0 X38.0 Y27.75 Z0 
M3 
G1 X37.5
G1 Z0.255
G1 X32.75
G1 Z0.0
G1 X28.0
G1 Z0.255
G1 X23.25
G1 Z0.0
G1 X17.25
G1 Z0.255
G1 X12.5
G1 Z0.0
G1 X12.0
M5 
G0 X12.0 Y28.0 Z0 
M3 
G1 X12.5
G1 Z0.033
G1 X12.75
G1 Z0.255
G1 X17.25
G1 Z0.018
G1 X17.5
G1 Z0.0
G1 X23.0
G1 Z0.111
G1 X23.25
G1 Z0.255
G1 X27.75
G1 Z0.023
G1 X28.0
G1 Z0.0
G1 X32.5
G1 Z0.255
G1 X37.25
G1 Z0.0
G1 X37.75
M5 
G0 X37.75 Y28.25 Z0 
M3 
G1 X37.25
G1 Z0.188
G1 X37.0
G1 Z0.255
G1 X32.5
G1 Z0.003
G1 X32.25
G1 Z0.0
G1 X27.75
G1 Z0.255
G1 X23.0
G1 Z0.0
G1 X17.5
G1 Z0.255
G1 X12.75
G1 Z0.0
G1 X12.25
M5 
G0 X12.5 Y28.5 Z0 
M3 
G1 X13.0
G1 Z0.255
G1 X17.5
G1 Z0.139
G1 X17.75
G1 Z0.0
G1 X22.75
G1 Z0.229
G1 X23.0
G1 Z0.255
G1 X27.5
G1 Z0.0
G1 X32.25
G1 Z0.255
G1 X37.0
G1 Z0.0
G1 X37.5
M5 
G0 X37.5 Y28.75 Z0 
M3 
G1 X37.0
G1 Z0.052
G1 X36.75
G1 Z0.255
G1 X32.25
G1 Z0.108
G1 X32.0
G1 Z0.0
G1 X27.5
G1 Z0.255
G1 X22.75
G1 Z0.0
G1 X17.75
G1 Z0.255
G1 X13.0
G1 Z0.0
G1 X12.5
M5 
G0 X12.75 Y29.0 Z0 
M3 
G1 X13.25
G1 Z0.255
G1 X17.75
G1 Z0.247
G1 X18.0
G1 Z0.0
G1 X22.5
G1 Z0.255
G1 X27.25
G1 Z0.0
G1 X32.0
G1 Z0.255
G1 X36.75
G1 Z0.0
G1 X37.25
M5 
G0 X37.0 Y29.25 Z0 
M3 
G1 X36.5
G1 Z0.255
G1 X32.0
G1 Z0.232
G1 X31.75
G1 Z0.0
G1 X27.5
G1 Z0.255
G1 X22.5
G1 Z0.0
G1 X18.0
G1 Z0.255
G1 X13.5
G1 Z0.188
G1 X13.25
G1 Z0.0
G1 X12.75
M5 
G0 X13.0 Y29.5 Z0 
M3 
G1 X13.5
G1 Z0.255
G1 X18.25
G1 Z0.0
G1 X22.25
G1 Z0.255
G1 X27.5
G1 Z0.031
G1 X27.75
G1 Z0.0
G1 X31.75
G1 Z0.255
G1 X36.5
G1 Z0.0
G1 X37.0
M5 
G0 X36.75 Y29.75 Z0 
M3 
G1 X36.25
G1 Z0.255
G1 X31.5
G1 Z0.0
G1 X27.75
G1 Z0.255
G1 X22.25
G1 Z0.077
G1 X22.0
G1 Z0.0
G1 X18.5
G1 Z0.005
G1 X18.25
G1 Z0.255
G1 X13.75
G1 Z0.052
G1 X13.5
G1 Z0.0
G1 X13.0
M5 
G0 X13.25 Y30.0 Z0 
M3 
G1 X13.75
G1 Z0.255
G1 X18.5
G1 Z0.0
G1 X22.0
G1 Z0.255
G1 X27.75
G1 Z0.157
G1 X28.0
G1 Z0.0
G1 X31.25
G1 Z0.003
G1 X31.5
G1 Z0.255
G1 X36.0
G1 Z0.206
G1 X36.25
G1 Z0.0
G1 X36.75
M5 
G0 X36.5 Y30.25 Z0 
M3 
G1 X36.0
G1 Z0.255
G1 X31.25
G1 Z0.0
G1 X28.0
G1 Z0.255
G1 X22.0
G1 Z0.209
G1 X21.75
G1 Z0.0
G1 X18.75
G1 Z0.095
G1 X18.5
G1 Z0.255
G1 X14.0
G1 Z0.0
G1 X13.5
M5 
G0 X13.5 Y30.5 Z0 
M3 
G1 X14.0
G1 Z0.255
G1 X18.75
G1 Z0.0
G1 X21.75
G1 Z0.255
G1 X28.0
G1 Z0.252
G1 X28.25
G1 Z0.0
G1 X31.0
G1 Z0.093
G1 X31.25
G1 Z0.255
G1 X35.75
G1 Z0.07
G1 X36.0
G1 Z0.0
G1 X36.5
M5 
G0 X36.25 Y30.75 Z0 
M3 
G1 X35.75
G1 Z0.255
G1 X31.0
G1 Z0.0
G1 X28.25
G1 Z0.255
G1 X21.5
G1 Z0.0
G1 X19.0
G1 Z0.222
G1 X18.75
G1 Z0.255
G1 X14.25
G1 Z0.0
G1 X13.75
M5 
G0 X13.75 Y31.0 Z0 
M3 
G1 X14.25
G1 Z0.209
G1 X14.5
G1 Z0.255
G1 X19.0
G1 Z0.0
G1 X21.5
G1 Z0.255
G1 X28.5
G1 Z0.0
G1 X30.75
G1 Z0.224
G1 X31.0
G1 Z0.255
G1 X35.5
G1 Z0.0
G1 X36.0
M5 
G0 X36.0 Y31.25 Z0 
M3 
G1 X35.5
G1 Z0.255
G1 X30.75
G1 Z0.0
G1 X28.75
G1 Z0.015
G1 X28.5
G1 Z0.255
G1 X21.25
G1 Z0.0
G1 X19.25
G1 Z0.255
G1 X14.5
G1 Z0.0
G1 X14.0
M5 
G0 X14.0 Y31.5 Z0 
M3 
G1 X14.5
G1 Z0.077
G1 X14.75
G1 Z0.255
G1 X19.25
G1 Z0.0
G1 X21.0
G1 Z0.046
G1 X21.25
G1 Z0.255
G1 X28.75
G1 Z0.0
G1 X30.5
G1 Z0.255
G1 X35.25
G1 Z0.0
G1 X35.75
M5 
G0 X35.75 Y31.75 Z0 
M3 
G1 X35.25
G1 Z0.222
G1 X35.0
G1 Z0.255
G1 X30.5
G1 Z0.0
G1 X29.0
G1 Z0.131
G1 X28.75
G1 Z0.255
G1 X21.0
G1 Z0.0
G1 X19.5
G1 Z0.255
G1 X14.75
G1 Z0.0
G1 X14.25
M5 
G0 X14.5 Y32.0 Z0 
M3 
G1 X15.0
G1 Z0.255
G1 X19.5
G1 Z0.059
G1 X19.75
G1 Z0.0
G1 X20.75
G1 Z0.183
G1 X21.0
G1 Z0.255
G1 X29.0
G1 Z0.0
G1 X30.25
G1 Z0.255
G1 X35.0
G1 Z0.0
G1 X35.5
M5 
G0 X35.5 Y32.25 Z0 
M3 
G1 X35.0
G1 Z0.09
G1 X34.75
G1 Z0.255
G1 X30.25
G1 Z0.082
G1 X30.0
G1 Z0.0
G1 X29.25
G1 Z0.245
G1 X29.0
G1 Z0.255
G1 X20.75
G1 Z0.0
G1 X19.75
G1 Z0.255
G1 X15.0
G1 Z0.0
G1 X14.5
M5 
G0 X14.75 Y32.5 Z0 
M3 
G1 X15.25
G1 Z0.255
G1 X19.75
G1 Z0.191
G1 X20.0
G1 Z0.0
G1 X20.5
G1 Z0.255
G1 X29.25
G1 Z0.0
G1 X30.0
G1 Z0.255
G1 X34.75
G1 Z0.0
G1 X35.25
M5 
G0 X35.25 Y32.75 Z0 
M3 
G1 X34.75
G1 Z0.003
G1 X34.5
G1 Z0.255
G1 X30.0
G1 Z0.216
G1 X29.75
G1 Z0.0
G1 X29.5
G1 Z0.255
G1 X20.5
G1 Z0.0
G1 X20.0
G1 Z0.255
G1 X15.5
G1 Z0.224
G1 X15.25
G1 Z0.0
G1 X14.75
M5 
G0 X15.0 Y33.0 Z0 
M3 
G1 X15.5
G1 Z0.255
G1 X29.5
G1 Z0.005
G1 X29.75
G1 Z0.255
G1 X34.5
G1 Z0.0
G1 X35.0
M5 
G0 X34.75 Y33.25 Z0 
M3 
G1 X34.25
G1 Z0.255
G1 X25.0
G1 Z0.09
G1 X24.75
G1 Z0.255
G1 X15.75
G1 Z0.098
G1 X15.5
G1 Z0.0
G1 X15.0
M5 
G0 X15.25 Y33.5 Z0 
M3 
G1 X15.75
G1 Z0.255
G1 X24.75
G1 Z0.0
G1 X25.25
G1 Z0.255
G1 X34.0
G1 Z0.237
G1 X34.25
G1 Z0.0
G1 X34.75
M5 
G0 X34.5 Y33.75 Z0 
M3 
G1 X34.0
G1 Z0.255
G1 X25.25
G1 Z0.0
G1 X24.75
G1 Z0.003
G1 X24.5
G1 Z0.255
G1 X16.0
G1 Z0.003
G1 X15.75
G1 Z0.0
G1 X15.25
M5 
G0 X15.5 Y34.0 Z0 
M3 
G1 X16.0
G1 Z0.255
G1 X24.5
G1 Z0.0
G1 X25.5
G1 Z0.255
G1 X33.75
G1 Z0.113
G1 X34.0
G1 Z0.0
G1 X34.5
M5 
G0 X34.25 Y34.25 Z0 
M3 
G1 X33.75
G1 Z0.255
G1 X25.75
G1 Z0.216
G1 X25.5
G1 Z0.0
G1 X24.25
G1 Z0.255
G1 X16.25
G1 Z0.0
G1 X15.75
M5 
G0 X15.75 Y34.5 Z0 
M3 
G1 X16.25
G1 Z0.24
G1 X16.5
G1 Z0.255
G1 X24.0
G1 Z0.242
G1 X24.25
G1 Z0.0
G1 X25.75
G1 Z0.255
G1 X33.5
G1 Z0.008
G1 X33.75
G1 Z0.0
G1 X34.25
M5 
G0 X34.0 Y34.75 Z0 
M3 
G1 X33.5
G1 Z0.255
G1 X26.0
G1 Z0.08
G1 X25.75
G1 Z0.0
G1 X24.0
G1 Z0.255
G1 X16.5
G1 Z0.0
G1 X16.0
M5 
G0 X16.0 Y35.0 Z0 
M3 
G1 X16.5
G1 Z0.126
G1 X16.75
G1 Z0.255
G1 X23.75
G1 Z0.126
G1 X24.0
G1 Z0.0
G1 X26.0
G1 Z0.255
G1 X33.25
G1 Z0.0
G1 X33.75
M5 
G0 X33.75 Y35.25 Z0 
M3 
G1 X33.25
G1 Z0.247
G1 X33.0
G1 Z0.255
G1 X26.25
G1 Z0.0
G1 X23.75
G1 Z0.255
G1 X16.75
G1 Z0.0
G1 X16.25
M5 
G0 X16.25 Y35.5 Z0 
M3 
G1 X16.75
G1 Z0.008
G1 X17.0
G1 Z0.255
G1 X23.5
G1 Z0.015
G1 X23.75
G1 Z0.0
G1 X26.25
G1 Z0.255
G1 X33.0
G1 Z0.0
G1 X33.5
M5 
G0 X33.5 Y35.75 Z0 
M3 
G1 X33.0
G1 Z0.134
G1 X32.75
G1 Z0.255
G1 X26.5
G1 Z0.0
G1 X23.5
G1 Z0.255
G1 X17.0
G1 Z0.0
G1 X16.5
M5 
G0 X16.75 Y36.0 Z0 
M3 
G1 X17.25
G1 Z0.255
G1 X23.25
G1 Z0.0
G1 X26.5
G1 Z0.211
G1 X26.75
G1 Z0.255
G1 X32.75
G1 Z0.0
G1 X33.25
M5 
G0 X33.25 Y36.25 Z0 
M3 
G1 X32.75
G1 Z0.018
G1 X32.5
G1 Z0.255
G1 X26.75
G1 Z0.0
G1 X23.25
G1 Z0.252
G1 X23.0
G1 Z0.255
G1 X17.5
G1 Z0.25
G1 X17.25
G1 Z0.0
G1 X16.75
M5 
G0 X17.0 Y36.5 Z0 
M3 
G1 X17.5
G1 Z0.255
G1 X23.0
G1 Z0.0
G1 X26.75
G1 Z0.067
G1 X27.0
G1 Z0.255
G1 X32.5
G1 Z0.0
G1 X33.0
M5 
G0 X32.75 Y36.75 Z0 
M3 
G1 X32.25
G1 Z0.255
G1 X27.0
G1 Z0.0
G1 X23.0
G1 Z0.165
G1 X22.75
G1 Z0.255
G1 X17.75
G1 Z0.147
G1 X17.5
G1 Z0.0
G1 X17.0
M5 
G0 X17.25 Y37.0 Z0 
M3 
G1 X17.75
G1 Z0.255
G1 X22.75
G1 Z0.0
G1 X27.25
G1 Z0.255
G1 X32.0
G1 Z0.252
G1 X32.25
G1 Z0.0
G1 X32.75
M5 
G0 X32.5 Y37.25 Z0 
M3 
G1 X32.0
G1 Z0.255
G1 X27.25
G1 Z0.0
G1 X22.75
G1 Z0.036
G1 X22.5
G1 Z0.255
G1 X18.0
G1 Z0.023
G1 X17.75
G1 Z0.0
G1 X17.25
M5 
G0 X17.5 Y37.5 Z0 
M3 
G1 X18.0
G1 Z0.255
G1 X22.5
G1 Z0.0
G1 X27.5
G1 Z0.255
G1 X31.75
G1 Z0.157
G1 X32.0
G1 Z0.0
G1 X32.5
M5 
G0 X32.25 Y37.75 Z0 
M3 
G1 X31.75
G1 Z0.255
G1 X27.75
G1 Z0.203
G1 X27.5
G1 Z0.0
G1 X22.25
G1 Z0.255
G1 X18.25
G1 Z0.0
G1 X17.75
M5 
G0 X17.75 Y38.0 Z0 
M3 
G1 X18.25
G1 Z0.255
G1 X22.25
G1 Z0.0
G1 X27.75
G1 Z0.255
G1 X31.5
G1 Z0.031
G1 X31.75
G1 Z0.0
G1 X32.25
M5 
G0 X32.0 Y38.25 Z0 
M3 
G1 X31.5
G1 Z0.255
G1 X28.0
G1 Z0.057
G1 X27.75
G1 Z0.0
G1 X22.0
G1 Z0.255
G1 X18.5
G1 Z0.0
G1 X18.0
M5 
G0 X18.0 Y38.5 Z0 
M3 
G1 X18.5
G1 Z0.175
G1 X18.75
G1 Z0.255
G1 X21.75
G1 Z0.203
G1 X22.0
G1 Z0.0
G1 X28.0
G1 Z0.255
G1 X31.25
G1 Z0.0
G1 X31.75
M5 
G0 X31.75 Y38.75 Z0 
M3 
G1 X31.25
G1 Z0.255
G1 X28.25
G1 Z0.0
G1 X21.75
G1 Z0.255
G1 X18.75
G1 Z0.0
G1 X18.25
M5 
G0 X18.25 Y39.0 Z0 
M3 
G1 X18.75
G1 Z0.036
G1 X19.0
G1 Z0.255
G1 X21.5
G1 Z0.067
G1 X21.75
G1 Z0.0
G1 X28.25
G1 Z0.255
G1 X31.0
G1 Z0.0
G1 X31.5
M5 
G0 X31.5 Y39.25 Z0 
M3 
G1 X31.0
G1 Z0.18
G1 X30.75
G1 Z0.255
G1 X28.5
G1 Z0.0
G1 X21.5
G1 Z0.255
G1 X19.0
G1 Z0.0
G1 X18.5
M5 
G0 X18.75 Y39.5 Z0 
M3 
G1 X19.25
G1 Z0.255
G1 X21.25
G1 Z0.0
G1 X28.5
G1 Z0.196
G1 X28.75
G1 Z0.255
G1 X30.75
G1 Z0.0
G1 X31.25
M5 
G0 X31.25 Y39.75 Z0 
M3 
G1 X30.75
G1 Z0.046
G1 X30.5
G1 Z0.255
G1 X28.75
G1 Z0.0
G1 X21.25
G1 Z0.255
G1 X19.25
G1 Z0.0
G1 X18.75
M5 
G0 X19.0 Y40.0 Z0 
M3 
G1 X19.5
G1 Z0.255
G1 X21.0
G1 Z0.0
G1 X28.75
G1 Z0.049
G1 X29.0
G1 Z0.255
G1 X30.5
G1 Z0.0
G1 X31.0
M5 
G0 X30.75 Y40.25 Z0 
M3 
G1 X30.25
G1 Z0.255
G1 X29.0
G1 Z0.0
G1 X21.0
G1 Z0.229
G1 X20.75
G1 Z0.255
G1 X19.75
G1 Z0.196
G1 X19.5
G1 Z0.0
G1 X19.0
M5 
G0 X19.25 Y40.5 Z0 
M3 
G1 X19.75
G1 Z0.255
G1 X20.75
G1 Z0.0
G1 X29.25
G1 Z0.255
G1 X30.25
G1 Z0.0
G1 X30.75
M5 
G0 X30.5 Y40.75 Z0 
M3 
G1 X30.0
G1 Z0.255
G1 X29.25
G1 Z0.0
G1 X20.75
G1 Z0.103
G1 X20.5
G1 Z0.255
G1 X20.0
G1 Z0.057
G1 X19.75
G1 Z0.0
G1 X19.25
M5 
G0 X19.5 Y41.0 Z0 
M3 
G1 X20.0
G1 Z0.255
G1 X20.5
G1 Z0.0
G1 X29.5
G1 Z0.255
G1 X29.75
G1 Z0.206
G1 X30.0
G1 Z0.0
G1 X30.5
M5 
G0 X30.25 Y41.25 Z0 
M3 
G1 X29.75
G1 Z0.188
G1 X29.5
G1 Z0.0
G1 X20.5
G1 Z0.005
G1 X20.25
G1 Z0.0
G1 X19.75
M5 
